phattanaratjeedjeen-sudo/wheel_loader/results/csv/constant_arm_lift.csv
__time,/vehicle/loader_joint_angles/data[0],/vehicle/loader_joint_angles/data[1],/vehicle/loader_joint_angles/layout/data_offset,/vehicle/loader_joint_pressures/data[0],/vehicle/loader_joint_pressures/data[1],/vehicle/loader_joint_pressures/layout/data_offset
1782642344.627357,,,,2570.000000000,422.000000000,0.000000000
1782642344.627388,0.059082229,-0.073319435,0.000000000,,,
1782642344.637284,,,,2553.000000000,358.000000000,0.000000000
1782642344.637319,0.059034295,-0.073343277,0.000000000,,,
1782642344.647228,,,,2580.000000000,397.000000000,0.000000000
1782642344.647246,0.058986358,-0.073343277,0.000000000,,,
1782642344.657173,,,,2582.000000000,431.000000000,0.000000000
1782642344.657186,0.059010327,-0.073343277,0.000000000,,,
1782642344.667398,,,,2565.000000000,377.000000000,0.000000000
1782642344.667458,0.059010327,-0.073343277,0.000000000,,,
1782642344.677328,,,,2563.000000000,388.000000000,0.000000000
1782642344.677360,0.059106197,-0.073343277,0.000000000,,,
1782642344.687195,,,,2584.000000000,393.000000000,0.000000000
1782642344.687218,0.059058260,-0.073343277,0.000000000,,,
1782642344.697197,,,,2597.000000000,388.000000000,0.000000000
1782642344.697219,0.059034295,-0.073343277,0.000000000,,,
1782642344.707105,0.058962390,-0.073343277,0.000000000,,,
1782642344.707111,,,,2578.000000000,369.000000000,0.000000000
1782642344.717157,,,,2563.000000000,376.000000000,0.000000000
1782642344.717181,0.058986358,-0.073343277,0.000000000,,,
1782642344.727320,,,,2581.000000000,377.000000000,0.000000000
1782642344.727339,0.059010327,-0.073343277,0.000000000,,,
1782642344.737307,,,,2562.000000000,365.000000000,0.000000000
1782642344.737327,0.059034295,-0.073343277,0.000000000,,,
1782642344.747339,,,,2553.000000000,375.000000000,0.000000000
1782642344.747370,0.059082229,-0.073343277,0.000000000,,,
1782642344.757285,,,,2582.000000000,393.000000000,0.000000000
1782642344.757300,0.059034295,-0.073343277,0.000000000,,,
1782642344.767321,,,,2580.000000000,380.000000000,0.000000000
1782642344.767350,0.058938421,-0.073343277,0.000000000,,,
1782642344.777269,,,,2563.000000000,344.000000000,0.000000000
1782642344.777290,0.058986358,-0.073319435,0.000000000,,,
1782642344.787184,,,,2573.000000000,377.000000000,0.000000000
1782642344.787207,0.059010327,-0.073319435,0.000000000,,,
1782642344.797269,,,,2582.000000000,392.000000000,0.000000000
1782642344.797293,0.059010327,-0.073319435,0.000000000,,,
1782642344.807241,,,,2573.000000000,388.000000000,0.000000000
1782642344.807256,0.059082229,-0.073343277,0.000000000,,,
1782642344.817204,,,,2546.000000000,352.000000000,0.000000000
1782642344.817230,0.059034295,-0.073343277,0.000000000,,,
1782642344.827253,,,,2576.000000000,379.000000000,0.000000000
1782642344.827267,0.058986358,-0.073343277,0.000000000,,,
1782642344.837221,,,,2566.000000000,380.000000000,0.000000000
1782642344.837241,0.058986358,-0.073343277,0.000000000,,,
1782642344.847181,,,,2589.000000000,389.000000000,0.000000000
1782642344.847205,0.059010327,-0.073343277,0.000000000,,,
1782642344.857054,,,,2557.000000000,358.000000000,0.000000000
1782642344.857071,0.059034295,-0.073343277,0.000000000,,,
1782642344.867160,,,,2578.000000000,385.000000000,0.000000000
1782642344.867172,0.059034295,-0.073343277,0.000000000,,,
1782642344.877258,,,,2533.000000000,357.000000000,0.000000000
1782642344.877271,0.059034295,-0.073343277,0.000000000,,,
1782642344.887176,,,,2550.000000000,364.000000000,0.000000000
1782642344.887191,0.058986358,-0.073319435,0.000000000,,,
1782642344.897157,,,,2596.000000000,388.000000000,0.000000000
1782642344.897172,0.058986358,-0.073343277,0.000000000,,,
1782642344.907292,,,,2565.000000000,367.000000000,0.000000000
1782642344.907325,0.059010327,-0.073343277,0.000000000,,,
1782642344.917241,,,,2600.000000000,396.000000000,0.000000000
1782642344.917268,0.059034295,-0.073343277,0.000000000,,,
1782642344.927192,,,,2550.000000000,397.000000000,0.000000000
1782642344.927208,0.059082229,-0.073343277,0.000000000,,,
1782642344.937154,,,,2561.000000000,387.000000000,0.000000000
1782642344.937166,0.059034295,-0.073343277,0.000000000,,,
1782642344.947110,,,,2558.000000000,376.000000000,0.000000000
1782642344.947125,0.058962390,-0.073319435,0.000000000,,,
1782642344.957083,,,,2576.000000000,375.000000000,0.000000000
1782642344.957101,0.058986358,-0.073343277,0.000000000,,,
1782642344.967152,,,,2553.000000000,375.000000000,0.000000000
1782642344.967165,0.059010327,-0.073343277,0.000000000,,,
1782642344.977247,,,,2555.000000000,400.000000000,0.000000000
1782642344.977261,0.059034295,-0.073343277,0.000000000,,,
1782642344.987198,,,,2581.000000000,358.000000000,0.000000000
1782642344.987211,0.059058260,-0.073343277,0.000000000,,,
1782642344.997299,,,,2566.000000000,384.000000000,0.000000000
1782642344.997312,0.059034295,-0.073319435,0.000000000,,,
1782642345.007299,,,,2576.000000000,383.000000000,0.000000000
1782642345.007312,0.059010327,-0.073343277,0.000000000,,,
1782642345.017329,,,,2547.000000000,385.000000000,0.000000000
1782642345.017351,0.058962390,-0.073319435,0.000000000,,,
1782642345.027354,,,,2586.000000000,397.000000000,0.000000000
1782642345.027369,0.059010327,-0.073319435,0.000000000,,,
1782642345.037326,,,,2612.000000000,383.000000000,0.000000000
1782642345.037339,0.059034295,-0.073319435,0.000000000,,,
1782642345.047189,,,,2557.000000000,383.000000000,0.000000000
1782642345.047201,0.059034295,-0.073319435,0.000000000,,,
1782642345.057218,,,,2565.000000000,372.000000000,0.000000000
1782642345.057230,0.059034295,-0.073343277,0.000000000,,,
1782642345.067223,,,,2545.000000000,371.000000000,0.000000000
1782642345.067235,0.058986358,-0.073343277,0.000000000,,,
1782642345.077200,,,,2538.000000000,400.000000000,0.000000000
1782642345.077213,0.058986358,-0.073319435,0.000000000,,,
1782642345.087292,,,,2554.000000000,403.000000000,0.000000000
1782642345.087306,0.059010327,-0.073319435,0.000000000,,,
1782642345.097217,,,,2541.000000000,385.000000000,0.000000000
1782642345.097229,0.059010327,-0.073343277,0.000000000,,,
1782642345.107181,,,,2570.000000000,365.000000000,0.000000000
1782642345.107193,0.059058260,-0.073319435,0.000000000,,,
1782642345.117151,,,,2569.000000000,346.000000000,0.000000000
1782642345.117162,0.059034295,-0.073319435,0.000000000,,,
1782642345.127070,,,,2567.000000000,367.000000000,0.000000000
1782642345.127083,0.059010327,-0.073319435,0.000000000,,,
1782642345.137248,,,,2554.000000000,403.000000000,0.000000000
1782642345.137272,0.058986358,-0.073319435,0.000000000,,,
1782642345.147145,,,,2553.000000000,431.000000000,0.000000000
1782642345.147158,0.059010327,-0.073319435,0.000000000,,,
1782642345.157027,,,,2578.000000000,407.000000000,0.000000000
1782642345.157039,0.059034295,-0.073319435,0.000000000,,,
1782642345.167119,,,,2565.000000000,365.000000000,0.000000000
1782642345.167132,0.059010327,-0.073319435,0.000000000,,,
1782642345.177098,,,,2549.000000000,340.000000000,0.000000000
1782642345.177109,0.059010327,-0.073319435,0.000000000,,,
1782642345.187121,,,,2563.000000000,342.000000000,0.000000000
1782642345.187134,0.059010327,-0.073319435,0.000000000,,,
1782642345.197235,,,,2563.000000000,371.000000000,0.000000000
1782642345.197252,0.058938421,-0.073343277,0.000000000,,,
1782642345.207199,,,,2578.000000000,389.000000000,0.000000000
1782642345.207212,0.058962390,-0.073343277,0.000000000,,,
1782642345.217228,,,,2558.000000000,385.000000000,0.000000000
1782642345.217240,0.058986358,-0.073343277,0.000000000,,,
1782642345.227213,,,,2582.000000000,430.000000000,0.000000000
1782642345.227225,0.059010327,-0.073319435,0.000000000,,,
1782642345.237181,,,,2557.000000000,438.000000000,0.000000000
1782642345.237193,0.059010327,-0.073319435,0.000000000,,,
1782642345.247190,,,,2554.000000000,338.000000000,0.000000000
1782642345.247203,0.059010327,-0.073343277,0.000000000,,,
1782642345.257108,,,,2582.000000000,356.000000000,0.000000000
1782642345.257120,0.059010327,-0.073319435,0.000000000,,,
1782642345.267267,,,,2584.000000000,360.000000000,0.000000000
1782642345.267289,0.059010327,-0.073319435,0.000000000,,,
1782642345.277140,,,,2576.000000000,346.000000000,0.000000000
1782642345.277155,0.059034295,-0.073319435,0.000000000,,,
1782642345.287219,,,,2592.000000000,358.000000000,0.000000000
1782642345.287231,0.059034295,-0.073343277,0.000000000,,,
1782642345.297240,,,,2632.000000000,393.000000000,0.000000000
1782642345.297252,0.059010327,-0.073319435,0.000000000,,,
1782642345.307233,,,,2654.000000000,431.000000000,0.000000000
1782642345.307245,0.059010327,-0.073319435,0.000000000,,,
1782642345.317210,,,,2623.000000000,450.000000000,0.000000000
1782642345.317222,0.058962390,-0.073319435,0.000000000,,,
1782642345.327160,,,,2574.000000000,445.000000000,0.000000000
1782642345.327172,0.058986358,-0.073319435,0.000000000,,,
1782642345.337189,,,,2565.000000000,393.000000000,0.000000000
1782642345.337202,0.058986358,-0.073343277,0.000000000,,,
1782642345.347209,,,,2559.000000000,354.000000000,0.000000000
1782642345.347222,0.059058260,-0.073319435,0.000000000,,,
1782642345.357191,,,,2518.000000000,346.000000000,0.000000000
1782642345.357203,0.059034295,-0.073319435,0.000000000,,,
1782642345.367189,,,,2565.000000000,334.000000000,0.000000000
1782642345.367202,0.059010327,-0.073343277,0.000000000,,,
1782642345.377086,,,,2597.000000000,371.000000000,0.000000000
1782642345.377099,0.058962390,-0.073319435,0.000000000,,,
1782642345.387216,,,,2683.000000000,403.000000000,0.000000000
1782642345.387236,0.058938421,-0.073319435,0.000000000,,,
1782642345.397237,,,,2699.000000000,410.000000000,0.000000000
1782642345.397253,0.058938421,-0.073319435,0.000000000,,,
1782642345.407037,,,,2663.000000000,443.000000000,0.000000000
1782642345.407051,0.059010327,-0.073343277,0.000000000,,,
1782642345.417166,,,,2610.000000000,432.000000000,0.000000000
1782642345.417178,0.058986358,-0.073319435,0.000000000,,,
1782642345.427141,,,,2539.000000000,397.000000000,0.000000000
1782642345.427155,0.058986358,-0.073319435,0.000000000,,,
1782642345.437104,,,,2528.000000000,358.000000000,0.000000000
1782642345.437116,0.059058260,-0.073343277,0.000000000,,,
1782642345.447088,,,,2570.000000000,376.000000000,0.000000000
1782642345.447100,0.059058260,-0.073319435,0.000000000,,,
1782642345.457106,,,,2571.000000000,371.000000000,0.000000000
1782642345.457119,0.059034295,-0.073295593,0.000000000,,,
1782642345.467113,,,,2680.000000000,395.000000000,0.000000000
1782642345.467124,0.058986358,-0.073319435,0.000000000,,,
1782642345.477079,,,,2736.000000000,415.000000000,0.000000000
1782642345.477091,0.058986358,-0.073295593,0.000000000,,,
1782642345.487187,,,,2694.000000000,383.000000000,0.000000000
1782642345.487200,0.058962390,-0.073343277,0.000000000,,,
1782642345.497082,,,,2671.000000000,412.000000000,0.000000000
1782642345.497098,0.058986358,-0.073319435,0.000000000,,,
1782642345.507197,,,,2537.000000000,396.000000000,0.000000000
1782642345.507228,0.059034295,-0.073343277,0.000000000,,,
1782642345.517170,,,,2527.000000000,358.000000000,0.000000000
1782642345.517186,0.059034295,-0.073319435,0.000000000,,,
1782642345.527171,,,,2584.000000000,377.000000000,0.000000000
1782642345.527183,0.059058260,-0.073295593,0.000000000,,,
1782642345.537149,,,,2563.000000000,344.000000000,0.000000000
1782642345.537161,0.059034295,-0.073295593,0.000000000,,,
1782642345.547139,,,,2676.000000000,341.000000000,0.000000000
1782642345.547152,0.058986358,-0.073295593,0.000000000,,,
1782642345.557046,,,,2731.000000000,391.000000000,0.000000000
1782642345.557060,0.058986358,-0.073295593,0.000000000,,,
1782642345.567232,,,,2741.000000000,422.000000000,0.000000000
1782642345.567263,0.058986358,-0.073343277,0.000000000,,,
1782642345.577058,,,,2686.000000000,412.000000000,0.000000000
1782642345.577069,0.058962390,-0.073343277,0.000000000,,,
1782642345.587038,,,,2574.000000000,380.000000000,0.000000000
1782642345.587050,0.059082229,-0.073343277,0.000000000,,,
1782642345.597191,,,,2504.000000000,350.000000000,0.000000000
1782642345.597203,0.059106197,-0.073295593,0.000000000,,,
1782642345.607022,,,,2519.000000000,346.000000000,0.000000000
1782642345.607033,0.059106197,-0.073295593,0.000000000,,,
1782642345.617213,,,,2609.000000000,368.000000000,0.000000000
1782642345.617255,0.058986358,-0.073295593,0.000000000,,,
1782642345.627125,,,,2710.000000000,369.000000000,0.000000000
1782642345.627158,0.058986358,-0.073319435,0.000000000,,,
1782642345.637100,,,,2695.000000000,407.000000000,0.000000000
1782642345.637123,0.059034295,-0.073319435,0.000000000,,,
1782642345.647761,,,,2753.000000000,410.000000000,0.000000000
1782642345.647786,0.059058260,-0.073319435,0.000000000,,,
1782642345.657573,,,,2706.000000000,467.000000000,0.000000000
1782642345.657588,0.059058260,-0.073319435,0.000000000,,,
1782642345.667615,,,,2577.000000000,373.000000000,0.000000000
1782642345.667629,0.059058260,-0.073319435,0.000000000,,,
1782642345.677649,,,,2555.000000000,365.000000000,0.000000000
1782642345.677663,0.059154134,-0.073319435,0.000000000,,,
1782642345.687702,,,,2576.000000000,349.000000000,0.000000000
1782642345.687740,0.059178103,-0.073295593,0.000000000,,,
1782642345.697745,,,,2690.000000000,360.000000000,0.000000000
1782642345.697793,0.059154134,-0.073271751,0.000000000,,,
1782642345.707605,0.058914453,-0.073295593,0.000000000,,,
1782642345.707630,,,,2719.000000000,396.000000000,0.000000000
1782642345.717605,,,,2714.000000000,424.000000000,0.000000000
1782642345.717623,0.058938421,-0.073343277,0.000000000,,,
1782642345.727633,,,,2725.000000000,383.000000000,0.000000000
1782642345.727646,0.058986358,-0.073343277,0.000000000,,,
1782642345.737707,,,,2576.000000000,344.000000000,0.000000000
1782642345.737739,0.059154134,-0.073343277,0.000000000,,,
1782642345.747735,,,,2573.000000000,356.000000000,0.000000000
1782642345.747774,0.059154134,-0.073295593,0.000000000,,,
1782642345.757638,,,,2581.000000000,364.000000000,0.000000000
1782642345.757653,0.059178103,-0.073295593,0.000000000,,,
1782642345.767649,,,,2656.000000000,393.000000000,0.000000000
1782642345.767663,0.059010327,-0.073319435,0.000000000,,,
1782642345.777793,,,,2804.000000000,383.000000000,0.000000000
1782642345.777824,0.059010327,-0.073295593,0.000000000,,,
1782642345.787662,,,,2780.000000000,435.000000000,0.000000000
1782642345.787686,0.058986358,-0.073295593,0.000000000,,,
1782642345.797780,,,,2752.000000000,397.000000000,0.000000000
1782642345.797815,0.059106197,-0.073343277,0.000000000,,,
1782642345.807709,,,,2678.000000000,381.000000000,0.000000000
1782642345.807740,0.059154134,-0.073319435,0.000000000,,,
1782642345.817690,,,,2617.000000000,348.000000000,0.000000000
1782642345.817713,0.059178103,-0.073295593,0.000000000,,,
1782642345.827814,,,,2576.000000000,356.000000000,0.000000000
1782642345.827852,0.059130166,-0.073295593,0.000000000,,,
1782642345.837711,,,,2652.000000000,383.000000000,0.000000000
1782642345.837736,0.059154134,-0.073319435,0.000000000,,,
1782642345.847713,,,,2807.000000000,369.000000000,0.000000000
1782642345.847737,0.059154134,-0.073319435,0.000000000,,,
1782642345.857806,,,,2795.000000000,396.000000000,0.000000000
1782642345.857836,0.058962390,-0.073295593,0.000000000,,,
1782642345.867648,,,,2789.000000000,416.000000000,0.000000000
1782642345.867662,0.058962390,-0.073343277,0.000000000,,,
1782642345.877722,,,,2706.000000000,418.000000000,0.000000000
1782642345.877757,0.058986358,-0.073295593,0.000000000,,,
1782642345.887733,,,,2697.000000000,388.000000000,0.000000000
1782642345.887777,0.059297945,-0.073247433,0.000000000,,,
1782642345.897682,,,,2664.000000000,373.000000000,0.000000000
1782642345.897696,0.059297945,-0.073271751,0.000000000,,,
1782642345.907735,,,,2707.000000000,387.000000000,0.000000000
1782642345.907769,0.059297945,-0.073319435,0.000000000,,,
1782642345.917639,,,,2827.000000000,371.000000000,0.000000000
1782642345.917659,0.058962390,-0.073319435,0.000000000,,,
1782642345.927813,,,,2866.000000000,438.000000000,0.000000000
1782642345.927848,0.058938421,-0.073319435,0.000000000,,,
1782642345.937607,,,,2851.000000000,435.000000000,0.000000000
1782642345.937622,0.058938421,-0.073295593,0.000000000,,,
1782642345.947836,,,,2682.000000000,407.000000000,0.000000000
1782642345.947874,0.059321914,-0.073295593,0.000000000,,,
1782642345.957662,,,,2652.000000000,387.000000000,0.000000000
1782642345.957685,0.059345882,-0.073295593,0.000000000,,,
1782642345.967720,,,,2667.000000000,340.000000000,0.000000000
1782642345.967744,0.059393819,-0.073271751,0.000000000,,,
1782642345.977683,,,,2703.000000000,353.000000000,0.000000000
1782642345.977706,0.059202071,-0.073295593,0.000000000,,,
1782642345.987688,,,,2869.000000000,408.000000000,0.000000000
1782642345.987721,0.059130166,-0.073319435,0.000000000,,,
1782642345.997807,,,,2879.000000000,418.000000000,0.000000000
1782642345.997847,0.059106197,-0.073295593,0.000000000,,,
1782642346.007718,,,,2890.000000000,432.000000000,0.000000000
1782642346.007744,0.059273977,-0.073295593,0.000000000,,,
1782642346.017612,,,,2713.000000000,404.000000000,0.000000000
1782642346.017634,0.059297945,-0.073295593,0.000000000,,,
1782642346.027657,,,,2674.000000000,376.000000000,0.000000000
1782642346.027702,0.059321914,-0.073295593,0.000000000,,,
1782642346.037693,,,,2698.000000000,391.000000000,0.000000000
1782642346.037729,0.059585568,-0.073271751,0.000000000,,,
1782642346.047752,,,,2787.000000000,367.000000000,0.000000000
1782642346.047785,0.059537631,-0.073295593,0.000000000,,,
1782642346.057650,,,,2831.000000000,371.000000000,0.000000000
1782642346.057675,0.059513662,-0.073319435,0.000000000,,,
1782642346.067675,,,,2865.000000000,393.000000000,0.000000000
1782642346.067704,0.059058260,-0.073271751,0.000000000,,,
1782642346.077700,,,,2882.000000000,392.000000000,0.000000000
1782642346.077726,0.059130166,-0.073247433,0.000000000,,,
1782642346.087643,,,,2785.000000000,395.000000000,0.000000000
1782642346.087669,0.059178103,-0.073271751,0.000000000,,,
1782642346.097717,,,,2768.000000000,392.000000000,0.000000000
1782642346.097747,0.059729379,-0.073319435,0.000000000,,,
1782642346.107579,,,,2710.000000000,364.000000000,0.000000000
1782642346.107601,0.059777316,-0.073295593,0.000000000,,,
1782642346.117482,,,,2861.000000000,367.000000000,0.000000000
1782642346.117498,0.059154134,-0.073295593,0.000000000,,,
1782642346.127619,,,,2947.000000000,407.000000000,0.000000000
1782642346.127652,0.059154134,-0.073295593,0.000000000,,,
1782642346.137555,,,,2905.000000000,397.000000000,0.000000000
1782642346.137577,0.059106197,-0.073295593,0.000000000,,,
1782642346.147660,,,,2898.000000000,436.000000000,0.000000000
1782642346.147691,0.059082229,-0.073271751,0.000000000,,,
1782642346.157522,,,,2797.000000000,380.000000000,0.000000000
1782642346.157535,0.059729379,-0.073271751,0.000000000,,,
1782642346.167584,,,,2819.000000000,388.000000000,0.000000000
1782642346.167596,0.059825253,-0.073295593,0.000000000,,,
1782642346.177643,,,,2797.000000000,372.000000000,0.000000000
1782642346.177667,0.059873190,-0.073271751,0.000000000,,,
1782642346.187556,,,,2924.000000000,340.000000000,0.000000000
1782642346.187577,0.059417788,-0.073247433,0.000000000,,,
1782642346.197628,,,,2996.000000000,381.000000000,0.000000000
1782642346.197647,0.059369851,-0.073271751,0.000000000,,,
1782642346.207606,,,,2983.000000000,431.000000000,0.000000000
1782642346.207635,0.059321914,-0.073247433,0.000000000,,,
1782642346.217570,,,,2932.000000000,446.000000000,0.000000000
1782642346.217601,0.059585568,-0.073199749,0.000000000,,,
1782642346.227530,,,,2875.000000000,424.000000000,0.000000000
1782642346.227551,0.059681442,-0.073223591,0.000000000,,,
1782642346.237604,,,,2855.000000000,377.000000000,0.000000000
1782642346.237628,0.059753347,-0.073295593,0.000000000,,,
1782642346.247531,,,,2871.000000000,395.000000000,0.000000000
1782642346.247544,0.059849221,-0.073247433,0.000000000,,,
1782642346.257583,,,,3025.000000000,422.000000000,0.000000000
1782642346.257608,0.059729379,-0.073271751,0.000000000,,,
1782642346.267524,,,,3041.000000000,395.000000000,0.000000000
1782642346.267536,0.059657473,-0.073247433,0.000000000,,,
1782642346.277677,,,,3068.000000000,478.000000000,0.000000000
1782642346.277715,0.059489693,-0.073247433,0.000000000,,,
1782642346.287461,,,,2812.000000000,395.000000000,0.000000000
1782642346.287473,0.059561599,-0.073247433,0.000000000,,,
1782642346.297566,,,,2807.000000000,375.000000000,0.000000000
1782642346.297580,0.059633505,-0.073247433,0.000000000,,,
1782642346.307773,,,,2815.000000000,349.000000000,0.000000000
1782642346.307805,0.060160812,-0.073271751,0.000000000,,,
1782642346.317530,,,,2956.000000000,375.000000000,0.000000000
1782642346.317544,0.060112875,-0.073247433,0.000000000,,,
1782642346.327700,,,,2991.000000000,403.000000000,0.000000000
1782642346.327725,0.059417788,-0.073223591,0.000000000,,,
1782642346.337653,,,,3021.000000000,392.000000000,0.000000000
1782642346.337690,0.059417788,-0.073223591,0.000000000,,,
1782642346.347602,,,,3021.000000000,442.000000000,0.000000000
1782642346.347616,0.059489693,-0.073247433,0.000000000,,,
1782642346.357659,,,,2839.000000000,384.000000000,0.000000000
1782642346.357683,0.059561599,-0.073271751,0.000000000,,,
1782642346.367709,,,,2835.000000000,380.000000000,0.000000000
1782642346.367747,0.060184781,-0.073223591,0.000000000,,,
1782642346.377576,,,,2865.000000000,352.000000000,0.000000000
1782642346.377589,0.060232718,-0.073247433,0.000000000,,,
1782642346.387664,,,,3029.000000000,373.000000000,0.000000000
1782642346.387687,0.060256686,-0.073271751,0.000000000,,,
1782642346.397755,,,,3037.000000000,415.000000000,0.000000000
1782642346.397795,0.059489693,-0.073175907,0.000000000,,,
1782642346.407595,,,,3038.000000000,432.000000000,0.000000000
1782642346.407617,0.059489693,-0.073223591,0.000000000,,,
1782642346.417573,,,,2988.000000000,431.000000000,0.000000000
1782642346.417597,0.059513662,-0.073247433,0.000000000,,,
1782642346.427642,,,,2921.000000000,344.000000000,0.000000000
1782642346.427680,0.060136843,-0.073247433,0.000000000,,,
1782642346.437682,,,,2918.000000000,399.000000000,0.000000000
1782642346.437716,0.060184781,-0.073223591,0.000000000,,,
1782642346.447611,,,,2949.000000000,333.000000000,0.000000000
1782642346.447625,0.060232718,-0.073223591,0.000000000,,,
1782642346.457567,,,,3143.000000000,391.000000000,0.000000000
1782642346.457582,0.059705410,-0.073247433,0.000000000,,,
1782642346.467572,,,,3139.000000000,443.000000000,0.000000000
1782642346.467597,0.059633505,-0.073199749,0.000000000,,,
1782642346.477553,,,,3089.000000000,471.000000000,0.000000000
1782642346.477567,0.059609536,-0.073223591,0.000000000,,,
1782642346.487625,,,,2917.000000000,416.000000000,0.000000000
1782642346.487648,0.060064938,-0.073271751,0.000000000,,,
1782642346.497735,,,,2963.000000000,380.000000000,0.000000000
1782642346.497765,0.060136843,-0.073247433,0.000000000,,,
1782642346.507556,,,,2955.000000000,365.000000000,0.000000000
1782642346.507578,0.060184781,-0.073199749,0.000000000,,,
1782642346.517495,,,,3053.000000000,418.000000000,0.000000000
1782642346.517513,0.059969064,-0.073223591,0.000000000,,,
1782642346.527625,,,,3093.000000000,424.000000000,0.000000000
1782642346.527637,0.059849221,-0.073199749,0.000000000,,,
1782642346.537662,,,,3166.000000000,424.000000000,0.000000000
1782642346.537687,0.059777316,-0.073223591,0.000000000,,,
1782642346.547821,,,,2992.000000000,424.000000000,0.000000000
1782642346.547862,0.060017001,-0.073223591,0.000000000,,,
1782642346.557586,,,,2917.000000000,384.000000000,0.000000000
1782642346.557599,0.060064938,-0.073223591,0.000000000,,,
1782642346.567667,,,,2930.000000000,379.000000000,0.000000000
1782642346.567694,0.060160812,-0.073223591,0.000000000,,,
1782642346.577570,,,,3023.000000000,380.000000000,0.000000000
1782642346.577602,0.060256686,-0.073175907,0.000000000,,,
1782642346.587607,,,,3112.000000000,418.000000000,0.000000000
1782642346.587633,0.060160812,-0.073223591,0.000000000,,,
1782642346.597693,,,,3111.000000000,412.000000000,0.000000000
1782642346.597707,0.060040969,-0.073223591,0.000000000,,,
1782642346.607612,,,,3099.000000000,424.000000000,0.000000000
1782642346.607641,0.059945095,-0.073223591,0.000000000,,,
1782642346.617513,,,,2948.000000000,400.000000000,0.000000000
1782642346.617537,0.060017001,-0.073175907,0.000000000,,,
1782642346.627439,,,,2894.000000000,363.000000000,0.000000000
1782642346.627453,0.060088906,-0.073199749,0.000000000,,,
1782642346.637569,,,,2940.000000000,384.000000000,0.000000000
1782642346.637599,0.060376525,-0.073223591,0.000000000,,,
1782642346.647729,,,,3143.000000000,419.000000000,0.000000000
1782642346.647775,0.060352560,-0.073175907,0.000000000,,,
1782642346.657525,,,,3136.000000000,416.000000000,0.000000000
1782642346.657538,0.060280655,-0.073175907,0.000000000,,,
1782642346.667593,,,,3093.000000000,420.000000000,0.000000000
1782642346.667616,0.059825253,-0.073175907,0.000000000,,,
1782642346.677643,,,,3049.000000000,414.000000000,0.000000000
1782642346.677682,0.059873190,-0.073223591,0.000000000,,,
1782642346.687539,,,,3006.000000000,399.000000000,0.000000000
1782642346.687554,0.059969064,-0.073199749,0.000000000,,,
1782642346.697500,,,,2971.000000000,354.000000000,0.000000000
1782642346.697513,0.060400493,-0.073175907,0.000000000,,,
1782642346.707602,,,,3051.000000000,391.000000000,0.000000000
1782642346.707625,0.060376525,-0.073223591,0.000000000,,,
1782642346.717597,,,,3205.000000000,376.000000000,0.000000000
1782642346.717636,0.059801284,-0.073223591,0.000000000,,,
1782642346.727617,,,,3175.000000000,439.000000000,0.000000000
1782642346.727645,0.059825253,-0.073199749,0.000000000,,,
1782642346.737551,,,,3108.000000000,449.000000000,0.000000000
1782642346.737585,0.059849221,-0.073223591,0.000000000,,,
1782642346.747534,,,,3000.000000000,384.000000000,0.000000000
1782642346.747546,0.059873190,-0.073223591,0.000000000,,,
1782642346.757552,,,,3047.000000000,407.000000000,0.000000000
1782642346.757575,0.060472399,-0.073247433,0.000000000,,,
1782642346.767542,,,,3085.000000000,435.000000000,0.000000000
1782642346.767570,0.060472399,-0.073175907,0.000000000,,,
1782642346.777537,,,,3139.000000000,408.000000000,0.000000000
1782642346.777556,0.060424462,-0.073199749,0.000000000,,,
1782642346.787579,,,,3182.000000000,416.000000000,0.000000000
1782642346.787601,0.059921127,-0.073199749,0.000000000,,,
1782642346.797604,,,,3225.000000000,478.000000000,0.000000000
1782642346.797640,0.059921127,-0.073175907,0.000000000,,,
1782642346.807655,,,,2980.000000000,383.000000000,0.000000000
1782642346.807692,0.060424462,-0.073199749,0.000000000,,,
1782642346.817473,,,,2945.000000000,338.000000000,0.000000000
1782642346.817492,0.060472399,-0.073199749,0.000000000,,,
1782642346.827621,,,,2987.000000000,391.000000000,0.000000000
1782642346.827648,0.060544305,-0.073175907,0.000000000,,,
1782642346.837545,,,,3101.000000000,381.000000000,0.000000000
1782642346.837562,0.060544305,-0.073151588,0.000000000,,,
1782642346.847615,,,,3177.000000000,416.000000000,0.000000000
1782642346.847653,0.060040969,-0.073223591,0.000000000,,,
1782642346.857566,,,,3164.000000000,420.000000000,0.000000000
1782642346.857602,0.060017001,-0.073199749,0.000000000,,,
1782642346.867577,,,,3103.000000000,446.000000000,0.000000000
1782642346.867605,0.059969064,-0.073199749,0.000000000,,,
1782642346.877577,,,,2973.000000000,393.000000000,0.000000000
1782642346.877592,0.060448430,-0.073175907,0.000000000,,,
1782642346.887609,,,,2973.000000000,338.000000000,0.000000000
1782642346.887638,0.060520336,-0.073175907,0.000000000,,,
1782642346.897652,,,,3045.000000000,354.000000000,0.000000000
1782642346.897692,0.060592242,-0.073175907,0.000000000,,,
1782642346.907505,,,,3199.000000000,384.000000000,0.000000000
1782642346.907531,0.060184781,-0.073175907,0.000000000,,,
1782642346.917528,,,,3160.000000000,400.000000000,0.000000000
1782642346.917551,0.060112875,-0.073175907,0.000000000,,,
1782642346.927557,,,,3146.000000000,395.000000000,0.000000000
1782642346.927594,0.060064938,-0.073199749,0.000000000,,,
1782642346.937464,,,,3076.000000000,414.000000000,0.000000000
1782642346.937477,0.060376525,-0.073151588,0.000000000,,,
1782642346.947555,,,,3058.000000000,372.000000000,0.000000000
1782642346.947576,0.060496368,-0.073175907,0.000000000,,,
1782642346.957483,,,,3065.000000000,380.000000000,0.000000000
1782642346.957511,0.060592242,-0.073199749,0.000000000,,,
1782642346.967417,,,,3245.000000000,402.000000000,0.000000000
1782642346.967429,0.060328592,-0.073199749,0.000000000,,,
1782642346.977496,,,,3271.000000000,406.000000000,0.000000000
1782642346.977525,0.060256686,-0.073151588,0.000000000,,,
1782642346.987532,,,,3253.000000000,424.000000000,0.000000000
1782642346.987571,0.060208749,-0.073175907,0.000000000,,,
1782642346.997487,,,,3086.000000000,431.000000000,0.000000000
1782642346.997512,0.060328592,-0.073199749,0.000000000,,,
1782642347.007408,,,,3090.000000000,380.000000000,0.000000000
1782642347.007432,0.060424462,-0.073127747,0.000000000,,,
1782642347.017421,,,,3072.000000000,381.000000000,0.000000000
1782642347.017440,0.060568273,-0.073175907,0.000000000,,,
1782642347.027510,,,,3167.000000000,367.000000000,0.000000000
1782642347.027550,0.060640179,-0.073175907,0.000000000,,,
1782642347.037478,,,,3268.000000000,416.000000000,0.000000000
1782642347.037501,0.060520336,-0.073151588,0.000000000,,,
1782642347.047455,,,,3298.000000000,430.000000000,0.000000000
1782642347.047475,0.060424462,-0.073127747,0.000000000,,,
1782642347.057514,,,,3186.000000000,419.000000000,0.000000000
1782642347.057553,0.060376525,-0.073127747,0.000000000,,,
1782642347.067431,,,,3010.000000000,336.000000000,0.000000000
1782642347.067445,0.060448430,-0.073175907,0.000000000,,,
1782642347.077508,,,,3038.000000000,372.000000000,0.000000000
1782642347.077532,0.060568273,-0.073151588,0.000000000,,,
1782642347.087650,,,,3128.000000000,357.000000000,0.000000000
1782642347.087687,0.060975738,-0.073175907,0.000000000,,,
1782642347.097469,,,,3273.000000000,396.000000000,0.000000000
1782642347.097493,0.060903832,-0.073175907,0.000000000,,,
1782642347.107450,,,,3261.000000000,445.000000000,0.000000000
1782642347.107479,0.060232718,-0.073151588,0.000000000,,,
1782642347.117399,,,,3246.000000000,408.000000000,0.000000000
1782642347.117416,0.060328592,-0.073127747,0.000000000,,,
1782642347.127493,,,,3129.000000000,393.000000000,0.000000000
1782642347.127531,0.060424462,-0.073151588,0.000000000,,,
1782642347.137447,,,,3058.000000000,371.000000000,0.000000000
1782642347.137460,0.060568273,-0.073151588,0.000000000,,,
1782642347.147437,,,,3080.000000000,356.000000000,0.000000000
1782642347.147452,0.061191455,-0.073127747,0.000000000,,,
1782642347.157481,,,,3283.000000000,392.000000000,0.000000000
1782642347.157508,0.061167486,-0.073103905,0.000000000,,,
1782642347.167461,,,,3293.000000000,407.000000000,0.000000000
1782642347.167475,0.061119549,-0.073127747,0.000000000,,,
1782642347.177541,,,,3260.000000000,391.000000000,0.000000000
1782642347.177567,0.060328592,-0.073103905,0.000000000,,,
1782642347.187526,,,,3186.000000000,396.000000000,0.000000000
1782642347.187538,0.060400493,-0.073103905,0.000000000,,,
1782642347.197484,,,,3144.000000000,373.000000000,0.000000000
1782642347.197516,0.061359234,-0.073151588,0.000000000,,,
1782642347.207496,,,,3148.000000000,360.000000000,0.000000000
1782642347.207526,0.061407171,-0.073127747,0.000000000,,,
1782642347.217399,,,,3234.000000000,358.000000000,0.000000000
1782642347.217418,0.061383203,-0.073127747,0.000000000,,,
1782642347.227481,,,,3386.000000000,438.000000000,0.000000000
1782642347.227499,0.061359234,-0.073079586,0.000000000,,,
1782642347.237584,,,,3384.000000000,462.000000000,0.000000000
1782642347.237616,0.060496368,-0.073103905,0.000000000,,,
1782642347.247481,,,,3233.000000000,436.000000000,0.000000000
1782642347.247515,0.060520336,-0.073127747,0.000000000,,,
1782642347.257431,,,,3131.000000000,348.000000000,0.000000000
1782642347.257450,0.060544305,-0.073079586,0.000000000,,,
1782642347.267530,,,,3127.000000000,356.000000000,0.000000000
1782642347.267560,0.061622888,-0.073103905,0.000000000,,,
1782642347.277562,,,,3202.000000000,392.000000000,0.000000000
1782642347.277603,0.061646856,-0.073103905,0.000000000,,,
1782642347.287629,,,,3319.000000000,384.000000000,0.000000000
1782642347.287669,0.061622888,-0.073079586,0.000000000,,,
1782642347.297604,,,,3318.000000000,379.000000000,0.000000000
1782642347.297628,0.060712084,-0.073055744,0.000000000,,,
1782642347.307519,,,,3339.000000000,435.000000000,0.000000000
1782642347.307556,0.060736053,-0.073151588,0.000000000,,,
1782642347.317420,,,,3070.000000000,340.000000000,0.000000000
1782642347.317446,0.061598919,-0.073127747,0.000000000,,,
1782642347.327497,,,,3053.000000000,356.000000000,0.000000000
1782642347.327530,0.061766695,-0.073103905,0.000000000,,,
1782642347.337502,,,,3132.000000000,364.000000000,0.000000000
1782642347.337517,0.061886538,-0.073127747,0.000000000,,,
1782642347.347606,,,,3319.000000000,325.000000000,0.000000000
1782642347.347631,0.061934475,-0.073103905,0.000000000,,,
1782642347.357673,,,,3337.000000000,393.000000000,0.000000000
1782642347.357706,0.060951769,-0.073103905,0.000000000,,,
1782642347.367585,,,,3339.000000000,407.000000000,0.000000000
1782642347.367598,0.060927801,-0.073079586,0.000000000,,,
1782642347.377701,,,,3233.000000000,381.000000000,0.000000000
1782642347.377733,0.060927801,-0.073079586,0.000000000,,,
1782642347.387758,,,,3195.000000000,384.000000000,0.000000000
1782642347.387797,0.061790664,-0.073031902,0.000000000,,,
1782642347.397541,,,,3148.000000000,376.000000000,0.000000000
1782642347.397558,0.061958443,-0.072983742,0.000000000,,,
1782642347.407571,,,,3326.000000000,387.000000000,0.000000000
1782642347.407633,0.062102254,-0.073008060,0.000000000,,,
1782642347.417555,,,,3381.000000000,396.000000000,0.000000000
1782642347.417585,0.061263360,-0.073055744,0.000000000,,,
1782642347.427595,,,,3393.000000000,442.000000000,0.000000000
1782642347.427620,0.061191455,-0.073008060,0.000000000,,,
1782642347.437602,,,,3257.000000000,438.000000000,0.000000000
1782642347.437615,0.061143517,-0.073008060,0.000000000,,,
1782642347.447456,,,,3201.000000000,376.000000000,0.000000000
1782642347.447474,0.061886538,-0.073055744,0.000000000,,,
1782642347.457593,,,,3191.000000000,369.000000000,0.000000000
1782642347.457629,0.062054317,-0.073008060,0.000000000,,,
1782642347.467581,,,,3293.000000000,402.000000000,0.000000000
1782642347.467609,0.062222097,-0.073008060,0.000000000,,,
1782642347.477590,,,,3394.000000000,406.000000000,0.000000000
1782642347.477628,0.061670825,-0.073031902,0.000000000,,,
1782642347.487742,,,,3453.000000000,428.000000000,0.000000000
1782642347.487789,0.061574951,-0.073055744,0.000000000,,,
1782642347.497549,,,,3307.000000000,399.000000000,0.000000000
1782642347.497570,0.061479077,-0.072959900,0.000000000,,,
1782642347.507506,,,,3203.000000000,369.000000000,0.000000000
1782642347.507534,0.062054317,-0.072959900,0.000000000,,,
1782642347.517493,,,,3171.000000000,375.000000000,0.000000000
1782642347.517511,0.062246066,-0.073008060,0.000000000,,,
1782642347.527526,,,,3222.000000000,369.000000000,0.000000000
1782642347.527539,0.062437814,-0.072959900,0.000000000,,,
1782642347.537666,,,,3334.000000000,396.000000000,0.000000000
1782642347.537698,0.062174160,-0.072959900,0.000000000,,,
1782642347.547627,,,,3345.000000000,373.000000000,0.000000000
1782642347.547668,0.062030349,-0.072983742,0.000000000,,,
1782642347.557584,,,,3363.000000000,391.000000000,0.000000000
1782642347.557622,0.061910506,-0.073008060,0.000000000,,,
1782642347.567470,,,,3194.000000000,365.000000000,0.000000000
1782642347.567483,0.062198129,-0.072959900,0.000000000,,,
1782642347.577638,,,,3125.000000000,376.000000000,0.000000000
1782642347.577667,0.062365908,-0.072959900,0.000000000,,,
1782642347.587743,,,,3183.000000000,361.000000000,0.000000000
1782642347.587790,0.062605590,-0.072983742,0.000000000,,,
1782642347.597681,,,,3349.000000000,392.000000000,0.000000000
1782642347.597719,0.062581621,-0.072983742,0.000000000,,,
1782642347.607563,,,,3367.000000000,387.000000000,0.000000000
1782642347.607589,0.062461782,-0.072912216,0.000000000,,,
1782642347.617552,,,,3351.000000000,375.000000000,0.000000000
1782642347.617577,0.062341940,-0.072936058,0.000000000,,,
1782642347.627510,,,,3276.000000000,399.000000000,0.000000000
1782642347.627524,0.062246066,-0.072959900,0.000000000,,,
1782642347.637539,,,,3259.000000000,404.000000000,0.000000000
1782642347.637563,0.062437814,-0.072887897,0.000000000,,,
1782642347.647490,,,,3213.000000000,397.000000000,0.000000000
1782642347.647504,0.062701464,-0.072840214,0.000000000,,,
1782642347.657515,,,,3349.000000000,365.000000000,0.000000000
1782642347.657550,0.062989086,-0.072912216,0.000000000,,,
1782642347.667441,,,,3472.000000000,410.000000000,0.000000000
1782642347.667456,0.062845275,-0.072912216,0.000000000,,,
1782642347.677508,,,,3436.000000000,396.000000000,0.000000000
1782642347.677531,0.062294003,-0.072912216,0.000000000,,,
1782642347.687586,,,,3332.000000000,414.000000000,0.000000000
1782642347.687619,0.062413845,-0.072840214,0.000000000,,,
1782642347.697606,,,,3230.000000000,403.000000000,0.000000000
1782642347.697645,0.062629558,-0.072959900,0.000000000,,,
1782642347.707557,,,,3248.000000000,404.000000000,0.000000000
1782642347.707578,0.062797338,-0.072936058,0.000000000,,,
1782642347.717568,,,,3315.000000000,358.000000000,0.000000000
1782642347.717599,0.063540362,-0.072864056,0.000000000,,,
1782642347.727636,,,,3410.000000000,392.000000000,0.000000000
1782642347.727669,0.063396551,-0.072912216,0.000000000,,,
1782642347.737566,,,,3436.000000000,375.000000000,0.000000000
1782642347.737615,0.063252740,-0.072936058,0.000000000,,,
1782642347.747659,,,,3390.000000000,423.000000000,0.000000000
1782642347.747672,0.062773369,-0.072959900,0.000000000,,,
1782642347.757654,,,,3171.000000000,376.000000000,0.000000000
1782642347.757693,0.062917180,-0.072792053,0.000000000,,,
1782642347.767681,,,,3189.000000000,373.000000000,0.000000000
1782642347.767708,0.063084960,-0.072840214,0.000000000,,,
1782642347.777639,,,,3260.000000000,361.000000000,0.000000000
1782642347.777659,0.064067669,-0.072887897,0.000000000,,,
1782642347.787693,,,,3370.000000000,367.000000000,0.000000000
1782642347.787722,0.063995764,-0.072768211,0.000000000,,,
1782642347.797785,,,,3389.000000000,396.000000000,0.000000000
1782642347.797824,0.063875921,-0.072792053,0.000000000,,,
1782642347.807728,,,,3404.000000000,418.000000000,0.000000000
1782642347.807763,0.062965117,-0.072816372,0.000000000,,,
1782642347.817505,,,,3225.000000000,371.000000000,0.000000000
1782642347.817528,0.063156866,-0.072792053,0.000000000,,,
1782642347.827584,,,,3158.000000000,371.000000000,0.000000000
1782642347.827614,0.063348614,-0.072720051,0.000000000,,,
1782642347.837758,,,,3198.000000000,372.000000000,0.000000000
1782642347.837798,0.064379260,-0.072864056,0.000000000,,,
1782642347.847668,,,,3409.000000000,349.000000000,0.000000000
1782642347.847698,0.064403228,-0.072864056,0.000000000,,,
1782642347.857649,,,,3455.000000000,383.000000000,0.000000000
1782642347.857673,0.063132897,-0.072792053,0.000000000,,,
1782642347.867605,,,,3401.000000000,356.000000000,0.000000000
1782642347.867636,0.063204803,-0.072768211,0.000000000,,,
1782642347.877714,,,,3284.000000000,423.000000000,0.000000000
1782642347.877759,0.063324645,-0.072816372,0.000000000,,,
1782642347.887641,,,,3260.000000000,384.000000000,0.000000000
1782642347.887684,0.063492425,-0.072720051,0.000000000,,,
1782642347.897542,,,,3277.000000000,372.000000000,0.000000000
1782642347.897555,0.063708141,-0.072744370,0.000000000,,,
1782642347.907622,,,,3380.000000000,346.000000000,0.000000000
1782642347.907651,0.064786725,-0.072792053,0.000000000,,,
1782642347.917630,,,,3455.000000000,383.000000000,0.000000000
1782642347.917647,0.064738788,-0.072720051,0.000000000,,,
1782642347.927613,,,,3506.000000000,447.000000000,0.000000000
1782642347.927643,0.063684173,-0.072624207,0.000000000,,,
1782642347.937735,,,,3269.000000000,381.000000000,0.000000000
1782642347.937779,0.063756078,-0.072624207,0.000000000,,,
1782642347.947693,,,,3211.000000000,379.000000000,0.000000000
1782642347.947715,0.065146245,-0.072768211,0.000000000,,,
1782642347.957608,,,,3232.000000000,399.000000000,0.000000000
1782642347.957639,0.065266088,-0.072696209,0.000000000,,,
1782642347.967707,,,,3373.000000000,381.000000000,0.000000000
1782642347.967731,0.065314025,-0.072648525,0.000000000,,,
1782642347.977670,,,,3382.000000000,385.000000000,0.000000000
1782642347.977695,0.065314025,-0.072696209,0.000000000,,,
1782642347.987539,,,,3453.000000000,396.000000000,0.000000000
1782642347.987552,0.064139575,-0.072696209,0.000000000,,,
1782642347.997614,,,,3279.000000000,377.000000000,0.000000000
1782642347.997654,0.064211480,-0.072600365,0.000000000,,,
1782642348.007625,,,,3189.000000000,368.000000000,0.000000000
1782642348.007656,0.064307354,-0.072672367,0.000000000,,,
1782642348.017680,,,,3166.000000000,360.000000000,0.000000000
1782642348.017709,0.065601647,-0.072720051,0.000000000,,,
1782642348.027617,,,,3279.000000000,360.000000000,0.000000000
1782642348.027647,0.065721489,-0.072528362,0.000000000,,,
1782642348.037724,,,,3402.000000000,345.000000000,0.000000000
1782642348.037760,0.065793395,-0.072552681,0.000000000,,,
1782642348.047718,,,,3419.000000000,357.000000000,0.000000000
1782642348.047754,0.064451165,-0.072624207,0.000000000,,,
1782642348.057640,,,,3381.000000000,422.000000000,0.000000000
1782642348.057672,0.064499103,-0.072600365,0.000000000,,,
1782642348.067694,,,,3272.000000000,379.000000000,0.000000000
1782642348.067734,0.064618945,-0.072600365,0.000000000,,,
1782642348.077476,,,,3216.000000000,364.000000000,0.000000000
1782642348.077488,0.065817364,-0.072552681,0.000000000,,,
1782642348.087564,,,,3328.000000000,354.000000000,0.000000000
1782642348.087593,0.066009112,-0.072672367,0.000000000,,,
1782642348.097545,,,,3514.000000000,402.000000000,0.000000000
1782642348.097601,0.066128954,-0.072576523,0.000000000,,,
1782642348.107532,,,,3499.000000000,410.000000000,0.000000000
1782642348.107555,0.064882599,-0.072600365,0.000000000,,,
1782642348.117538,,,,3386.000000000,392.000000000,0.000000000
1782642348.117555,0.064834662,-0.072672367,0.000000000,,,
1782642348.127581,,,,3279.000000000,349.000000000,0.000000000
1782642348.127620,0.064906567,-0.072624207,0.000000000,,,
1782642348.137546,,,,3256.000000000,321.000000000,0.000000000
1782642348.137565,0.066248797,-0.072528362,0.000000000,,,
1782642348.147525,,,,3335.000000000,361.000000000,0.000000000
1782642348.147542,0.066392608,-0.072576523,0.000000000,,,
1782642348.157560,,,,3429.000000000,407.000000000,0.000000000
1782642348.157598,0.066512451,-0.072576523,0.000000000,,,
1782642348.167673,,,,3498.000000000,381.000000000,0.000000000
1782642348.167713,0.065433867,-0.072432518,0.000000000,,,
1782642348.177549,,,,3470.000000000,388.000000000,0.000000000
1782642348.177562,0.065385930,-0.072432518,0.000000000,,,
1782642348.187577,,,,3228.000000000,356.000000000,0.000000000
1782642348.187601,0.065409899,-0.072576523,0.000000000,,,
1782642348.197633,,,,3237.000000000,352.000000000,0.000000000
1782642348.197673,0.066656262,-0.072480679,0.000000000,,,
1782642348.207472,,,,3281.000000000,389.000000000,0.000000000
1782642348.207490,0.066824041,-0.072384834,0.000000000,,,
1782642348.217558,,,,3449.000000000,358.000000000,0.000000000
1782642348.217577,0.066991821,-0.072528362,0.000000000,,,
1782642348.227567,,,,3441.000000000,373.000000000,0.000000000
1782642348.227597,0.065913238,-0.072504520,0.000000000,,,
1782642348.237586,,,,3436.000000000,368.000000000,0.000000000
1782642348.237614,0.065865301,-0.072456837,0.000000000,,,
1782642348.247532,,,,3304.000000000,372.000000000,0.000000000
1782642348.247550,0.065889269,-0.072552681,0.000000000,,,
1782642348.257614,,,,3242.000000000,350.000000000,0.000000000
1782642348.257643,0.066895947,-0.072600365,0.000000000,,,
1782642348.267531,,,,3265.000000000,361.000000000,0.000000000
1782642348.267562,0.067087695,-0.072528362,0.000000000,,,
1782642348.277560,,,,3448.000000000,336.000000000,0.000000000
1782642348.277573,0.067303412,-0.072384834,0.000000000,,,
1782642348.287477,,,,3519.000000000,368.000000000,0.000000000
1782642348.287489,0.066344671,-0.072480679,0.000000000,,,
1782642348.297504,,,,3479.000000000,388.000000000,0.000000000
1782642348.297521,0.066272765,-0.072408676,0.000000000,,,
1782642348.307619,,,,3351.000000000,406.000000000,0.000000000
1782642348.307650,0.066224828,-0.072384834,0.000000000,,,
1782642348.317478,,,,3349.000000000,352.000000000,0.000000000
1782642348.317502,0.067159601,-0.072408676,0.000000000,,,
1782642348.327633,,,,3315.000000000,353.000000000,0.000000000
1782642348.327660,0.067351349,-0.072384834,0.000000000,,,
1782642348.337678,,,,3466.000000000,372.000000000,0.000000000
1782642348.337711,0.067015789,-0.072336674,0.000000000,,,
1782642348.347515,,,,3549.000000000,393.000000000,0.000000000
1782642348.347540,0.066895947,-0.072264671,0.000000000,,,
1782642348.357482,,,,3573.000000000,388.000000000,0.000000000
1782642348.357511,0.066752136,-0.072480679,0.000000000,,,
1782642348.367610,,,,3388.000000000,422.000000000,0.000000000
1782642348.367648,0.066680230,-0.072432518,0.000000000,,,
1782642348.377497,,,,3285.000000000,353.000000000,0.000000000
1782642348.377517,0.067591034,-0.072336674,0.000000000,,,
1782642348.387490,,,,3302.000000000,367.000000000,0.000000000
1782642348.387507,0.067782775,-0.072384834,0.000000000,,,
1782642348.397537,,,,3412.000000000,361.000000000,0.000000000
1782642348.397567,0.067950554,-0.072384834,0.000000000,,,
1782642348.407562,,,,3488.000000000,373.000000000,0.000000000
1782642348.407582,0.067519128,-0.072336674,0.000000000,,,
1782642348.417552,,,,3511.000000000,420.000000000,0.000000000
1782642348.417575,0.067375317,-0.072360516,0.000000000,,,
1782642348.427566,,,,3414.000000000,399.000000000,0.000000000
1782642348.427598,0.067279443,-0.072432518,0.000000000,,,
1782642348.437549,,,,3241.000000000,321.000000000,0.000000000
1782642348.437563,0.067902617,-0.072240829,0.000000000,,,
1782642348.447546,,,,3199.000000000,353.000000000,0.000000000
1782642348.447580,0.068142302,-0.072193146,0.000000000,,,
1782642348.457581,,,,3378.000000000,354.000000000,0.000000000
1782642348.457611,0.068358019,-0.072240829,0.000000000,,,
1782642348.467654,,,,3502.000000000,368.000000000,0.000000000
1782642348.467693,0.067974523,-0.072336674,0.000000000,,,
1782642348.477641,,,,3515.000000000,393.000000000,0.000000000
1782642348.477654,0.067854680,-0.072264671,0.000000000,,,
1782642348.487571,,,,3468.000000000,395.000000000,0.000000000
1782642348.487596,0.067782775,-0.072312832,0.000000000,,,
1782642348.497605,,,,3365.000000000,399.000000000,0.000000000
1782642348.497644,0.068118334,-0.072312832,0.000000000,,,
1782642348.507692,,,,3314.000000000,338.000000000,0.000000000
1782642348.507767,0.068381988,-0.072264671,0.000000000,,,
1782642348.517590,,,,3382.000000000,356.000000000,0.000000000
1782642348.517614,0.068525799,-0.072240829,0.000000000,,,
1782642348.527495,,,,3564.000000000,377.000000000,0.000000000
1782642348.527514,0.068405956,-0.072312832,0.000000000,,,
1782642348.537736,,,,3553.000000000,361.000000000,0.000000000
1782642348.537781,0.068262145,-0.072360516,0.000000000,,,
1782642348.547662,,,,3496.000000000,399.000000000,0.000000000
1782642348.547689,0.068166271,-0.072144985,0.000000000,,,
1782642348.557583,,,,3381.000000000,372.000000000,0.000000000
1782642348.557602,0.068453893,-0.072193146,0.000000000,,,
1782642348.567526,,,,3366.000000000,336.000000000,0.000000000
1782642348.567564,0.068669610,-0.072240829,0.000000000,,,
1782642348.577714,,,,3374.000000000,371.000000000,0.000000000
1782642348.577760,0.068861358,-0.072216988,0.000000000,,,
1782642348.587593,,,,3530.000000000,360.000000000,0.000000000
1782642348.587624,0.068981200,-0.072168827,0.000000000,,,
1782642348.597643,,,,3549.000000000,373.000000000,0.000000000
1782642348.597673,0.068861358,-0.072288990,0.000000000,,,
1782642348.607555,,,,3540.000000000,368.000000000,0.000000000
1782642348.607583,0.068717547,-0.072216988,0.000000000,,,
1782642348.617632,,,,3337.000000000,375.000000000,0.000000000
1782642348.617668,0.068861358,-0.072097301,0.000000000,,,
1782642348.627587,,,,3299.000000000,371.000000000,0.000000000
1782642348.627605,0.069101043,-0.072264671,0.000000000,,,
1782642348.637622,,,,3300.000000000,334.000000000,0.000000000
1782642348.637660,0.069340728,-0.072264671,0.000000000,,,
1782642348.647484,,,,3458.000000000,368.000000000,0.000000000
1782642348.647524,0.069508508,-0.072216988,0.000000000,,,
1782642348.657625,,,,3495.000000000,371.000000000,0.000000000
1782642348.657664,0.069412634,-0.072168827,0.000000000,,,
1782642348.667469,,,,3527.000000000,375.000000000,0.000000000
1782642348.667498,0.069316760,-0.072216988,0.000000000,,,
1782642348.677660,,,,3392.000000000,368.000000000,0.000000000
1782642348.677700,0.069148980,-0.072216988,0.000000000,,,
1782642348.687677,,,,3315.000000000,368.000000000,0.000000000
1782642348.687717,0.069388665,-0.072216988,0.000000000,,,
1782642348.697680,,,,3312.000000000,348.000000000,0.000000000
1782642348.697711,0.069628350,-0.072049141,0.000000000,,,
1782642348.707615,,,,3509.000000000,338.000000000,0.000000000
1782642348.707641,0.069892004,-0.072121143,0.000000000,,,
1782642348.717583,,,,3546.000000000,403.000000000,0.000000000
1782642348.717620,0.069820099,-0.072121143,0.000000000,,,
1782642348.727520,,,,3541.000000000,379.000000000,0.000000000
1782642348.727536,0.069724225,-0.072025299,0.000000000,,,
1782642348.737533,,,,3466.000000000,393.000000000,0.000000000
1782642348.737561,0.069388665,-0.072025299,0.000000000,,,
1782642348.747640,,,,3390.000000000,345.000000000,0.000000000
1782642348.747672,0.069556445,-0.072121143,0.000000000,,,
1782642348.757679,,,,3381.000000000,349.000000000,0.000000000
1782642348.757706,0.069844067,-0.072072983,0.000000000,,,
1782642348.767568,,,,3517.000000000,392.000000000,0.000000000
1782642348.767599,0.070347399,-0.072025299,0.000000000,,,
1782642348.777616,,,,3656.000000000,399.000000000,0.000000000
1782642348.777656,0.070251532,-0.072216988,0.000000000,,,
1782642348.787647,,,,3622.000000000,385.000000000,0.000000000
1782642348.787687,0.070155658,-0.072193146,0.000000000,,,
1782642348.797583,,,,3451.000000000,380.000000000,0.000000000
1782642348.797601,0.069796130,-0.071977139,0.000000000,,,
1782642348.807594,,,,3341.000000000,373.000000000,0.000000000
1782642348.807623,0.069939941,-0.072072983,0.000000000,,,
1782642348.817524,,,,3375.000000000,376.000000000,0.000000000
1782642348.817564,0.070155658,-0.072144985,0.000000000,,,
1782642348.827726,,,,3475.000000000,376.000000000,0.000000000
1782642348.827771,0.070922643,-0.072025299,0.000000000,,,
1782642348.837595,,,,3538.000000000,383.000000000,0.000000000
1782642348.837620,0.070802800,-0.072049141,0.000000000,,,
1782642348.847613,,,,3566.000000000,364.000000000,0.000000000
1782642348.847643,0.070706926,-0.072097301,0.000000000,,,
1782642348.857568,,,,3487.000000000,360.000000000,0.000000000
1782642348.857608,0.070203595,-0.071953297,0.000000000,,,
1782642348.867528,,,,3346.000000000,361.000000000,0.000000000
1782642348.867568,0.070371367,-0.071881294,0.000000000,,,
1782642348.877556,,,,3291.000000000,310.000000000,0.000000000
1782642348.877569,0.070587084,-0.071929455,0.000000000,,,
1782642348.887508,,,,3423.000000000,329.000000000,0.000000000
1782642348.887541,0.071306139,-0.072097301,0.000000000,,,
1782642348.897466,,,,3558.000000000,352.000000000,0.000000000
1782642348.897498,0.071258202,-0.072001457,0.000000000,,,
1782642348.907545,,,,3546.000000000,332.000000000,0.000000000
1782642348.907572,0.071186297,-0.072001457,0.000000000,,,
1782642348.917411,,,,3529.000000000,388.000000000,0.000000000
1782642348.917428,0.070419304,-0.072025299,0.000000000,,,
1782642348.927511,,,,3452.000000000,402.000000000,0.000000000
1782642348.927541,0.070587084,-0.071977139,0.000000000,,,
1782642348.937459,,,,3385.000000000,375.000000000,0.000000000
1782642348.937500,0.070826769,-0.072001457,0.000000000,,,
1782642348.947288,,,,3468.000000000,332.000000000,0.000000000
1782642348.947318,0.071617730,-0.072072983,0.000000000,,,
1782642348.957415,,,,3623.000000000,410.000000000,0.000000000
1782642348.957438,0.071569793,-0.072072983,0.000000000,,,
1782642348.967489,,,,3655.000000000,383.000000000,0.000000000
1782642348.967552,0.071521856,-0.071833611,0.000000000,,,
1782642348.977466,,,,3595.000000000,426.000000000,0.000000000
1782642348.977490,0.070778832,-0.071881294,0.000000000,,,
1782642348.987530,,,,3405.000000000,368.000000000,0.000000000
1782642348.987592,0.070898674,-0.071953297,0.000000000,,,
1782642348.997459,,,,3440.000000000,389.000000000,0.000000000
1782642348.997521,0.071066454,-0.071929455,0.000000000,,,
1782642349.007474,,,,3440.000000000,371.000000000,0.000000000
1782642349.007523,0.072145037,-0.071953297,0.000000000,,,
1782642349.017318,,,,3584.000000000,407.000000000,0.000000000
1782642349.017333,0.072073132,-0.071977139,0.000000000,,,
1782642349.027440,,,,3644.000000000,396.000000000,0.000000000
1782642349.027470,0.071977258,-0.071953297,0.000000000,,,
1782642349.037424,,,,3615.000000000,407.000000000,0.000000000
1782642349.037468,0.071282171,-0.071857452,0.000000000,,,
1782642349.047231,,,,3393.000000000,367.000000000,0.000000000
1782642349.047254,0.071378045,-0.071977139,0.000000000,,,
1782642349.057377,,,,3349.000000000,321.000000000,0.000000000
1782642349.057408,0.071497887,-0.072001457,0.000000000,,,
1782642349.067519,,,,3398.000000000,344.000000000,0.000000000
1782642349.067584,0.072576471,-0.071977139,0.000000000,,,
1782642349.077409,,,,3535.000000000,352.000000000,0.000000000
1782642349.077460,0.072624408,-0.071833611,0.000000000,,,
1782642349.087358,,,,3579.000000000,369.000000000,0.000000000
1782642349.087409,0.071497887,-0.071905136,0.000000000,,,
1782642349.097429,,,,3580.000000000,363.000000000,0.000000000
1782642349.097490,0.071617730,-0.071833611,0.000000000,,,
1782642349.107431,,,,3421.000000000,338.000000000,0.000000000
1782642349.107476,0.071761541,-0.071809292,0.000000000,,,
1782642349.117500,,,,3361.000000000,336.000000000,0.000000000
1782642349.117568,0.071929321,-0.071809292,0.000000000,,,
1782642349.127349,,,,3374.000000000,342.000000000,0.000000000
1782642349.127379,0.072912030,-0.071905136,0.000000000,,,
1782642349.137436,,,,3552.000000000,377.000000000,0.000000000
1782642349.137496,0.072959967,-0.071785450,0.000000000,,,
1782642349.147492,,,,3630.000000000,387.000000000,0.000000000
1782642349.147561,0.072983928,-0.071737766,0.000000000,,,
1782642349.157412,,,,3648.000000000,385.000000000,0.000000000
1782642349.157472,0.071929321,-0.071929455,0.000000000,,,
1782642349.167428,,,,3507.000000000,385.000000000,0.000000000
1782642349.167490,0.072049163,-0.071857452,0.000000000,,,
1782642349.177579,,,,3490.000000000,361.000000000,0.000000000
1782642349.177644,0.072169006,-0.071809292,0.000000000,,,
1782642349.187499,,,,3468.000000000,345.000000000,0.000000000
1782642349.187554,0.073271550,-0.071857452,0.000000000,,,
1782642349.197384,,,,3592.000000000,368.000000000,0.000000000
1782642349.197439,0.073343456,-0.071905136,0.000000000,,,
1782642349.207379,,,,3666.000000000,399.000000000,0.000000000
1782642349.207405,0.073343456,-0.071665764,0.000000000,,,
1782642349.217460,,,,3730.000000000,393.000000000,0.000000000
1782642349.217521,0.072456628,-0.071737766,0.000000000,,,
1782642349.227384,,,,3533.000000000,389.000000000,0.000000000
1782642349.227423,0.072504565,-0.071833611,0.000000000,,,
1782642349.237411,,,,3436.000000000,371.000000000,0.000000000
1782642349.237455,0.072576471,-0.071689606,0.000000000,,,
1782642349.247401,,,,3433.000000000,375.000000000,0.000000000
1782642349.247445,0.073774889,-0.071665764,0.000000000,,,
1782642349.257443,,,,3530.000000000,346.000000000,0.000000000
1782642349.257504,0.073846795,-0.071737766,0.000000000,,,
1782642349.267378,,,,3623.000000000,345.000000000,0.000000000
1782642349.267421,0.073870763,-0.071737766,0.000000000,,,
1782642349.277396,,,,3658.000000000,389.000000000,0.000000000
1782642349.277443,0.072935998,-0.071665764,0.000000000,,,
1782642349.287430,,,,3584.000000000,364.000000000,0.000000000
1782642349.287480,0.072983928,-0.071617603,0.000000000,,,
1782642349.297228,,,,3380.000000000,385.000000000,0.000000000
1782642349.297282,0.073079802,-0.071857452,0.000000000,,,
1782642349.307220,,,,3369.000000000,348.000000000,0.000000000
1782642349.307238,0.074110448,-0.071761608,0.000000000,,,
1782642349.317428,,,,3496.000000000,371.000000000,0.000000000
1782642349.317471,0.074254259,-0.071689606,0.000000000,,,
1782642349.327387,,,,3662.000000000,367.000000000,0.000000000
1782642349.327424,0.074350134,-0.071785450,0.000000000,,,
1782642349.337131,,,,3666.000000000,379.000000000,0.000000000
1782642349.337147,0.073271550,-0.071761608,0.000000000,,,
1782642349.347272,,,,3611.000000000,360.000000000,0.000000000
1782642349.347293,0.073319487,-0.071689606,0.000000000,,,
1782642349.357385,,,,3502.000000000,368.000000000,0.000000000
1782642349.357427,0.073391393,-0.071737766,0.000000000,,,
1782642349.367364,,,,3488.000000000,365.000000000,0.000000000
1782642349.367397,0.074374102,-0.071785450,0.000000000,,,
1782642349.377246,,,,3498.000000000,350.000000000,0.000000000
1782642349.377270,0.074517913,-0.071521759,0.000000000,,,
1782642349.387376,,,,3713.000000000,342.000000000,0.000000000
1782642349.387410,0.074661724,-0.071521759,0.000000000,,,
1782642349.397213,,,,3714.000000000,393.000000000,0.000000000
1782642349.397239,0.073726952,-0.071785450,0.000000000,,,
1782642349.407271,,,,3656.000000000,438.000000000,0.000000000
1782642349.407305,0.073702984,-0.071689606,0.000000000,,,
1782642349.417230,,,,3503.000000000,377.000000000,0.000000000
1782642349.417259,0.073702984,-0.071593761,0.000000000,,,
1782642349.427332,,,,3501.000000000,338.000000000,0.000000000
1782642349.427380,0.074781567,-0.071641922,0.000000000,,,
1782642349.437214,,,,3503.000000000,328.000000000,0.000000000
1782642349.437234,0.074925378,-0.071641922,0.000000000,,,
1782642349.447304,,,,3666.000000000,349.000000000,0.000000000
1782642349.447328,0.075045221,-0.071569920,0.000000000,,,
1782642349.457209,,,,3714.000000000,396.000000000,0.000000000
1782642349.457221,0.074278228,-0.071689606,0.000000000,,,
1782642349.467434,,,,3745.000000000,387.000000000,0.000000000
1782642349.467476,0.074230291,-0.071737766,0.000000000,,,
1782642349.477259,,,,3484.000000000,379.000000000,0.000000000
1782642349.477278,0.074230291,-0.071713448,0.000000000,,,
1782642349.487458,,,,3435.000000000,340.000000000,0.000000000
1782642349.487522,0.075213000,-0.071474075,0.000000000,,,
1782642349.497373,,,,3449.000000000,342.000000000,0.000000000
1782642349.497439,0.075380780,-0.071569920,0.000000000,,,
1782642349.507285,,,,3635.000000000,354.000000000,0.000000000
1782642349.507318,0.075548559,-0.071617603,0.000000000,,,
1782642349.517223,,,,3627.000000000,354.000000000,0.000000000
1782642349.517251,0.074805535,-0.071569920,0.000000000,,,
1782642349.527289,,,,3709.000000000,402.000000000,0.000000000
1782642349.527330,0.074733630,-0.071593761,0.000000000,,,
1782642349.537375,,,,3573.000000000,363.000000000,0.000000000
1782642349.537439,0.074733630,-0.071593761,0.000000000,,,
1782642349.547130,,,,3424.000000000,324.000000000,0.000000000
1782642349.547175,0.075524591,-0.071521759,0.000000000,,,
1782642349.557302,,,,3447.000000000,377.000000000,0.000000000
1782642349.557359,0.075716332,-0.071425915,0.000000000,,,
1782642349.567410,,,,3659.000000000,338.000000000,0.000000000
1782642349.567474,0.075884111,-0.071641922,0.000000000,,,
1782642349.577475,,,,3728.000000000,388.000000000,0.000000000
1782642349.577520,0.075189032,-0.071641922,0.000000000,,,
1782642349.587362,,,,3710.000000000,393.000000000,0.000000000
1782642349.587421,0.075117126,-0.071545601,0.000000000,,,
1782642349.597288,,,,3601.000000000,395.000000000,0.000000000
1782642349.597349,0.075069189,-0.071497917,0.000000000,,,
1782642349.607192,,,,3533.000000000,338.000000000,0.000000000
1782642349.607237,0.075788237,-0.071569920,0.000000000,,,
1782642349.617249,,,,3515.000000000,330.000000000,0.000000000
1782642349.617287,0.075979985,-0.071402073,0.000000000,,,
1782642349.627219,,,,3661.000000000,385.000000000,0.000000000
1782642349.627243,0.076171733,-0.071425915,0.000000000,,,
1782642349.637311,,,,3765.000000000,396.000000000,0.000000000
1782642349.637330,0.075692363,-0.071521759,0.000000000,,,
1782642349.647178,,,,3775.000000000,391.000000000,0.000000000
1782642349.647214,0.075572528,-0.071425915,0.000000000,,,
1782642349.657121,,,,3601.000000000,388.000000000,0.000000000
1782642349.657150,0.075500622,-0.071353912,0.000000000,,,
1782642349.667284,,,,3482.000000000,349.000000000,0.000000000
1782642349.667304,0.076195702,-0.071353912,0.000000000,,,
1782642349.677232,,,,3502.000000000,344.000000000,0.000000000
1782642349.677266,0.076387450,-0.071497917,0.000000000,,,
1782642349.687280,,,,3597.000000000,375.000000000,0.000000000
1782642349.687303,0.076555230,-0.071425915,0.000000000,,,
1782642349.697268,,,,3700.000000000,381.000000000,0.000000000
1782642349.697320,0.076267608,-0.071425915,0.000000000,,,
1782642349.707146,0.076147765,-0.071497917,0.000000000,,,
1782642349.707174,,,,3753.000000000,396.000000000,0.000000000
1782642349.717230,,,,3695.000000000,381.000000000,0.000000000
1782642349.717264,0.076027922,-0.071545601,0.000000000,,,
1782642349.727170,,,,3496.000000000,344.000000000,0.000000000
1782642349.727203,0.076579198,-0.071521759,0.000000000,,,
1782642349.737104,,,,3480.000000000,384.000000000,0.000000000
1782642349.737117,0.076770946,-0.071353912,0.000000000,,,
1782642349.747213,,,,3558.000000000,354.000000000,0.000000000
1782642349.747270,0.076986663,-0.071425915,0.000000000,,,
1782642349.757300,,,,3702.000000000,379.000000000,0.000000000
1782642349.757369,0.076699041,-0.071521759,0.000000000,,,
1782642349.767395,,,,3708.000000000,385.000000000,0.000000000
1782642349.767454,0.076603167,-0.071306229,0.000000000,,,
1782642349.777260,,,,3687.000000000,418.000000000,0.000000000
1782642349.777293,0.076531261,-0.071353912,0.000000000,,,
1782642349.787244,,,,3556.000000000,363.000000000,0.000000000
1782642349.787275,0.076794915,-0.071402073,0.000000000,,,
1782642349.797313,,,,3518.000000000,350.000000000,0.000000000
1782642349.797383,0.077034600,-0.071330070,0.000000000,,,
1782642349.807209,,,,3576.000000000,383.000000000,0.000000000
1782642349.807238,0.077226348,-0.071234226,0.000000000,,,
1782642349.817114,,,,3784.000000000,392.000000000,0.000000000
1782642349.817143,0.077082537,-0.071521759,0.000000000,,,
1782642349.827119,,,,3808.000000000,407.000000000,0.000000000
1782642349.827142,0.076986663,-0.071425915,0.000000000,,,
1782642349.837275,,,,3786.000000000,435.000000000,0.000000000
1782642349.837330,0.076914757,-0.071306229,0.000000000,,,
1782642349.847184,,,,3591.000000000,379.000000000,0.000000000
1782642349.847204,0.077106506,-0.071378231,0.000000000,,,
1782642349.857165,,,,3583.000000000,395.000000000,0.000000000
1782642349.857191,0.077322222,-0.071402073,0.000000000,,,
1782642349.867147,,,,3596.000000000,375.000000000,0.000000000
1782642349.867190,0.077490002,-0.071353912,0.000000000,,,
1782642349.877140,,,,3730.000000000,372.000000000,0.000000000
1782642349.877152,0.077633813,-0.071353912,0.000000000,,,
1782642349.887236,,,,3791.000000000,393.000000000,0.000000000
1782642349.887258,0.077490002,-0.071378231,0.000000000,,,
1782642349.897245,,,,3831.000000000,408.000000000,0.000000000
1782642349.897289,0.077370159,-0.071449757,0.000000000,,,
1782642349.907155,,,,3587.000000000,376.000000000,0.000000000
1782642349.907177,0.077513970,-0.071162224,0.000000000,,,
1782642349.917137,,,,3487.000000000,333.000000000,0.000000000
1782642349.917152,0.077705719,-0.071210384,0.000000000,,,
1782642349.927295,,,,3519.000000000,309.000000000,0.000000000
1782642349.927352,0.077897467,-0.071330070,0.000000000,,,
1782642349.937242,,,,3678.000000000,360.000000000,0.000000000
1782642349.937284,0.078137152,-0.071210384,0.000000000,,,
1782642349.947124,,,,3726.000000000,371.000000000,0.000000000
1782642349.947138,0.078065246,-0.071210384,0.000000000,,,
1782642349.957126,,,,3708.000000000,330.000000000,0.000000000
1782642349.957150,0.077945404,-0.071258068,0.000000000,,,
1782642349.967275,,,,3640.000000000,383.000000000,0.000000000
1782642349.967332,0.077801593,-0.071234226,0.000000000,,,
1782642349.977294,,,,3557.000000000,393.000000000,0.000000000
1782642349.977362,0.078065246,-0.071114540,0.000000000,,,
1782642349.987324,,,,3527.000000000,367.000000000,0.000000000
1782642349.987434,0.078280956,-0.071330070,0.000000000,,,
1782642349.997151,,,,3682.000000000,341.000000000,0.000000000
1782642349.997174,0.078544609,-0.071378231,0.000000000,,,
1782642350.007201,,,,3803.000000000,364.000000000,0.000000000
1782642350.007231,0.078496672,-0.071066380,0.000000000,,,
1782642350.017230,,,,3782.000000000,373.000000000,0.000000000
1782642350.017259,0.078400798,-0.071138382,0.000000000,,,
1782642350.027267,,,,3683.000000000,381.000000000,0.000000000
1782642350.027328,0.078041278,-0.071234226,0.000000000,,,
1782642350.037209,,,,3631.000000000,379.000000000,0.000000000
1782642350.037241,0.078256994,-0.071186066,0.000000000,,,
1782642350.047242,,,,3611.000000000,364.000000000,0.000000000
1782642350.047305,0.078520641,-0.071186066,0.000000000,,,
1782642350.057263,,,,3700.000000000,367.000000000,0.000000000
1782642350.057320,0.079000011,-0.071234226,0.000000000,,,
1782642350.067259,,,,3818.000000000,381.000000000,0.000000000
1782642350.067323,0.078904137,-0.071162224,0.000000000,,,
1782642350.077162,,,,3866.000000000,383.000000000,0.000000000
1782642350.077186,0.078832231,-0.071066380,0.000000000,,,
1782642350.087306,,,,3704.000000000,363.000000000,0.000000000
1782642350.087372,0.078496672,-0.071018696,0.000000000,,,
1782642350.097284,,,,3533.000000000,321.000000000,0.000000000
1782642350.097353,0.078616515,-0.071282387,0.000000000,,,
1782642350.107216,,,,3542.000000000,317.000000000,0.000000000
1782642350.107256,0.079647161,-0.071186066,0.000000000,,,
1782642350.117140,,,,3683.000000000,365.000000000,0.000000000
1782642350.117163,0.079599224,-0.071114540,0.000000000,,,
1782642350.127049,,,,3767.000000000,364.000000000,0.000000000
1782642350.127061,0.079527318,-0.071162224,0.000000000,,,
1782642350.137185,,,,3800.000000000,372.000000000,0.000000000
1782642350.137239,0.079431444,-0.071138382,0.000000000,,,
1782642350.147273,,,,3760.000000000,383.000000000,0.000000000
1782642350.147324,0.078928106,-0.071018696,0.000000000,,,
1782642350.157251,,,,3548.000000000,333.000000000,0.000000000
1782642350.157311,0.079095885,-0.071114540,0.000000000,,,
1782642350.167184,,,,3535.000000000,349.000000000,0.000000000
1782642350.167212,0.080054626,-0.071186066,0.000000000,,,
1782642350.177118,,,,3616.000000000,326.000000000,0.000000000
1782642350.177144,0.080078594,-0.070970535,0.000000000,,,
1782642350.187225,,,,3806.000000000,365.000000000,0.000000000
1782642350.187293,0.080054626,-0.070946693,0.000000000,,,
1782642350.197186,,,,3784.000000000,387.000000000,0.000000000
1782642350.197217,0.079023980,-0.071018696,0.000000000,,,
1782642350.207136,,,,3780.000000000,389.000000000,0.000000000
1782642350.207162,0.079191759,-0.071042538,0.000000000,,,
1782642350.217173,,,,3640.000000000,375.000000000,0.000000000
1782642350.217234,0.079359539,-0.071042538,0.000000000,,,
1782642350.227216,,,,3577.000000000,332.000000000,0.000000000
1782642350.227261,0.079599224,-0.071162224,0.000000000,,,
1782642350.237069,,,,3591.000000000,349.000000000,0.000000000
1782642350.237089,0.080438122,-0.071138382,0.000000000,,,
1782642350.247209,,,,3777.000000000,317.000000000,0.000000000
1782642350.247270,0.080462091,-0.071042538,0.000000000,,,
1782642350.257164,,,,3865.000000000,383.000000000,0.000000000
1782642350.257199,0.080414154,-0.071018696,0.000000000,,,
1782642350.267109,,,,3846.000000000,427.000000000,0.000000000
1782642350.267132,0.079575256,-0.071114540,0.000000000,,,
1782642350.277243,,,,3677.000000000,387.000000000,0.000000000
1782642350.277306,0.079671130,-0.071114540,0.000000000,,,
1782642350.287225,,,,3662.000000000,373.000000000,0.000000000
1782642350.287282,0.080965422,-0.070946693,0.000000000,,,
1782642350.297263,,,,3678.000000000,373.000000000,0.000000000
1782642350.297335,0.081037328,-0.070994377,0.000000000,,,
1782642350.307141,,,,3822.000000000,376.000000000,0.000000000
1782642350.307162,0.080989391,-0.070922852,0.000000000,,,
1782642350.317245,,,,3866.000000000,399.000000000,0.000000000
1782642350.317274,0.080917493,-0.070850849,0.000000000,,,
1782642350.327200,,,,3947.000000000,423.000000000,0.000000000
1782642350.327266,0.080126531,-0.070850849,0.000000000,,,
1782642350.338223,,,,3675.000000000,410.000000000,0.000000000
1782642350.338255,0.080198437,-0.071066380,0.000000000,,,
1782642350.347099,,,,3577.000000000,369.000000000,0.000000000
1782642350.347113,0.080318280,-0.070946693,0.000000000,,,
1782642350.357174,,,,3576.000000000,344.000000000,0.000000000
1782642350.357196,0.081564635,-0.070827007,0.000000000,,,
1782642350.367160,,,,3751.000000000,342.000000000,0.000000000
1782642350.367193,0.081588604,-0.070994377,0.000000000,,,
1782642350.377147,,,,3792.000000000,340.000000000,0.000000000
1782642350.377160,0.080390185,-0.070946693,0.000000000,,,
1782642350.387158,,,,3802.000000000,342.000000000,0.000000000
1782642350.387184,0.080510028,-0.070874691,0.000000000,,,
1782642350.397246,,,,3683.000000000,364.000000000,0.000000000
1782642350.397307,0.080629870,-0.070970535,0.000000000,,,
1782642350.407119,,,,3626.000000000,373.000000000,0.000000000
1782642350.407146,0.080773681,-0.071066380,0.000000000,,,
1782642350.417139,,,,3573.000000000,367.000000000,0.000000000
1782642350.417167,0.081876226,-0.070730686,0.000000000,,,
1782642350.427167,,,,3764.000000000,338.000000000,0.000000000
1782642350.427197,0.081996068,-0.070755005,0.000000000,,,
1782642350.437287,,,,3894.000000000,397.000000000,0.000000000
1782642350.437331,0.082020037,-0.070850849,0.000000000,,,
1782642350.447160,,,,3888.000000000,410.000000000,0.000000000
1782642350.447205,0.080845587,-0.070850849,0.000000000,,,
1782642350.457599,,,,3780.000000000,399.000000000,0.000000000
1782642350.457634,0.080893524,-0.070802689,0.000000000,,,
1782642350.467772,,,,3726.000000000,369.000000000,0.000000000
1782642350.467812,0.082139879,-0.070827007,0.000000000,,,
1782642350.477886,,,,3717.000000000,410.000000000,0.000000000
1782642350.477957,0.082259722,-0.070827007,0.000000000,,,
1782642350.487784,,,,3771.000000000,393.000000000,0.000000000
1782642350.487845,0.082379565,-0.070730686,0.000000000,,,
1782642350.497791,,,,3936.000000000,385.000000000,0.000000000
1782642350.497821,0.082403533,-0.070683002,0.000000000,,,
1782642350.507704,,,,3944.000000000,363.000000000,0.000000000
1782642350.507737,0.081372887,-0.070946693,0.000000000,,,
1782642350.517663,,,,3798.000000000,358.000000000,0.000000000
1782642350.517694,0.081396855,-0.070898533,0.000000000,,,
1782642350.527669,,,,3693.000000000,385.000000000,0.000000000
1782642350.527695,0.081468761,-0.070683002,0.000000000,,,
1782642350.537720,,,,3666.000000000,364.000000000,0.000000000
1782642350.537764,0.082810998,-0.070802689,0.000000000,,,
1782642350.547714,,,,3725.000000000,373.000000000,0.000000000
1782642350.547762,0.082930841,-0.070827007,0.000000000,,,
1782642350.557696,,,,3860.000000000,388.000000000,0.000000000
1782642350.557739,0.081972100,-0.070755005,0.000000000,,,
1782642350.567683,,,,3873.000000000,376.000000000,0.000000000
1782642350.567730,0.081924163,-0.070778847,0.000000000,,,
1782642350.577788,,,,3890.000000000,422.000000000,0.000000000
1782642350.577827,0.081948131,-0.070850849,0.000000000,,,
1782642350.587877,,,,3669.000000000,381.000000000,0.000000000
1782642350.587946,0.081996068,-0.070683002,0.000000000,,,
1782642350.597757,,,,3628.000000000,368.000000000,0.000000000
1782642350.597770,0.083218463,-0.070587158,0.000000000,,,
1782642350.607787,,,,3708.000000000,387.000000000,0.000000000
1782642350.607838,0.083386242,-0.070850849,0.000000000,,,
1782642350.617669,,,,3854.000000000,361.000000000,0.000000000
1782642350.617700,0.083506085,-0.070802689,0.000000000,,,
1782642350.627777,,,,3854.000000000,379.000000000,0.000000000
1782642350.627822,0.082331628,-0.070706844,0.000000000,,,
1782642350.637666,,,,3864.000000000,400.000000000,0.000000000
1782642350.637721,0.082331628,-0.070730686,0.000000000,,,
1782642350.647797,,,,3740.000000000,348.000000000,0.000000000
1782642350.647829,0.083290368,-0.070730686,0.000000000,,,
1782642350.657869,,,,3689.000000000,338.000000000,0.000000000
1782642350.657934,0.083506085,-0.070706844,0.000000000,,,
1782642350.667730,,,,3705.000000000,337.000000000,0.000000000
1782642350.667757,0.083697826,-0.070634842,0.000000000,,,
1782642350.677701,,,,3920.000000000,384.000000000,0.000000000
1782642350.677762,0.083841637,-0.070730686,0.000000000,,,
1782642350.687767,,,,3958.000000000,414.000000000,0.000000000
1782642350.687814,0.082834966,-0.070778847,0.000000000,,,
1782642350.697834,,,,3942.000000000,424.000000000,0.000000000
1782642350.697881,0.082763061,-0.070515156,0.000000000,,,
1782642350.707692,,,,3768.000000000,404.000000000,0.000000000
1782642350.707713,0.082763061,-0.070515156,0.000000000,,,
1782642350.717563,,,,3759.000000000,379.000000000,0.000000000
1782642350.717586,0.083913542,-0.070563316,0.000000000,,,
1782642350.727649,,,,3733.000000000,391.000000000,0.000000000
1782642350.727671,0.084105290,-0.070634842,0.000000000,,,
1782642350.737702,,,,3886.000000000,392.000000000,0.000000000
1782642350.737722,0.083577991,-0.070611000,0.000000000,,,
1782642350.747641,,,,3950.000000000,397.000000000,0.000000000
1782642350.747678,0.083434179,-0.070563316,0.000000000,,,
1782642350.757720,,,,4020.000000000,410.000000000,0.000000000
1782642350.757764,0.083362274,-0.070706844,0.000000000,,,
1782642350.767634,,,,3725.000000000,364.000000000,0.000000000
1782642350.767647,0.083314337,-0.070634842,0.000000000,,,
1782642350.777645,,,,3662.000000000,358.000000000,0.000000000
1782642350.777671,0.084392913,-0.070515156,0.000000000,,,
1782642350.787709,,,,3646.000000000,338.000000000,0.000000000
1782642350.787799,0.084608629,-0.070659161,0.000000000,,,
1782642350.797655,,,,3822.000000000,369.000000000,0.000000000
1782642350.797670,0.084776409,-0.070706844,0.000000000,,,
1782642350.807650,,,,3903.000000000,383.000000000,0.000000000
1782642350.807683,0.084009416,-0.070611000,0.000000000,,,
1782642350.817582,,,,3939.000000000,367.000000000,0.000000000
1782642350.817628,0.083937511,-0.070538998,0.000000000,,,
1782642350.827625,,,,3803.000000000,349.000000000,0.000000000
1782642350.827640,0.084416881,-0.070587158,0.000000000,,,
1782642350.837611,,,,3677.000000000,334.000000000,0.000000000
1782642350.837639,0.084704503,-0.070419312,0.000000000,,,
1782642350.847779,,,,3652.000000000,332.000000000,0.000000000
1782642350.847829,0.084968157,-0.070395470,0.000000000,,,
1782642350.857715,,,,3841.000000000,375.000000000,0.000000000
1782642350.857739,0.085183874,-0.070467472,0.000000000,,,
1782642350.867867,,,,3951.000000000,364.000000000,0.000000000
1782642350.867910,0.084488787,-0.070538998,0.000000000,,,
1782642350.877585,,,,3964.000000000,387.000000000,0.000000000
1782642350.877614,0.084416881,-0.070419312,0.000000000,,,
1782642350.887782,,,,3872.000000000,397.000000000,0.000000000
1782642350.887814,0.084321007,-0.070371151,0.000000000,,,
1782642350.897636,,,,3791.000000000,368.000000000,0.000000000
1782642350.897661,0.084968157,-0.070515156,0.000000000,,,
1782642350.907586,,,,3767.000000000,301.000000000,0.000000000
1782642350.907617,0.085231811,-0.070443153,0.000000000,,,
1782642350.917727,,,,3816.000000000,353.000000000,0.000000000
1782642350.917769,0.085471496,-0.070515156,0.000000000,,,
1782642350.927621,,,,3998.000000000,388.000000000,0.000000000
1782642350.927653,0.085711181,-0.070587158,0.000000000,,,
1782642350.937694,,,,4021.000000000,365.000000000,0.000000000
1782642350.937761,0.084944189,-0.070538998,0.000000000,,,
1782642350.947798,,,,3950.000000000,397.000000000,0.000000000
1782642350.947838,0.084848315,-0.070299625,0.000000000,,,
1782642350.957683,,,,3779.000000000,412.000000000,0.000000000
1782642350.957728,0.085399590,-0.070371151,0.000000000,,,
1782642350.967600,,,,3724.000000000,356.000000000,0.000000000
1782642350.967613,0.085663244,-0.070491314,0.000000000,,,
1782642350.977706,,,,3798.000000000,383.000000000,0.000000000
1782642350.977772,0.085926898,-0.070347309,0.000000000,,,
1782642350.987729,,,,3929.000000000,392.000000000,0.000000000
1782642350.987777,0.085783087,-0.070371151,0.000000000,,,
1782642350.997741,,,,3974.000000000,416.000000000,0.000000000
1782642350.997772,0.085615307,-0.070419312,0.000000000,,,
1782642351.007607,,,,3982.000000000,415.000000000,0.000000000
1782642351.007639,0.085471496,-0.070323467,0.000000000,,,
1782642351.017637,,,,3736.000000000,352.000000000,0.000000000
1782642351.017675,0.085854992,-0.070227623,0.000000000,,,
1782642351.027700,,,,3713.000000000,376.000000000,0.000000000
1782642351.027748,0.086118646,-0.070491314,0.000000000,,,
1782642351.037772,,,,3756.000000000,358.000000000,0.000000000
1782642351.037801,0.086406261,-0.070491314,0.000000000,,,
1782642351.047786,,,,3907.000000000,367.000000000,0.000000000
1782642351.047821,0.086358324,-0.070395470,0.000000000,,,
1782642351.057794,,,,3892.000000000,350.000000000,0.000000000
1782642351.057834,0.086238481,-0.070323467,0.000000000,,,
1782642351.067806,,,,3981.000000000,400.000000000,0.000000000
1782642351.067843,0.086118646,-0.070371151,0.000000000,,,
1782642351.077744,,,,3884.000000000,403.000000000,0.000000000
1782642351.077801,0.086094677,-0.070347309,0.000000000,,,
1782642351.087728,,,,3772.000000000,373.000000000,0.000000000
1782642351.087799,0.086382292,-0.070323467,0.000000000,,,
1782642351.097718,,,,3779.000000000,400.000000000,0.000000000
1782642351.097766,0.086933568,-0.070371151,0.000000000,,,
1782642351.107670,,,,4006.000000000,414.000000000,0.000000000
1782642351.107712,0.086837694,-0.070443153,0.000000000,,,
1782642351.117610,,,,4028.000000000,383.000000000,0.000000000
1782642351.117662,0.086741820,-0.070155621,0.000000000,,,
1782642351.127647,,,,4022.000000000,383.000000000,0.000000000
1782642351.127687,0.086574040,-0.070131779,0.000000000,,,
1782642351.137760,,,,3878.000000000,426.000000000,0.000000000
1782642351.137802,0.086430229,-0.070371151,0.000000000,,,
1782642351.147635,,,,3860.000000000,384.000000000,0.000000000
1782642351.147649,0.086669914,-0.070251465,0.000000000,,,
1782642351.157745,,,,3814.000000000,391.000000000,0.000000000
1782642351.157807,0.086957537,-0.070227623,0.000000000,,,
1782642351.167633,,,,3967.000000000,420.000000000,0.000000000
1782642351.167670,0.087508813,-0.070299625,0.000000000,,,
1782642351.177786,,,,4036.000000000,367.000000000,0.000000000
1782642351.177830,0.087317064,-0.070275307,0.000000000,,,
1782642351.187773,,,,4081.000000000,415.000000000,0.000000000
1782642351.187835,0.087173253,-0.070155621,0.000000000,,,
1782642351.197764,,,,3860.000000000,393.000000000,0.000000000
1782642351.197795,0.086957537,-0.070251465,0.000000000,,,
1782642351.207695,,,,3745.000000000,354.000000000,0.000000000
1782642351.207778,0.087173253,-0.070347309,0.000000000,,,
1782642351.217585,,,,3741.000000000,328.000000000,0.000000000
1782642351.217602,0.087412938,-0.070059776,0.000000000,,,
1782642351.227540,,,,3935.000000000,367.000000000,0.000000000
1782642351.227552,0.088131994,-0.070083618,0.000000000,,,
1782642351.237701,,,,3960.000000000,364.000000000,0.000000000
1782642351.237778,0.088012151,-0.070179462,0.000000000,,,
1782642351.247857,,,,4017.000000000,376.000000000,0.000000000
1782642351.247925,0.087868340,-0.070131779,0.000000000,,,
1782642351.257662,,,,3936.000000000,414.000000000,0.000000000
1782642351.257681,0.087293096,-0.070083618,0.000000000,,,
1782642351.267670,,,,3759.000000000,341.000000000,0.000000000
1782642351.267730,0.087556750,-0.070107937,0.000000000,,,
1782642351.277569,,,,3714.000000000,345.000000000,0.000000000
1782642351.277602,0.087820403,-0.070203781,0.000000000,,,
1782642351.287791,,,,3904.000000000,388.000000000,0.000000000
1782642351.287829,0.088539459,-0.070083618,0.000000000,,,
1782642351.297652,,,,4040.000000000,368.000000000,0.000000000
1782642351.297677,0.088515490,-0.069987774,0.000000000,,,
1782642351.307694,,,,4011.000000000,361.000000000,0.000000000
1782642351.307726,0.088419616,-0.070227623,0.000000000,,,
1782642351.317646,,,,3968.000000000,372.000000000,0.000000000
1782642351.317710,0.087532781,-0.070179462,0.000000000,,,
1782642351.327618,,,,3886.000000000,387.000000000,0.000000000
1782642351.327648,0.087772466,-0.070083618,0.000000000,,,
1782642351.337737,,,,3806.000000000,298.000000000,0.000000000
1782642351.337805,0.088036120,-0.070107937,0.000000000,,,
1782642351.347812,,,,3913.000000000,342.000000000,0.000000000
1782642351.347848,0.089042790,-0.070155621,0.000000000,,,
1782642351.357782,,,,4081.000000000,396.000000000,0.000000000
1782642351.357822,0.088994853,-0.069940090,0.000000000,,,
1782642351.367678,,,,4145.000000000,396.000000000,0.000000000
1782642351.367728,0.088898979,-0.069987774,0.000000000,,,
1782642351.377707,,,,4057.000000000,426.000000000,0.000000000
1782642351.377786,0.088012151,-0.070059776,0.000000000,,,
1782642351.387720,,,,3866.000000000,397.000000000,0.000000000
1782642351.387807,0.088155963,-0.069987774,0.000000000,,,
1782642351.397821,,,,3841.000000000,368.000000000,0.000000000
1782642351.397859,0.088347711,-0.069915771,0.000000000,,,
1782642351.407604,,,,3855.000000000,348.000000000,0.000000000
1782642351.407637,0.089665972,-0.069963932,0.000000000,,,
1782642351.417583,,,,4024.000000000,410.000000000,0.000000000
1782642351.417628,0.089642003,-0.070011616,0.000000000,,,
1782642351.427569,,,,4020.000000000,375.000000000,0.000000000
1782642351.427606,0.089522161,-0.069963932,0.000000000,,,
1782642351.437596,,,,4083.000000000,408.000000000,0.000000000
1782642351.437609,0.088515490,-0.070107937,0.000000000,,,
1782642351.447680,,,,3816.000000000,383.000000000,0.000000000
1782642351.447704,0.088683270,-0.070107937,0.000000000,,,
1782642351.457702,,,,3734.000000000,302.000000000,0.000000000
1782642351.457783,0.088851050,-0.070035934,0.000000000,,,
1782642351.467738,,,,3816.000000000,340.000000000,0.000000000
1782642351.467816,0.090121374,-0.069891930,0.000000000,,,
1782642351.477711,,,,4015.000000000,368.000000000,0.000000000
1782642351.477789,0.090169311,-0.069987774,0.000000000,,,
1782642351.487737,,,,4032.000000000,381.000000000,0.000000000
1782642351.487808,0.090145342,-0.070035934,0.000000000,,,
1782642351.497798,,,,4054.000000000,376.000000000,0.000000000
1782642351.497828,0.088827081,-0.069891930,0.000000000,,,
1782642351.507685,,,,3960.000000000,406.000000000,0.000000000
1782642351.507716,0.088970885,-0.069940090,0.000000000,,,
1782642351.517572,,,,3853.000000000,385.000000000,0.000000000
1782642351.517604,0.089162633,-0.069891930,0.000000000,,,
1782642351.527499,,,,3818.000000000,349.000000000,0.000000000
1782642351.527521,0.090456933,-0.069796085,0.000000000,,,
1782642351.537646,,,,4060.000000000,402.000000000,0.000000000
1782642351.537698,0.090528838,-0.069772243,0.000000000,,,
1782642351.547627,,,,4092.000000000,369.000000000,0.000000000
1782642351.547659,0.090576775,-0.070035934,0.000000000,,,
1782642351.557618,,,,4108.000000000,372.000000000,0.000000000
1782642351.557680,0.089234538,-0.069963932,0.000000000,,,
1782642351.567569,,,,3948.000000000,399.000000000,0.000000000
1782642351.567598,0.089306444,-0.069844246,0.000000000,,,
1782642351.577604,,,,3870.000000000,340.000000000,0.000000000
1782642351.577639,0.089402318,-0.069891930,0.000000000,,,
1782642351.587701,,,,3886.000000000,369.000000000,0.000000000
1782642351.587786,0.090960272,-0.069868088,0.000000000,,,
1782642351.597655,,,,3989.000000000,346.000000000,0.000000000
1782642351.597704,0.091008209,-0.069844246,0.000000000,,,
1782642351.607429,,,,4115.000000000,388.000000000,0.000000000
1782642351.607459,0.091008209,-0.069891930,0.000000000,,,
1782642351.617440,,,,4158.000000000,407.000000000,0.000000000
1782642351.617454,0.089833751,-0.069940090,0.000000000,,,
1782642351.627449,,,,3995.000000000,396.000000000,0.000000000
1782642351.627463,0.089785814,-0.069724083,0.000000000,,,
1782642351.637646,,,,3877.000000000,383.000000000,0.000000000
1782642351.637670,0.089881688,-0.069652081,0.000000000,,,
1782642351.647644,,,,3830.000000000,392.000000000,0.000000000
1782642351.647703,0.091439642,-0.069724083,0.000000000,,,
1782642351.657561,,,,3983.000000000,387.000000000,0.000000000
1782642351.657595,0.091559477,-0.069844246,0.000000000,,,
1782642351.667533,,,,4077.000000000,348.000000000,0.000000000
1782642351.667563,0.091607414,-0.069748402,0.000000000,,,
1782642351.677438,,,,4085.000000000,418.000000000,0.000000000
1782642351.677454,0.090313122,-0.069772243,0.000000000,,,
1782642351.687676,,,,4063.000000000,365.000000000,0.000000000
1782642351.687744,0.090313122,-0.069819927,0.000000000,,,
1782642351.697541,,,,3873.000000000,350.000000000,0.000000000
1782642351.697564,0.090385027,-0.069724083,0.000000000,,,
1782642351.707481,,,,3764.000000000,328.000000000,0.000000000
1782642351.707507,0.091727257,-0.069676399,0.000000000,,,
1782642351.717651,,,,3904.000000000,319.000000000,0.000000000
1782642351.717717,0.091942973,-0.069676399,0.000000000,,,
1782642351.727385,,,,4087.000000000,337.000000000,0.000000000
1782642351.727397,0.092062816,-0.069844246,0.000000000,,,
1782642351.737531,,,,4073.000000000,365.000000000,0.000000000
1782642351.737565,0.090696618,-0.069868088,0.000000000,,,
1782642351.747799,,,,4046.000000000,371.000000000,0.000000000
1782642351.747839,0.090648681,-0.069604397,0.000000000,,,
1782642351.757601,,,,3955.000000000,356.000000000,0.000000000
1782642351.757640,0.090672649,-0.069700241,0.000000000,,,
1782642351.767570,,,,3912.000000000,336.000000000,0.000000000
1782642351.767602,0.092038848,-0.069748402,0.000000000,,,
1782642351.777656,,,,3966.000000000,371.000000000,0.000000000
1782642351.777688,0.092230596,-0.069652081,0.000000000,,,
1782642351.787642,,,,4123.000000000,349.000000000,0.000000000
1782642351.787680,0.091367736,-0.069628239,0.000000000,,,
1782642351.797696,,,,4188.000000000,393.000000000,0.000000000
1782642351.797735,0.091223925,-0.069700241,0.000000000,,,
1782642351.807642,,,,4163.000000000,453.000000000,0.000000000
1782642351.807674,0.091128051,-0.069652081,0.000000000,,,
1782642351.817458,,,,3933.000000000,408.000000000,0.000000000
1782642351.817481,0.091104083,-0.069556236,0.000000000,,,
1782642351.827511,,,,3916.000000000,364.000000000,0.000000000
1782642351.827547,0.092446312,-0.069748402,0.000000000,,,
1782642351.837771,,,,3944.000000000,388.000000000,0.000000000
1782642351.837817,0.092685997,-0.069724083,0.000000000,,,
1782642351.847680,,,,4048.000000000,332.000000000,0.000000000
1782642351.847743,0.092829809,-0.069628239,0.000000000,,,
1782642351.857673,,,,4115.000000000,360.000000000,0.000000000
1782642351.857713,0.091847099,-0.069652081,0.000000000,,,
1782642351.867611,,,,4188.000000000,400.000000000,0.000000000
1782642351.867671,0.091727257,-0.069700241,0.000000000,,,
1782642351.877703,,,,3903.000000000,302.000000000,0.000000000
1782642351.877741,0.091703288,-0.069700241,0.000000000,,,
1782642351.887626,,,,3841.000000000,326.000000000,0.000000000
1782642351.887645,0.092829809,-0.069532394,0.000000000,,,
1782642351.897645,,,,3864.000000000,356.000000000,0.000000000
1782642351.897675,0.093117431,-0.069580555,0.000000000,,,
1782642351.907540,,,,4053.000000000,365.000000000,0.000000000
1782642351.907566,0.093285210,-0.069676399,0.000000000,,,
1782642351.917488,,,,4128.000000000,350.000000000,0.000000000
1782642351.917552,0.092326470,-0.069460392,0.000000000,,,
1782642351.927550,,,,4114.000000000,388.000000000,0.000000000
1782642351.927577,0.092206627,-0.069484711,0.000000000,,,
1782642351.937659,,,,4032.000000000,410.000000000,0.000000000
1782642351.937688,0.092182659,-0.069580555,0.000000000,,,
1782642351.947619,,,,3978.000000000,399.000000000,0.000000000
1782642351.947657,0.093045525,-0.069508553,0.000000000,,,
1782642351.957790,,,,3882.000000000,356.000000000,0.000000000
1782642351.957829,0.093309179,-0.069436550,0.000000000,,,
1782642351.967609,,,,4048.000000000,338.000000000,0.000000000
1782642351.967659,0.093548864,-0.069652081,0.000000000,,,
1782642351.977635,,,,4174.000000000,363.000000000,0.000000000
1782642351.977699,0.092805840,-0.069628239,0.000000000,,,
1782642351.987711,,,,4194.000000000,384.000000000,0.000000000
1782642351.987758,0.092662029,-0.069508553,0.000000000,,,
1782642351.997612,,,,4049.000000000,345.000000000,0.000000000
1782642351.997677,0.092590123,-0.069484711,0.000000000,,,
1782642352.007635,,,,3968.000000000,372.000000000,0.000000000
1782642352.007672,0.093357116,-0.069580555,0.000000000,,,
1782642352.017334,,,,3940.000000000,381.000000000,0.000000000
1782642352.017360,0.093572833,-0.069556236,0.000000000,,,
1782642352.027539,,,,4064.000000000,381.000000000,0.000000000
1782642352.027558,0.093596801,-0.069484711,0.000000000,,,
1782642352.037739,,,,4167.000000000,383.000000000,0.000000000
1782642352.037805,0.093429022,-0.069508553,0.000000000,,,
1782642352.047599,,,,4248.000000000,402.000000000,0.000000000
1782642352.047657,0.093237273,-0.069364548,0.000000000,,,
1782642352.057549,,,,4128.000000000,391.000000000,0.000000000
1782642352.057571,0.093093462,-0.069340706,0.000000000,,,
1782642352.067638,,,,3927.000000000,353.000000000,0.000000000
1782642352.067705,0.093764581,-0.069340706,0.000000000,,,
1782642352.077726,,,,3909.000000000,332.000000000,0.000000000
1782642352.077776,0.093980297,-0.069556236,0.000000000,,,
1782642352.087617,,,,4015.000000000,353.000000000,0.000000000
1782642352.087666,0.094196007,-0.069436550,0.000000000,,,
1782642352.097572,,,,4138.000000000,357.000000000,0.000000000
1782642352.097602,0.094028234,-0.069340706,0.000000000,,,
1782642352.107465,,,,4167.000000000,388.000000000,0.000000000
1782642352.107499,0.093884423,-0.069436550,0.000000000,,,
1782642352.117524,,,,4120.000000000,377.000000000,0.000000000
1782642352.117546,0.093764581,-0.069412708,0.000000000,,,
1782642352.127588,,,,3960.000000000,373.000000000,0.000000000
1782642352.127610,0.094028234,-0.069412708,0.000000000,,,
1782642352.137640,,,,3866.000000000,344.000000000,0.000000000
1782642352.137683,0.094291881,-0.069460392,0.000000000,,,
1782642352.147669,,,,3952.000000000,353.000000000,0.000000000
1782642352.147711,0.094531566,-0.069508553,0.000000000,,,
1782642352.157638,,,,4169.000000000,345.000000000,0.000000000
1782642352.157667,0.094459660,-0.069244862,0.000000000,,,
1782642352.167487,,,,4182.000000000,380.000000000,0.000000000
1782642352.167520,0.094339818,-0.069268703,0.000000000,,,
1782642352.177655,,,,4151.000000000,372.000000000,0.000000000
1782642352.177696,0.094196007,-0.069340706,0.000000000,,,
1782642352.187634,,,,4068.000000000,381.000000000,0.000000000
1782642352.187676,0.094196007,-0.069340706,0.000000000,,,
1782642352.197577,,,,4032.000000000,352.000000000,0.000000000
1782642352.197605,0.094435692,-0.069316864,0.000000000,,,
1782642352.207603,,,,3993.000000000,328.000000000,0.000000000
1782642352.207639,0.095058873,-0.069364548,0.000000000,,,
1782642352.217691,,,,4197.000000000,338.000000000,0.000000000
1782642352.217758,0.094939031,-0.069340706,0.000000000,,,
1782642352.227635,,,,4267.000000000,410.000000000,0.000000000
1782642352.227661,0.094795220,-0.069244862,0.000000000,,,
1782642352.237491,,,,4245.000000000,402.000000000,0.000000000
1782642352.237514,0.094627440,-0.069364548,0.000000000,,,
1782642352.247439,,,,4040.000000000,403.000000000,0.000000000
1782642352.247455,0.094531566,-0.069412708,0.000000000,,,
1782642352.257539,,,,3985.000000000,373.000000000,0.000000000
1782642352.257556,0.094747283,-0.069388866,0.000000000,,,
1782642352.267451,,,,3985.000000000,349.000000000,0.000000000
1782642352.267478,0.094962999,-0.069244862,0.000000000,,,
1782642352.277528,,,,4143.000000000,364.000000000,0.000000000
1782642352.277565,0.095538244,-0.069293022,0.000000000,,,
1782642352.287524,,,,4182.000000000,361.000000000,0.000000000
1782642352.287540,0.095370464,-0.069316864,0.000000000,,,
1782642352.297532,,,,4217.000000000,346.000000000,0.000000000
1782642352.297560,0.095178716,-0.069196701,0.000000000,,,
1782642352.307446,,,,4030.000000000,369.000000000,0.000000000
1782642352.307475,0.094915062,-0.069221020,0.000000000,,,
1782642352.317553,,,,3909.000000000,310.000000000,0.000000000
1782642352.317592,0.095130779,-0.069316864,0.000000000,,,
1782642352.327500,,,,3951.000000000,334.000000000,0.000000000
1782642352.327515,0.095370464,-0.069149017,0.000000000,,,
1782642352.337663,,,,4116.000000000,322.000000000,0.000000000
1782642352.337698,0.095993645,-0.069100857,0.000000000,,,
1782642352.347450,,,,4159.000000000,360.000000000,0.000000000
1782642352.347472,0.095897771,-0.069316864,0.000000000,,,
1782642352.357562,,,,4190.000000000,377.000000000,0.000000000
1782642352.357577,0.095753960,-0.069244862,0.000000000,,,
1782642352.367532,,,,4146.000000000,402.000000000,0.000000000
1782642352.367565,0.095106810,-0.069172859,0.000000000,,,
1782642352.377531,,,,4042.000000000,395.000000000,0.000000000
1782642352.377573,0.095346496,-0.069268703,0.000000000,,,
1782642352.387513,,,,3975.000000000,387.000000000,0.000000000
1782642352.387554,0.095610149,-0.069293022,0.000000000,,,
1782642352.397577,,,,4111.000000000,344.000000000,0.000000000
1782642352.397593,0.096329205,-0.069196701,0.000000000,,,
1782642352.407621,,,,4262.000000000,388.000000000,0.000000000
1782642352.407655,0.096233331,-0.069149017,0.000000000,,,
1782642352.417689,,,,4268.000000000,387.000000000,0.000000000
1782642352.417731,0.096113488,-0.069244862,0.000000000,,,
1782642352.427698,,,,4143.000000000,371.000000000,0.000000000
1782642352.427731,0.095370464,-0.069077015,0.000000000,,,
1782642352.437628,,,,4079.000000000,381.000000000,0.000000000
1782642352.437654,0.095514275,-0.069077015,0.000000000,,,
1782642352.447670,,,,4045.000000000,364.000000000,0.000000000
1782642352.447695,0.095777929,-0.069125175,0.000000000,,,
1782642352.457579,,,,4122.000000000,352.000000000,0.000000000
1782642352.457611,0.096832544,-0.069100857,0.000000000,,,
1782642352.467740,,,,4251.000000000,360.000000000,0.000000000
1782642352.467947,0.096712701,-0.069053173,0.000000000,,,
1782642352.477496,,,,4307.000000000,411.000000000,0.000000000
1782642352.477529,0.096568890,-0.069029331,0.000000000,,,
1782642352.487531,,,,4177.000000000,361.000000000,0.000000000
1782642352.487572,0.095801897,-0.069221020,0.000000000,,,
1782642352.497484,,,,4010.000000000,371.000000000,0.000000000
1782642352.497500,0.095993645,-0.069149017,0.000000000,,,
1782642352.507615,,,,3997.000000000,352.000000000,0.000000000
1782642352.507649,0.096113488,-0.069005013,0.000000000,,,
1782642352.517606,,,,4084.000000000,338.000000000,0.000000000
1782642352.517643,0.097335875,-0.069149017,0.000000000,,,
1782642352.527582,,,,4188.000000000,364.000000000,0.000000000
1782642352.527617,0.097287938,-0.069149017,0.000000000,,,
1782642352.537544,,,,4188.000000000,341.000000000,0.000000000
1782642352.537564,0.097120158,-0.069053173,0.000000000,,,
1782642352.547650,,,,4202.000000000,360.000000000,0.000000000
1782642352.547677,0.096113488,-0.069125175,0.000000000,,,
1782642352.557531,,,,4033.000000000,385.000000000,0.000000000
1782642352.557561,0.096305236,-0.069172859,0.000000000,,,
1782642352.567553,,,,3940.000000000,338.000000000,0.000000000
1782642352.567571,0.096449047,-0.068957329,0.000000000,,,
1782642352.577628,,,,3989.000000000,325.000000000,0.000000000
1782642352.577658,0.097623497,-0.068933487,0.000000000,,,
1782642352.587473,,,,4216.000000000,348.000000000,0.000000000
1782642352.587504,0.097647466,-0.069005013,0.000000000,,,
1782642352.597605,,,,4200.000000000,342.000000000,0.000000000
1782642352.597636,0.097599529,-0.069029331,0.000000000,,,
1782642352.607578,,,,4214.000000000,368.000000000,0.000000000
1782642352.607609,0.096353173,-0.068957329,0.000000000,,,
1782642352.617566,,,,4132.000000000,349.000000000,0.000000000
1782642352.617585,0.096520953,-0.068957329,0.000000000,,,
1782642352.627590,,,,4096.000000000,345.000000000,0.000000000
1782642352.627622,0.096688733,-0.069029331,0.000000000,,,
1782642352.637624,,,,4095.000000000,338.000000000,0.000000000
1782642352.637666,0.097887151,-0.068909168,0.000000000,,,
1782642352.647527,,,,4235.000000000,350.000000000,0.000000000
1782642352.647546,0.097959056,-0.069053173,0.000000000,,,
1782642352.657576,,,,4299.000000000,371.000000000,0.000000000
1782642352.657609,0.097911119,-0.069100857,0.000000000,,,
1782642352.667615,,,,4307.000000000,384.000000000,0.000000000
1782642352.667657,0.096784607,-0.069100857,0.000000000,,,
1782642352.677580,,,,4116.000000000,364.000000000,0.000000000
1782642352.677619,0.096856505,-0.068861485,0.000000000,,,
1782642352.687479,,,,4052.000000000,344.000000000,0.000000000
1782642352.687503,0.098246679,-0.068933487,0.000000000,,,
1782642352.697377,,,,4084.000000000,358.000000000,0.000000000
1782642352.697405,0.098342553,-0.069005013,0.000000000,,,
1782642352.707577,,,,4205.000000000,375.000000000,0.000000000
1782642352.707614,0.098414458,-0.068933487,0.000000000,,,
1782642352.717424,,,,4274.000000000,371.000000000,0.000000000
1782642352.717444,0.098366521,-0.068933487,0.000000000,,,
1782642352.727595,,,,4318.000000000,375.000000000,0.000000000
1782642352.727623,0.097263969,-0.068933487,0.000000000,,,
1782642352.737478,,,,4150.000000000,389.000000000,0.000000000
1782642352.737521,0.097311907,-0.068957329,0.000000000,,,
1782642352.747355,,,,3994.000000000,309.000000000,0.000000000
1782642352.747371,0.097383812,-0.068885326,0.000000000,,,
1782642352.757366,,,,4003.000000000,350.000000000,0.000000000
1782642352.757381,0.098702081,-0.068813324,0.000000000,,,
1782642352.767429,,,,4184.000000000,361.000000000,0.000000000
1782642352.767472,0.098821923,-0.069005013,0.000000000,,,
1782642352.777411,,,,4216.000000000,334.000000000,0.000000000
1782642352.777449,0.097599529,-0.069005013,0.000000000,,,
1782642352.787486,,,,4263.000000000,360.000000000,0.000000000
1782642352.787501,0.097575560,-0.068909168,0.000000000,,,
1782642352.797500,,,,4216.000000000,408.000000000,0.000000000
1782642352.797534,0.097623497,-0.068909168,0.000000000,,,
1782642352.807628,,,,4108.000000000,352.000000000,0.000000000
1782642352.807698,0.097743340,-0.068909168,0.000000000,,,
1782642352.817458,,,,4013.000000000,346.000000000,0.000000000
1782642352.817472,0.098917797,-0.068885326,0.000000000,,,
1782642352.827505,,,,4175.000000000,367.000000000,0.000000000
1782642352.827543,0.099037640,-0.068813324,0.000000000,,,
1782642352.837557,,,,4333.000000000,381.000000000,0.000000000
1782642352.837573,0.099181451,-0.068885326,0.000000000,,,
1782642352.847427,,,,4298.000000000,358.000000000,0.000000000
1782642352.847443,0.097935088,-0.068789482,0.000000000,,,
1782642352.857542,,,,4240.000000000,381.000000000,0.000000000
1782642352.857570,0.097935088,-0.068741322,0.000000000,,,
1782642352.867477,,,,4089.000000000,325.000000000,0.000000000
1782642352.867512,0.099085577,-0.068741322,0.000000000,,,
1782642352.877485,,,,4118.000000000,368.000000000,0.000000000
1782642352.877504,0.099205419,-0.068813324,0.000000000,,,
1782642352.887577,,,,4173.000000000,373.000000000,0.000000000
1782642352.887605,0.099325262,-0.068789482,0.000000000,,,
1782642352.897580,,,,4317.000000000,342.000000000,0.000000000
1782642352.897623,0.099421136,-0.068741322,0.000000000,,,
1782642352.907691,,,,4372.000000000,354.000000000,0.000000000
1782642352.907735,0.098486364,-0.068885326,0.000000000,,,
1782642352.917461,,,,4300.000000000,389.000000000,0.000000000
1782642352.917479,0.098414458,-0.068837166,0.000000000,,,
1782642352.927551,,,,4084.000000000,340.000000000,0.000000000
1782642352.927583,0.098414458,-0.068741322,0.000000000,,,
