phattanaratjeedjeen-sudo/wheel_loader/results/csv/final_offset.csv
__time,/vehicle/loader_joint_angles/data[0],/vehicle/loader_joint_angles/data[1],/vehicle/loader_joint_angles/layout/data_offset,/vehicle/loader_joint_pressures/data[0],/vehicle/loader_joint_pressures/data[1],/vehicle/loader_joint_pressures/layout/data_offset
1782819247.126851,,,,4103.000000000,371.000000000,0.000000000
1782819247.126881,0.007526094,-0.034514427,0.000000000,,,
1782819247.136773,,,,4049.000000000,302.000000000,0.000000000
1782819247.136792,0.007550062,-0.034490585,0.000000000,,,
1782819247.146814,,,,4161.000000000,402.000000000,0.000000000
1782819247.146824,0.007550062,-0.034490585,0.000000000,,,
1782819247.156823,,,,4165.000000000,414.000000000,0.000000000
1782819247.156845,0.007526094,-0.034466743,0.000000000,,,
1782819247.166738,,,,4155.000000000,418.000000000,0.000000000
1782819247.166754,0.007526094,-0.034538746,0.000000000,,,
1782819247.176805,,,,4134.000000000,376.000000000,0.000000000
1782819247.176831,0.007526094,-0.034538746,0.000000000,,,
1782819247.186763,,,,4114.000000000,403.000000000,0.000000000
1782819247.186774,0.007550062,-0.034514427,0.000000000,,,
1782819247.196758,,,,4123.000000000,387.000000000,0.000000000
1782819247.196771,0.007550062,-0.034490585,0.000000000,,,
1782819247.206606,,,,4118.000000000,360.000000000,0.000000000
1782819247.206619,0.007550062,-0.034490585,0.000000000,,,
1782819247.216575,,,,4155.000000000,403.000000000,0.000000000
1782819247.216588,0.007574030,-0.034514427,0.000000000,,,
1782819247.226626,,,,4058.000000000,315.000000000,0.000000000
1782819247.226639,0.007526094,-0.034514427,0.000000000,,,
1782819247.236659,,,,4073.000000000,325.000000000,0.000000000
1782819247.236673,0.007526094,-0.034514427,0.000000000,,,
1782819247.246687,,,,4111.000000000,364.000000000,0.000000000
1782819247.246700,0.007550062,-0.034490585,0.000000000,,,
1782819247.256582,,,,4138.000000000,399.000000000,0.000000000
1782819247.256601,0.007550062,-0.034490585,0.000000000,,,
1782819247.266599,,,,4141.000000000,392.000000000,0.000000000
1782819247.266613,0.007550062,-0.034490585,0.000000000,,,
1782819247.276659,,,,4142.000000000,404.000000000,0.000000000
1782819247.276671,0.007550062,-0.034514427,0.000000000,,,
1782819247.286540,,,,4175.000000000,411.000000000,0.000000000
1782819247.286553,0.007526094,-0.034514427,0.000000000,,,
1782819247.296721,,,,4145.000000000,393.000000000,0.000000000
1782819247.296735,0.007526094,-0.034514427,0.000000000,,,
1782819247.306705,,,,4146.000000000,399.000000000,0.000000000
1782819247.306717,0.007550062,-0.034514427,0.000000000,,,
1782819247.316523,,,,4115.000000000,389.000000000,0.000000000
1782819247.316536,0.007550062,-0.034514427,0.000000000,,,
1782819247.326637,,,,4139.000000000,400.000000000,0.000000000
1782819247.326651,0.007550062,-0.034538746,0.000000000,,,
1782819247.336674,,,,4100.000000000,368.000000000,0.000000000
1782819247.336687,0.007502125,-0.034514427,0.000000000,,,
1782819247.346585,,,,4107.000000000,367.000000000,0.000000000
1782819247.346596,0.007526094,-0.034514427,0.000000000,,,
1782819247.356644,,,,4151.000000000,389.000000000,0.000000000
1782819247.356656,0.007526094,-0.034514427,0.000000000,,,
1782819247.366625,,,,4131.000000000,392.000000000,0.000000000
1782819247.366637,0.007478157,-0.034514427,0.000000000,,,
1782819247.376566,,,,4123.000000000,395.000000000,0.000000000
1782819247.376579,0.007526094,-0.034514427,0.000000000,,,
1782819247.386493,,,,4157.000000000,399.000000000,0.000000000
1782819247.386511,0.007550062,-0.034514427,0.000000000,,,
1782819247.396523,,,,4107.000000000,361.000000000,0.000000000
1782819247.396535,0.007550062,-0.034490585,0.000000000,,,
1782819247.406613,,,,4111.000000000,380.000000000,0.000000000
1782819247.406625,0.007526094,-0.034514427,0.000000000,,,
1782819247.416548,,,,4135.000000000,383.000000000,0.000000000
1782819247.416561,0.007526094,-0.034538746,0.000000000,,,
1782819247.426541,,,,4162.000000000,434.000000000,0.000000000
1782819247.426553,0.007526094,-0.034514427,0.000000000,,,
1782819247.436519,,,,4139.000000000,395.000000000,0.000000000
1782819247.436532,0.007550062,-0.034490585,0.000000000,,,
1782819247.446486,,,,4146.000000000,364.000000000,0.000000000
1782819247.446497,0.007550062,-0.034490585,0.000000000,,,
1782819247.456531,,,,4132.000000000,395.000000000,0.000000000
1782819247.456544,0.007550062,-0.034490585,0.000000000,,,
1782819247.466466,,,,4149.000000000,381.000000000,0.000000000
1782819247.466476,0.007550062,-0.034514427,0.000000000,,,
1782819247.476559,,,,4139.000000000,400.000000000,0.000000000
1782819247.476570,0.007526094,-0.034514427,0.000000000,,,
1782819247.486475,,,,4114.000000000,367.000000000,0.000000000
1782819247.486486,0.007526094,-0.034514427,0.000000000,,,
1782819247.496488,,,,4165.000000000,404.000000000,0.000000000
1782819247.496500,0.007526094,-0.034514427,0.000000000,,,
1782819247.506525,,,,4153.000000000,383.000000000,0.000000000
1782819247.506537,0.007550062,-0.034490585,0.000000000,,,
1782819247.516609,0.007526094,-0.034514427,0.000000000,,,
1782819247.516641,,,,4139.000000000,387.000000000,0.000000000
1782819247.526513,,,,4147.000000000,410.000000000,0.000000000
1782819247.526526,0.007526094,-0.034514427,0.000000000,,,
1782819247.536433,,,,4134.000000000,396.000000000,0.000000000
1782819247.536445,0.007526094,-0.034514427,0.000000000,,,
1782819247.546511,,,,4162.000000000,418.000000000,0.000000000
1782819247.546527,0.007526094,-0.034538746,0.000000000,,,
1782819247.556663,,,,4181.000000000,416.000000000,0.000000000
1782819247.556691,0.007526094,-0.034466743,0.000000000,,,
1782819247.566510,,,,4107.000000000,376.000000000,0.000000000
1782819247.566524,0.007526094,-0.034490585,0.000000000,,,
1782819247.576763,,,,4130.000000000,402.000000000,0.000000000
1782819247.576776,0.007550062,-0.034490585,0.000000000,,,
1782819247.586609,,,,4143.000000000,371.000000000,0.000000000
1782819247.586623,0.007526094,-0.034514427,0.000000000,,,
1782819247.596616,,,,4136.000000000,402.000000000,0.000000000
1782819247.596626,0.007502125,-0.034514427,0.000000000,,,
1782819247.606709,,,,4193.000000000,418.000000000,0.000000000
1782819247.606730,0.007502125,-0.034514427,0.000000000,,,
1782819247.616565,0.007550062,-0.034490585,0.000000000,,,
1782819247.616574,,,,4175.000000000,391.000000000,0.000000000
1782819247.626791,,,,4167.000000000,431.000000000,0.000000000
1782819247.626802,0.007550062,-0.034466743,0.000000000,,,
1782819247.636654,,,,4151.000000000,396.000000000,0.000000000
1782819247.636673,0.007550062,-0.034538746,0.000000000,,,
1782819247.646625,,,,4165.000000000,369.000000000,0.000000000
1782819247.646638,0.007526094,-0.034514427,0.000000000,,,
1782819247.656605,,,,4159.000000000,411.000000000,0.000000000
1782819247.656619,0.007526094,-0.034514427,0.000000000,,,
1782819247.666656,,,,4123.000000000,363.000000000,0.000000000
1782819247.666671,0.007526094,-0.034466743,0.000000000,,,
1782819247.676777,,,,4104.000000000,384.000000000,0.000000000
1782819247.676805,0.007526094,-0.034490585,0.000000000,,,
1782819247.686847,,,,4157.000000000,420.000000000,0.000000000
1782819247.686894,0.007550062,-0.034442902,0.000000000,,,
1782819247.696815,,,,4147.000000000,392.000000000,0.000000000
1782819247.696836,0.007526094,-0.034538746,0.000000000,,,
1782819247.706785,,,,4100.000000000,369.000000000,0.000000000
1782819247.706799,0.007526094,-0.034514427,0.000000000,,,
1782819247.716716,,,,4134.000000000,402.000000000,0.000000000
1782819247.716728,0.007526094,-0.034514427,0.000000000,,,
1782819247.726766,,,,4155.000000000,396.000000000,0.000000000
1782819247.726778,0.007526094,-0.034466743,0.000000000,,,
1782819247.736818,,,,4143.000000000,391.000000000,0.000000000
1782819247.736835,0.007526094,-0.034490585,0.000000000,,,
1782819247.746842,,,,4124.000000000,404.000000000,0.000000000
1782819247.746871,0.007526094,-0.034538746,0.000000000,,,
1782819247.756879,,,,4103.000000000,332.000000000,0.000000000
1782819247.756927,0.007526094,-0.034538746,0.000000000,,,
1782819247.766605,,,,4166.000000000,419.000000000,0.000000000
1782819247.766619,0.007526094,-0.034538746,0.000000000,,,
1782819247.776815,,,,4042.000000000,305.000000000,0.000000000
1782819247.776835,0.007502125,-0.034466743,0.000000000,,,
1782819247.786634,,,,4155.000000000,399.000000000,0.000000000
1782819247.786648,0.007502125,-0.034466743,0.000000000,,,
1782819247.796765,,,,4068.000000000,333.000000000,0.000000000
1782819247.796777,0.007526094,-0.034466743,0.000000000,,,
1782819247.806725,,,,4141.000000000,369.000000000,0.000000000
1782819247.806737,0.007526094,-0.034514427,0.000000000,,,
1782819247.816643,,,,4120.000000000,383.000000000,0.000000000
1782819247.816657,0.007550062,-0.034514427,0.000000000,,,
1782819247.826705,,,,4091.000000000,349.000000000,0.000000000
1782819247.826718,0.007526094,-0.034490585,0.000000000,,,
1782819247.836676,,,,4161.000000000,399.000000000,0.000000000
1782819247.836692,0.007526094,-0.034466743,0.000000000,,,
1782819247.846745,,,,4128.000000000,373.000000000,0.000000000
1782819247.846758,0.007526094,-0.034466743,0.000000000,,,
1782819247.856818,,,,4141.000000000,403.000000000,0.000000000
1782819247.856865,0.007526094,-0.034538746,0.000000000,,,
1782819247.866628,,,,4155.000000000,396.000000000,0.000000000
1782819247.866647,0.007526094,-0.034538746,0.000000000,,,
1782819247.876707,,,,4185.000000000,426.000000000,0.000000000
1782819247.876728,0.007526094,-0.034514427,0.000000000,,,
1782819247.886690,,,,4130.000000000,361.000000000,0.000000000
1782819247.886702,0.007526094,-0.034466743,0.000000000,,,
1782819247.896601,,,,4138.000000000,403.000000000,0.000000000
1782819247.896613,0.007502125,-0.034466743,0.000000000,,,
1782819247.906672,,,,4179.000000000,414.000000000,0.000000000
1782819247.906684,0.007550062,-0.034490585,0.000000000,,,
1782819247.916531,,,,4146.000000000,385.000000000,0.000000000
1782819247.916543,0.007550062,-0.034514427,0.000000000,,,
1782819247.926608,,,,4159.000000000,383.000000000,0.000000000
1782819247.926619,0.007550062,-0.034538746,0.000000000,,,
1782819247.936580,,,,4169.000000000,408.000000000,0.000000000
1782819247.936592,0.007550062,-0.034466743,0.000000000,,,
1782819247.946466,,,,4122.000000000,369.000000000,0.000000000
1782819247.946479,0.007526094,-0.034466743,0.000000000,,,
1782819247.956475,,,,4136.000000000,402.000000000,0.000000000
1782819247.956486,0.007526094,-0.034466743,0.000000000,,,
1782819247.966432,,,,4138.000000000,414.000000000,0.000000000
1782819247.966444,0.007502125,-0.034538746,0.000000000,,,
1782819247.976667,,,,4154.000000000,414.000000000,0.000000000
1782819247.976679,0.007526094,-0.034514427,0.000000000,,,
1782819247.986640,,,,4058.000000000,334.000000000,0.000000000
1782819247.986663,0.007526094,-0.034514427,0.000000000,,,
1782819247.996553,,,,4141.000000000,371.000000000,0.000000000
1782819247.996566,0.007550062,-0.034490585,0.000000000,,,
1782819248.006586,,,,4128.000000000,387.000000000,0.000000000
1782819248.006599,0.007526094,-0.034466743,0.000000000,,,
1782819248.016520,,,,4154.000000000,407.000000000,0.000000000
1782819248.016534,0.007502125,-0.034466743,0.000000000,,,
1782819248.026616,,,,4147.000000000,414.000000000,0.000000000
1782819248.026628,0.007526094,-0.034490585,0.000000000,,,
1782819248.036644,,,,4147.000000000,392.000000000,0.000000000
1782819248.036657,0.007526094,-0.034514427,0.000000000,,,
1782819248.046818,,,,4124.000000000,393.000000000,0.000000000
1782819248.046830,0.007550062,-0.034490585,0.000000000,,,
1782819248.056483,,,,4102.000000000,358.000000000,0.000000000
1782819248.056496,0.007526094,-0.034490585,0.000000000,,,
1782819248.066634,,,,4124.000000000,384.000000000,0.000000000
1782819248.066646,0.007526094,-0.034466743,0.000000000,,,
1782819248.076645,,,,4147.000000000,384.000000000,0.000000000
1782819248.076657,0.007526094,-0.034514427,0.000000000,,,
1782819248.086566,,,,4174.000000000,428.000000000,0.000000000
1782819248.086578,0.007526094,-0.034538746,0.000000000,,,
1782819248.096587,,,,4026.000000000,310.000000000,0.000000000
1782819248.096601,0.007526094,-0.034538746,0.000000000,,,
1782819248.106497,,,,4124.000000000,389.000000000,0.000000000
1782819248.106512,0.007526094,-0.034490585,0.000000000,,,
1782819248.116524,,,,4163.000000000,400.000000000,0.000000000
1782819248.116547,0.007526094,-0.034490585,0.000000000,,,
1782819248.126550,,,,4145.000000000,395.000000000,0.000000000
1782819248.126573,0.007526094,-0.034514427,0.000000000,,,
1782819248.136625,,,,4159.000000000,410.000000000,0.000000000
1782819248.136660,0.007526094,-0.034514427,0.000000000,,,
1782819248.146651,,,,4127.000000000,358.000000000,0.000000000
1782819248.146679,0.007526094,-0.034538746,0.000000000,,,
1782819248.156748,,,,4147.000000000,375.000000000,0.000000000
1782819248.156793,0.007526094,-0.034490585,0.000000000,,,
1782819248.166781,,,,4165.000000000,424.000000000,0.000000000
1782819248.166844,0.007550062,-0.034490585,0.000000000,,,
1782819248.176890,,,,4111.000000000,379.000000000,0.000000000
1782819248.176983,0.007526094,-0.034466743,0.000000000,,,
1782819248.186886,,,,4184.000000000,457.000000000,0.000000000
1782819248.186965,0.007526094,-0.034514427,0.000000000,,,
1782819248.196705,,,,4083.000000000,338.000000000,0.000000000
1782819248.196755,0.007526094,-0.034538746,0.000000000,,,
1782819248.206572,,,,4081.000000000,328.000000000,0.000000000
1782819248.206619,0.007526094,-0.034538746,0.000000000,,,
1782819248.216880,,,,4157.000000000,380.000000000,0.000000000
1782819248.216972,0.007526094,-0.034514427,0.000000000,,,
1782819248.226656,,,,4124.000000000,376.000000000,0.000000000
1782819248.226703,0.007526094,-0.034514427,0.000000000,,,
1782819248.236705,,,,4111.000000000,381.000000000,0.000000000
1782819248.236753,0.007526094,-0.034514427,0.000000000,,,
1782819248.246786,,,,4112.000000000,383.000000000,0.000000000
1782819248.246848,0.007526094,-0.034514427,0.000000000,,,
1782819248.256718,,,,4104.000000000,363.000000000,0.000000000
1782819248.256768,0.007526094,-0.034538746,0.000000000,,,
1782819248.266751,,,,4202.000000000,442.000000000,0.000000000
1782819248.266809,0.007526094,-0.034514427,0.000000000,,,
1782819248.276626,,,,4130.000000000,383.000000000,0.000000000
1782819248.276688,0.007526094,-0.034490585,0.000000000,,,
1782819248.286710,,,,4149.000000000,424.000000000,0.000000000
1782819248.286763,0.007526094,-0.034514427,0.000000000,,,
1782819248.296914,,,,4174.000000000,395.000000000,0.000000000
1782819248.297010,0.007526094,-0.034490585,0.000000000,,,
1782819248.306768,,,,4107.000000000,350.000000000,0.000000000
1782819248.306839,0.007526094,-0.034514427,0.000000000,,,
1782819248.316818,,,,4128.000000000,397.000000000,0.000000000
1782819248.316881,0.007526094,-0.034514427,0.000000000,,,
1782819248.326824,,,,4139.000000000,380.000000000,0.000000000
1782819248.326899,0.007526094,-0.034514427,0.000000000,,,
1782819248.336620,,,,4111.000000000,389.000000000,0.000000000
1782819248.336663,0.007526094,-0.034514427,0.000000000,,,
1782819248.346856,,,,4112.000000000,361.000000000,0.000000000
1782819248.346934,0.007526094,-0.034514427,0.000000000,,,
1782819248.356721,,,,4178.000000000,423.000000000,0.000000000
1782819248.356798,0.007526094,-0.034490585,0.000000000,,,
1782819248.366696,,,,4127.000000000,404.000000000,0.000000000
1782819248.366745,0.007526094,-0.034514427,0.000000000,,,
1782819248.376819,,,,4157.000000000,395.000000000,0.000000000
1782819248.376888,0.007502125,-0.034538746,0.000000000,,,
1782819248.386774,,,,4127.000000000,384.000000000,0.000000000
1782819248.386831,0.007526094,-0.034538746,0.000000000,,,
1782819248.396873,,,,4124.000000000,412.000000000,0.000000000
1782819248.396952,0.007526094,-0.034514427,0.000000000,,,
1782819248.406673,,,,4103.000000000,356.000000000,0.000000000
1782819248.406721,0.007526094,-0.034514427,0.000000000,,,
1782819248.416732,,,,4115.000000000,375.000000000,0.000000000
1782819248.416811,0.007526094,-0.034490585,0.000000000,,,
1782819248.426732,,,,4118.000000000,360.000000000,0.000000000
1782819248.426796,0.007526094,-0.034514427,0.000000000,,,
1782819248.436766,,,,4175.000000000,400.000000000,0.000000000
1782819248.436838,0.007526094,-0.034514427,0.000000000,,,
1782819248.446726,,,,4124.000000000,396.000000000,0.000000000
1782819248.446775,0.007526094,-0.034514427,0.000000000,,,
1782819248.456869,,,,4122.000000000,369.000000000,0.000000000
1782819248.456935,0.007526094,-0.034538746,0.000000000,,,
1782819248.466660,,,,4099.000000000,364.000000000,0.000000000
1782819248.466708,0.007526094,-0.034466743,0.000000000,,,
1782819248.476762,,,,4178.000000000,426.000000000,0.000000000
1782819248.476832,0.007550062,-0.034490585,0.000000000,,,
1782819248.486818,,,,4122.000000000,356.000000000,0.000000000
1782819248.486885,0.007526094,-0.034490585,0.000000000,,,
1782819248.496619,,,,4189.000000000,435.000000000,0.000000000
1782819248.496667,0.007526094,-0.034538746,0.000000000,,,
1782819248.506485,,,,4126.000000000,357.000000000,0.000000000
1782819248.506527,0.007526094,-0.034514427,0.000000000,,,
1782819248.516447,,,,4080.000000000,322.000000000,0.000000000
1782819248.516494,0.007526094,-0.034490585,0.000000000,,,
1782819248.526553,,,,4111.000000000,375.000000000,0.000000000
1782819248.526603,0.007526094,-0.034490585,0.000000000,,,
1782819248.536489,,,,4171.000000000,426.000000000,0.000000000
1782819248.536531,0.007550062,-0.034490585,0.000000000,,,
1782819248.546657,,,,4135.000000000,376.000000000,0.000000000
1782819248.546716,0.007526094,-0.034514427,0.000000000,,,
1782819248.556521,,,,4115.000000000,369.000000000,0.000000000
1782819248.556570,0.007526094,-0.034538746,0.000000000,,,
1782819248.566526,,,,4149.000000000,420.000000000,0.000000000
1782819248.566588,0.007526094,-0.034538746,0.000000000,,,
1782819248.576541,,,,4146.000000000,395.000000000,0.000000000
1782819248.576582,0.007526094,-0.034490585,0.000000000,,,
1782819248.586681,,,,4150.000000000,397.000000000,0.000000000
1782819248.586746,0.007526094,-0.034490585,0.000000000,,,
1782819248.596535,,,,4143.000000000,399.000000000,0.000000000
1782819248.596580,0.007526094,-0.034490585,0.000000000,,,
1782819248.606567,,,,4182.000000000,447.000000000,0.000000000
1782819248.606616,0.007526094,-0.034538746,0.000000000,,,
1782819248.616506,,,,4150.000000000,399.000000000,0.000000000
1782819248.616556,0.007526094,-0.034538746,0.000000000,,,
1782819248.626554,,,,4122.000000000,375.000000000,0.000000000
1782819248.626596,0.007526094,-0.034538746,0.000000000,,,
1782819248.636642,,,,4128.000000000,373.000000000,0.000000000
1782819248.636680,0.007526094,-0.034466743,0.000000000,,,
1782819248.646476,,,,4145.000000000,383.000000000,0.000000000
1782819248.646520,0.007526094,-0.034490585,0.000000000,,,
1782819248.656501,,,,4146.000000000,404.000000000,0.000000000
1782819248.656549,0.007526094,-0.034538746,0.000000000,,,
1782819248.666517,,,,4154.000000000,400.000000000,0.000000000
1782819248.666560,0.007526094,-0.034538746,0.000000000,,,
1782819248.676522,,,,4122.000000000,388.000000000,0.000000000
1782819248.676565,0.007502125,-0.034514427,0.000000000,,,
1782819248.686662,,,,4150.000000000,399.000000000,0.000000000
1782819248.686725,0.007526094,-0.034466743,0.000000000,,,
1782819248.696626,,,,4155.000000000,415.000000000,0.000000000
1782819248.696663,0.007502125,-0.034466743,0.000000000,,,
1782819248.706692,,,,4158.000000000,410.000000000,0.000000000
1782819248.706732,0.007526094,-0.034466743,0.000000000,,,
1782819248.716665,,,,4171.000000000,408.000000000,0.000000000
1782819248.716706,0.007526094,-0.034538746,0.000000000,,,
1782819248.726828,,,,4069.000000000,338.000000000,0.000000000
1782819248.726925,0.007526094,-0.034538746,0.000000000,,,
1782819248.736721,,,,4165.000000000,406.000000000,0.000000000
1782819248.736767,0.007526094,-0.034466743,0.000000000,,,
1782819248.746779,,,,4159.000000000,389.000000000,0.000000000
1782819248.746822,0.007526094,-0.034466743,0.000000000,,,
1782819248.756664,,,,4099.000000000,353.000000000,0.000000000
1782819248.756709,0.007526094,-0.034466743,0.000000000,,,
1782819248.766639,,,,4135.000000000,399.000000000,0.000000000
1782819248.766679,0.007526094,-0.034538746,0.000000000,,,
1782819248.776984,,,,4124.000000000,373.000000000,0.000000000
1782819248.777067,0.007550062,-0.034538746,0.000000000,,,
1782819248.786699,,,,4135.000000000,395.000000000,0.000000000
1782819248.786739,0.007526094,-0.034538746,0.000000000,,,
1782819248.796669,,,,4150.000000000,393.000000000,0.000000000
1782819248.796707,0.007502125,-0.034466743,0.000000000,,,
1782819248.806753,,,,4159.000000000,410.000000000,0.000000000
1782819248.806794,0.007526094,-0.034466743,0.000000000,,,
1782819248.816646,,,,4116.000000000,383.000000000,0.000000000
1782819248.816685,0.007526094,-0.034466743,0.000000000,,,
1782819248.826794,,,,4110.000000000,361.000000000,0.000000000
1782819248.826847,0.007526094,-0.034514427,0.000000000,,,
1782819248.836567,,,,4081.000000000,338.000000000,0.000000000
1782819248.836605,0.007526094,-0.034514427,0.000000000,,,
1782819248.846689,,,,4110.000000000,373.000000000,0.000000000
1782819248.846729,0.007550062,-0.034490585,0.000000000,,,
1782819248.856794,,,,4141.000000000,389.000000000,0.000000000
1782819248.856839,0.007526094,-0.034490585,0.000000000,,,
1782819248.866774,,,,4159.000000000,410.000000000,0.000000000
1782819248.866827,0.007502125,-0.034466743,0.000000000,,,
1782819248.876855,,,,4108.000000000,369.000000000,0.000000000
1782819248.876895,0.007526094,-0.034538746,0.000000000,,,
1782819248.886763,,,,4157.000000000,423.000000000,0.000000000
1782819248.886815,0.007526094,-0.034538746,0.000000000,,,
1782819248.897040,,,,4107.000000000,367.000000000,0.000000000
1782819248.897134,0.007526094,-0.034562588,0.000000000,,,
1782819248.906822,,,,4189.000000000,419.000000000,0.000000000
1782819248.906883,0.007526094,-0.034490585,0.000000000,,,
1782819248.916623,0.007526094,-0.034490585,0.000000000,,,
1782819248.916659,,,,4118.000000000,356.000000000,0.000000000
1782819248.927004,,,,4169.000000000,422.000000000,0.000000000
1782819248.927028,0.007502125,-0.034490585,0.000000000,,,
1782819248.936721,,,,4118.000000000,361.000000000,0.000000000
1782819248.936786,0.007526094,-0.034538746,0.000000000,,,
1782819248.946691,,,,4096.000000000,334.000000000,0.000000000
1782819248.946724,0.007526094,-0.034538746,0.000000000,,,
1782819248.956655,,,,4099.000000000,350.000000000,0.000000000
1782819248.956706,0.007526094,-0.034490585,0.000000000,,,
1782819248.966508,,,,4085.000000000,372.000000000,0.000000000
1782819248.966532,0.007526094,-0.034466743,0.000000000,,,
1782819248.976644,,,,4155.000000000,420.000000000,0.000000000
1782819248.976683,0.007502125,-0.034442902,0.000000000,,,
1782819248.986631,,,,4158.000000000,389.000000000,0.000000000
1782819248.986683,0.007502125,-0.034514427,0.000000000,,,
1782819248.996707,,,,4128.000000000,411.000000000,0.000000000
1782819248.996757,0.007502125,-0.034538746,0.000000000,,,
1782819249.006714,,,,4149.000000000,372.000000000,0.000000000
1782819249.006760,0.007526094,-0.034514427,0.000000000,,,
1782819249.016573,,,,4099.000000000,357.000000000,0.000000000
1782819249.016608,0.007526094,-0.034490585,0.000000000,,,
1782819249.026717,,,,4146.000000000,391.000000000,0.000000000
1782819249.026757,0.007526094,-0.034466743,0.000000000,,,
1782819249.036532,,,,4141.000000000,416.000000000,0.000000000
1782819249.036559,0.007526094,-0.034514427,0.000000000,,,
1782819249.046703,,,,4076.000000000,348.000000000,0.000000000
1782819249.046779,0.007502125,-0.034538746,0.000000000,,,
1782819249.056566,,,,4076.000000000,341.000000000,0.000000000
1782819249.056595,0.007502125,-0.034538746,0.000000000,,,
1782819249.066550,,,,4124.000000000,372.000000000,0.000000000
1782819249.066596,0.007526094,-0.034538746,0.000000000,,,
1782819249.076735,,,,4112.000000000,391.000000000,0.000000000
1782819249.076802,0.007526094,-0.034490585,0.000000000,,,
1782819249.086583,,,,4163.000000000,423.000000000,0.000000000
1782819249.086619,0.007526094,-0.034490585,0.000000000,,,
1782819249.096596,,,,4132.000000000,381.000000000,0.000000000
1782819249.096629,0.007526094,-0.034514427,0.000000000,,,
1782819249.106685,,,,4132.000000000,420.000000000,0.000000000
1782819249.106736,0.007502125,-0.034538746,0.000000000,,,
1782819249.116725,,,,4128.000000000,416.000000000,0.000000000
1782819249.116771,0.007502125,-0.034538746,0.000000000,,,
1782819249.126744,,,,4159.000000000,420.000000000,0.000000000
1782819249.126794,0.007526094,-0.034514427,0.000000000,,,
1782819249.136765,,,,4165.000000000,415.000000000,0.000000000
1782819249.136814,0.007526094,-0.034490585,0.000000000,,,
1782819249.146820,,,,4157.000000000,431.000000000,0.000000000
1782819249.146882,0.007526094,-0.034490585,0.000000000,,,
1782819249.156592,,,,4151.000000000,430.000000000,0.000000000
1782819249.156647,0.007502125,-0.034490585,0.000000000,,,
1782819249.166656,,,,4072.000000000,349.000000000,0.000000000
1782819249.166698,0.007502125,-0.034514427,0.000000000,,,
1782819249.176739,,,,4126.000000000,367.000000000,0.000000000
1782819249.176788,0.007502125,-0.034514427,0.000000000,,,
1782819249.186808,,,,4146.000000000,404.000000000,0.000000000
1782819249.186874,0.007526094,-0.034514427,0.000000000,,,
1782819249.196844,,,,4147.000000000,403.000000000,0.000000000
1782819249.196929,0.007526094,-0.034490585,0.000000000,,,
1782819249.206739,,,,4080.000000000,349.000000000,0.000000000
1782819249.206838,0.007526094,-0.034514427,0.000000000,,,
1782819249.216641,,,,4139.000000000,377.000000000,0.000000000
1782819249.216704,0.007526094,-0.034514427,0.000000000,,,
1782819249.226745,,,,4194.000000000,435.000000000,0.000000000
1782819249.226814,0.007502125,-0.034538746,0.000000000,,,
1782819249.236592,,,,4124.000000000,387.000000000,0.000000000
1782819249.236655,0.007502125,-0.034514427,0.000000000,,,
1782819249.246607,,,,4145.000000000,411.000000000,0.000000000
1782819249.246669,0.007502125,-0.034514427,0.000000000,,,
1782819249.256675,,,,4154.000000000,403.000000000,0.000000000
1782819249.256736,0.007550062,-0.034490585,0.000000000,,,
1782819249.266905,,,,4128.000000000,369.000000000,0.000000000
1782819249.266954,0.007526094,-0.034514427,0.000000000,,,
1782819249.276660,,,,4056.000000000,326.000000000,0.000000000
1782819249.276710,0.007526094,-0.034514427,0.000000000,,,
1782819249.286613,,,,4136.000000000,403.000000000,0.000000000
1782819249.286676,0.007502125,-0.034514427,0.000000000,,,
1782819249.296667,,,,4154.000000000,415.000000000,0.000000000
1782819249.296711,0.007502125,-0.034514427,0.000000000,,,
1782819249.306732,,,,4123.000000000,367.000000000,0.000000000
1782819249.306800,0.007526094,-0.034514427,0.000000000,,,
1782819249.316598,,,,4166.000000000,408.000000000,0.000000000
1782819249.316662,0.007526094,-0.034466743,0.000000000,,,
1782819249.326588,,,,4142.000000000,376.000000000,0.000000000
1782819249.326659,0.007526094,-0.034490585,0.000000000,,,
1782819249.336519,,,,4163.000000000,435.000000000,0.000000000
1782819249.336588,0.007550062,-0.034490585,0.000000000,,,
1782819249.346547,,,,4145.000000000,392.000000000,0.000000000
1782819249.346598,0.007502125,-0.034514427,0.000000000,,,
1782819249.356534,,,,4194.000000000,430.000000000,0.000000000
1782819249.356584,0.007502125,-0.034514427,0.000000000,,,
1782819249.366842,,,,4149.000000000,411.000000000,0.000000000
1782819249.366930,0.007502125,-0.034514427,0.000000000,,,
1782819249.376712,,,,4083.000000000,358.000000000,0.000000000
1782819249.376756,0.007526094,-0.034490585,0.000000000,,,
1782819249.386718,,,,4099.000000000,364.000000000,0.000000000
1782819249.386777,0.007526094,-0.034490585,0.000000000,,,
1782819249.396714,,,,4135.000000000,418.000000000,0.000000000
1782819249.396802,0.007502125,-0.034514427,0.000000000,,,
1782819249.406634,,,,4139.000000000,395.000000000,0.000000000
1782819249.406698,0.007478157,-0.034538746,0.000000000,,,
1782819249.416544,,,,4157.000000000,379.000000000,0.000000000
1782819249.416588,0.007502125,-0.034538746,0.000000000,,,
1782819249.426645,,,,4197.000000000,434.000000000,0.000000000
1782819249.426710,0.007502125,-0.034538746,0.000000000,,,
1782819249.436794,,,,4111.000000000,354.000000000,0.000000000
1782819249.436863,0.007526094,-0.034514427,0.000000000,,,
1782819249.446631,,,,4123.000000000,367.000000000,0.000000000
1782819249.446677,0.007526094,-0.034490585,0.000000000,,,
1782819249.456537,,,,4184.000000000,439.000000000,0.000000000
1782819249.456585,0.007502125,-0.034538746,0.000000000,,,
1782819249.466545,,,,4159.000000000,406.000000000,0.000000000
1782819249.466599,0.007502125,-0.034538746,0.000000000,,,
1782819249.476607,,,,4165.000000000,424.000000000,0.000000000
1782819249.476657,0.007502125,-0.034538746,0.000000000,,,
1782819249.486458,,,,4099.000000000,357.000000000,0.000000000
1782819249.486502,0.007502125,-0.034466743,0.000000000,,,
1782819249.496609,,,,4174.000000000,407.000000000,0.000000000
1782819249.496661,0.007526094,-0.034466743,0.000000000,,,
1782819249.506591,,,,4124.000000000,368.000000000,0.000000000
1782819249.506647,0.007526094,-0.034490585,0.000000000,,,
1782819249.516488,,,,4146.000000000,369.000000000,0.000000000
1782819249.516534,0.007526094,-0.034514427,0.000000000,,,
1782819249.526830,,,,4161.000000000,412.000000000,0.000000000
1782819249.526917,0.007502125,-0.034514427,0.000000000,,,
1782819249.536726,,,,4162.000000000,419.000000000,0.000000000
1782819249.536782,0.007502125,-0.034514427,0.000000000,,,
1782819249.546614,,,,4118.000000000,377.000000000,0.000000000
1782819249.546668,0.007502125,-0.034466743,0.000000000,,,
1782819249.556684,,,,4126.000000000,392.000000000,0.000000000
1782819249.556741,0.007574030,-0.034466743,0.000000000,,,
1782819249.566778,,,,4110.000000000,380.000000000,0.000000000
1782819249.566852,0.007526094,-0.034562588,0.000000000,,,
1782819249.576642,,,,4134.000000000,393.000000000,0.000000000
1782819249.576678,0.007502125,-0.034538746,0.000000000,,,
1782819249.586712,,,,4075.000000000,342.000000000,0.000000000
1782819249.586773,0.007502125,-0.034538746,0.000000000,,,
1782819249.596732,,,,4100.000000000,360.000000000,0.000000000
1782819249.596792,0.007502125,-0.034490585,0.000000000,,,
1782819249.606870,,,,4132.000000000,391.000000000,0.000000000
1782819249.606943,0.007502125,-0.034490585,0.000000000,,,
1782819249.616540,,,,4135.000000000,391.000000000,0.000000000
1782819249.616578,0.007526094,-0.034490585,0.000000000,,,
1782819249.626784,,,,4130.000000000,399.000000000,0.000000000
1782819249.626851,0.007526094,-0.034538746,0.000000000,,,
1782819249.636559,,,,4097.000000000,368.000000000,0.000000000
1782819249.636605,0.007526094,-0.034538746,0.000000000,,,
1782819249.646553,,,,4153.000000000,400.000000000,0.000000000
1782819249.646594,0.007502125,-0.034442902,0.000000000,,,
1782819249.656613,,,,4118.000000000,397.000000000,0.000000000
1782819249.656661,0.007502125,-0.034466743,0.000000000,,,
1782819249.666668,,,,4157.000000000,407.000000000,0.000000000
1782819249.666729,0.007502125,-0.034466743,0.000000000,,,
1782819249.676778,,,,4110.000000000,372.000000000,0.000000000
1782819249.676859,0.007550062,-0.034514427,0.000000000,,,
1782819249.686783,,,,4179.000000000,403.000000000,0.000000000
1782819249.686870,0.007526094,-0.034514427,0.000000000,,,
1782819249.696599,,,,4153.000000000,383.000000000,0.000000000
1782819249.696651,0.007526094,-0.034514427,0.000000000,,,
1782819249.706605,,,,4124.000000000,377.000000000,0.000000000
1782819249.706641,0.007502125,-0.034466743,0.000000000,,,
1782819249.716619,,,,4173.000000000,418.000000000,0.000000000
1782819249.716684,0.007526094,-0.034466743,0.000000000,,,
1782819249.726828,,,,4054.000000000,333.000000000,0.000000000
1782819249.726910,0.007502125,-0.034418583,0.000000000,,,
1782819249.736574,,,,4165.000000000,404.000000000,0.000000000
1782819249.736635,0.007526094,-0.034538746,0.000000000,,,
1782819249.746640,,,,4124.000000000,385.000000000,0.000000000
1782819249.746683,0.007526094,-0.034538746,0.000000000,,,
1782819249.756787,,,,4162.000000000,415.000000000,0.000000000
1782819249.756864,0.007550062,-0.034490585,0.000000000,,,
1782819249.766828,,,,4159.000000000,402.000000000,0.000000000
1782819249.766912,0.007502125,-0.034490585,0.000000000,,,
1782819249.776784,,,,4118.000000000,391.000000000,0.000000000
1782819249.776851,0.007502125,-0.034490585,0.000000000,,,
1782819249.786641,,,,4151.000000000,369.000000000,0.000000000
1782819249.786679,0.007502125,-0.034562588,0.000000000,,,
1782819249.796829,,,,4141.000000000,380.000000000,0.000000000
1782819249.796930,0.007526094,-0.034562588,0.000000000,,,
1782819249.806879,,,,4050.000000000,299.000000000,0.000000000
1782819249.806966,0.007526094,-0.034562588,0.000000000,,,
1782819249.816750,,,,4099.000000000,372.000000000,0.000000000
1782819249.816833,0.007502125,-0.034490585,0.000000000,,,
1782819249.826656,,,,4177.000000000,375.000000000,0.000000000
1782819249.826721,0.007502125,-0.034466743,0.000000000,,,
1782819249.836678,,,,4138.000000000,408.000000000,0.000000000
1782819249.836751,0.007502125,-0.034466743,0.000000000,,,
1782819249.846743,,,,4169.000000000,414.000000000,0.000000000
1782819249.846811,0.007502125,-0.034514427,0.000000000,,,
1782819249.856990,,,,4170.000000000,420.000000000,0.000000000
1782819249.857078,0.007526094,-0.034538746,0.000000000,,,
1782819249.866471,,,,4178.000000000,410.000000000,0.000000000
1782819249.866525,0.007526094,-0.034490585,0.000000000,,,
1782819249.876808,,,,4158.000000000,423.000000000,0.000000000
1782819249.876888,0.007526094,-0.034466743,0.000000000,,,
1782819249.886684,,,,4107.000000000,368.000000000,0.000000000
1782819249.886750,0.007502125,-0.034466743,0.000000000,,,
1782819249.896818,,,,4111.000000000,396.000000000,0.000000000
1782819249.896881,0.007502125,-0.034538746,0.000000000,,,
1782819249.906603,,,,4157.000000000,443.000000000,0.000000000
1782819249.906656,0.007502125,-0.034538746,0.000000000,,,
1782819249.916627,,,,4081.000000000,346.000000000,0.000000000
1782819249.916692,0.007526094,-0.034538746,0.000000000,,,
1782819249.926731,,,,4147.000000000,383.000000000,0.000000000
1782819249.926819,0.007526094,-0.034490585,0.000000000,,,
1782819249.936655,,,,4138.000000000,400.000000000,0.000000000
1782819249.936709,0.007526094,-0.034490585,0.000000000,,,
1782819249.946566,,,,4138.000000000,375.000000000,0.000000000
1782819249.946616,0.007478157,-0.034538746,0.000000000,,,
1782819249.956789,,,,4127.000000000,389.000000000,0.000000000
1782819249.956851,0.007502125,-0.034538746,0.000000000,,,
1782819249.966549,,,,4112.000000000,381.000000000,0.000000000
1782819249.966603,0.007550062,-0.034538746,0.000000000,,,
1782819249.976686,,,,4147.000000000,418.000000000,0.000000000
1782819249.976728,0.007574030,-0.034490585,0.000000000,,,
1782819249.986782,,,,4146.000000000,416.000000000,0.000000000
1782819249.986842,0.007526094,-0.034490585,0.000000000,,,
1782819249.996621,,,,4124.000000000,418.000000000,0.000000000
1782819249.996671,0.007526094,-0.034490585,0.000000000,,,
1782819250.006609,,,,4155.000000000,416.000000000,0.000000000
1782819250.006649,0.007502125,-0.034514427,0.000000000,,,
1782819250.016732,,,,4132.000000000,364.000000000,0.000000000
1782819250.016786,0.007502125,-0.034514427,0.000000000,,,
1782819250.026616,,,,4147.000000000,397.000000000,0.000000000
1782819250.026678,0.007502125,-0.034514427,0.000000000,,,
1782819250.036564,,,,4119.000000000,356.000000000,0.000000000
1782819250.036608,0.007526094,-0.034514427,0.000000000,,,
1782819250.046618,,,,4142.000000000,372.000000000,0.000000000
1782819250.046652,0.007526094,-0.034490585,0.000000000,,,
1782819250.056635,,,,4114.000000000,392.000000000,0.000000000
1782819250.056686,0.007526094,-0.034514427,0.000000000,,,
1782819250.066727,,,,4130.000000000,380.000000000,0.000000000
1782819250.066801,0.007478157,-0.034490585,0.000000000,,,
1782819250.076746,,,,4146.000000000,410.000000000,0.000000000
1782819250.076808,0.007502125,-0.034514427,0.000000000,,,
1782819250.086758,,,,4150.000000000,393.000000000,0.000000000
1782819250.086814,0.007478157,-0.034538746,0.000000000,,,
1782819250.096755,,,,4165.000000000,399.000000000,0.000000000
1782819250.096800,0.007526094,-0.034514427,0.000000000,,,
1782819250.106795,,,,4178.000000000,442.000000000,0.000000000
1782819250.106872,0.007526094,-0.034490585,0.000000000,,,
1782819250.116515,,,,4193.000000000,447.000000000,0.000000000
1782819250.116562,0.007526094,-0.034514427,0.000000000,,,
1782819250.126561,,,,4106.000000000,367.000000000,0.000000000
1782819250.126615,0.007502125,-0.034538746,0.000000000,,,
1782819250.136791,,,,4063.000000000,302.000000000,0.000000000
1782819250.136853,0.007502125,-0.034538746,0.000000000,,,
1782819250.146893,,,,4107.000000000,383.000000000,0.000000000
1782819250.146943,0.007526094,-0.034538746,0.000000000,,,
1782819250.156583,,,,4120.000000000,397.000000000,0.000000000
1782819250.156617,0.007526094,-0.034514427,0.000000000,,,
1782819250.166709,,,,4126.000000000,371.000000000,0.000000000
1782819250.166767,0.007526094,-0.034466743,0.000000000,,,
1782819250.176592,,,,4130.000000000,392.000000000,0.000000000
1782819250.176639,0.007526094,-0.034490585,0.000000000,,,
1782819250.186714,,,,4134.000000000,418.000000000,0.000000000
1782819250.186775,0.007502125,-0.034514427,0.000000000,,,
1782819250.196543,,,,4102.000000000,364.000000000,0.000000000
1782819250.196593,0.007502125,-0.034514427,0.000000000,,,
1782819250.206598,,,,4120.000000000,395.000000000,0.000000000
1782819250.206634,0.007502125,-0.034514427,0.000000000,,,
1782819250.216518,,,,4135.000000000,384.000000000,0.000000000
1782819250.216547,0.007526094,-0.034514427,0.000000000,,,
1782819250.226626,,,,4083.000000000,330.000000000,0.000000000
1782819250.226682,0.007526094,-0.034490585,0.000000000,,,
1782819250.236817,,,,4100.000000000,358.000000000,0.000000000
1782819250.236882,0.007526094,-0.034490585,0.000000000,,,
1782819250.246527,,,,4131.000000000,375.000000000,0.000000000
1782819250.246577,0.007478157,-0.034562588,0.000000000,,,
1782819250.256605,,,,4146.000000000,391.000000000,0.000000000
1782819250.256645,0.007502125,-0.034538746,0.000000000,,,
1782819250.266572,,,,4139.000000000,383.000000000,0.000000000
1782819250.266651,0.007502125,-0.034538746,0.000000000,,,
1782819250.276754,,,,4095.000000000,357.000000000,0.000000000
1782819250.276834,0.007550062,-0.034490585,0.000000000,,,
1782819250.286616,,,,4143.000000000,407.000000000,0.000000000
1782819250.286666,0.007526094,-0.034514427,0.000000000,,,
1782819250.296491,,,,4150.000000000,416.000000000,0.000000000
1782819250.296538,0.007526094,-0.034514427,0.000000000,,,
1782819250.306558,,,,4120.000000000,391.000000000,0.000000000
1782819250.306604,0.007478157,-0.034538746,0.000000000,,,
1782819250.316722,,,,4142.000000000,404.000000000,0.000000000
1782819250.316774,0.007478157,-0.034538746,0.000000000,,,
1782819250.326647,,,,4170.000000000,410.000000000,0.000000000
1782819250.326693,0.007502125,-0.034562588,0.000000000,,,
1782819250.336655,,,,4159.000000000,424.000000000,0.000000000
1782819250.336721,0.007526094,-0.034466743,0.000000000,,,
1782819250.346481,,,,4130.000000000,400.000000000,0.000000000
1782819250.346526,0.007526094,-0.034466743,0.000000000,,,
1782819250.356597,,,,4161.000000000,419.000000000,0.000000000
1782819250.356646,0.007526094,-0.034466743,0.000000000,,,
1782819250.366558,,,,4118.000000000,368.000000000,0.000000000
1782819250.366604,0.007478157,-0.034514427,0.000000000,,,
1782819250.376641,,,,4151.000000000,400.000000000,0.000000000
1782819250.376693,0.007502125,-0.034514427,0.000000000,,,
1782819250.386745,,,,4166.000000000,406.000000000,0.000000000
1782819250.386819,0.007502125,-0.034538746,0.000000000,,,
1782819250.396637,,,,4126.000000000,383.000000000,0.000000000
1782819250.396687,0.007526094,-0.034466743,0.000000000,,,
1782819250.406723,,,,4132.000000000,399.000000000,0.000000000
1782819250.406790,0.007550062,-0.034514427,0.000000000,,,
1782819250.416775,,,,4154.000000000,383.000000000,0.000000000
1782819250.416840,0.007526094,-0.034466743,0.000000000,,,
1782819250.426681,,,,4189.000000000,411.000000000,0.000000000
1782819250.426740,0.007454188,-0.034538746,0.000000000,,,
1782819250.436760,,,,4162.000000000,418.000000000,0.000000000
1782819250.436828,0.007478157,-0.034538746,0.000000000,,,
1782819250.446675,,,,4075.000000000,338.000000000,0.000000000
1782819250.446733,0.007502125,-0.034538746,0.000000000,,,
1782819250.456814,,,,4131.000000000,376.000000000,0.000000000
1782819250.456896,0.007526094,-0.034466743,0.000000000,,,
1782819250.467224,,,,4092.000000000,365.000000000,0.000000000
1782819250.467326,0.007526094,-0.034490585,0.000000000,,,
1782819250.477157,,,,4141.000000000,368.000000000,0.000000000
1782819250.477206,0.007526094,-0.034562588,0.000000000,,,
1782819250.487243,,,,4141.000000000,389.000000000,0.000000000
1782819250.487348,0.007478157,-0.034538746,0.000000000,,,
1782819250.497282,,,,4135.000000000,391.000000000,0.000000000
1782819250.497384,0.007478157,-0.034562588,0.000000000,,,
1782819250.507174,,,,4079.000000000,356.000000000,0.000000000
1782819250.507241,0.007526094,-0.034466743,0.000000000,,,
1782819250.517132,,,,4162.000000000,407.000000000,0.000000000
1782819250.517190,0.007526094,-0.034466743,0.000000000,,,
1782819250.527091,,,,4165.000000000,399.000000000,0.000000000
1782819250.527139,0.007526094,-0.034466743,0.000000000,,,
1782819250.537172,,,,4106.000000000,365.000000000,0.000000000
1782819250.537256,0.007526094,-0.034514427,0.000000000,,,
1782819250.547154,,,,4127.000000000,376.000000000,0.000000000
1782819250.547208,0.007478157,-0.034514427,0.000000000,,,
1782819250.557093,,,,4102.000000000,376.000000000,0.000000000
1782819250.557143,0.007478157,-0.034466743,0.000000000,,,
1782819250.567425,,,,4128.000000000,408.000000000,0.000000000
1782819250.567489,0.007502125,-0.034442902,0.000000000,,,
1782819250.577218,,,,4122.000000000,381.000000000,0.000000000
1782819250.577310,0.007550062,-0.034442902,0.000000000,,,
1782819250.587182,,,,4135.000000000,383.000000000,0.000000000
1782819250.587244,0.007526094,-0.034538746,0.000000000,,,
1782819250.597115,,,,4171.000000000,431.000000000,0.000000000
1782819250.597165,0.007526094,-0.034538746,0.000000000,,,
1782819250.607248,,,,4128.000000000,367.000000000,0.000000000
1782819250.607349,0.007478157,-0.034562588,0.000000000,,,
1782819250.617213,,,,4155.000000000,414.000000000,0.000000000
1782819250.617318,0.007478157,-0.034490585,0.000000000,,,
1782819250.627332,,,,4151.000000000,432.000000000,0.000000000
1782819250.627423,0.007502125,-0.034490585,0.000000000,,,
1782819250.637265,,,,4178.000000000,430.000000000,0.000000000
1782819250.637350,0.007526094,-0.034490585,0.000000000,,,
1782819250.647270,,,,4093.000000000,349.000000000,0.000000000
1782819250.647374,0.007526094,-0.034562588,0.000000000,,,
1782819250.657123,,,,4053.000000000,322.000000000,0.000000000
1782819250.657188,0.007526094,-0.034538746,0.000000000,,,
1782819250.667197,,,,4149.000000000,388.000000000,0.000000000
1782819250.667283,0.007478157,-0.034466743,0.000000000,,,
1782819250.677129,,,,4111.000000000,387.000000000,0.000000000
1782819250.677186,0.007478157,-0.034514427,0.000000000,,,
1782819250.687306,,,,4157.000000000,412.000000000,0.000000000
1782819250.687384,0.007502125,-0.034466743,0.000000000,,,
1782819250.697325,,,,4153.000000000,399.000000000,0.000000000
1782819250.697412,0.007526094,-0.034538746,0.000000000,,,
1782819250.707172,,,,4162.000000000,385.000000000,0.000000000
1782819250.707266,0.007526094,-0.034514427,0.000000000,,,
1782819250.717218,,,,4126.000000000,383.000000000,0.000000000
1782819250.717309,0.007526094,-0.034514427,0.000000000,,,
1782819250.727338,,,,4159.000000000,414.000000000,0.000000000
1782819250.727427,0.007478157,-0.034466743,0.000000000,,,
1782819250.737261,,,,4157.000000000,404.000000000,0.000000000
1782819250.737377,0.007478157,-0.034442902,0.000000000,,,
1782819250.747208,,,,4139.000000000,418.000000000,0.000000000
1782819250.747306,0.007478157,-0.034466743,0.000000000,,,
1782819250.757170,,,,4150.000000000,393.000000000,0.000000000
1782819250.757250,0.007526094,-0.034538746,0.000000000,,,
1782819250.767273,,,,4104.000000000,379.000000000,0.000000000
1782819250.767400,0.007526094,-0.034538746,0.000000000,,,
1782819250.777261,,,,4130.000000000,369.000000000,0.000000000
1782819250.777360,0.007526094,-0.034514427,0.000000000,,,
1782819250.787182,,,,4153.000000000,416.000000000,0.000000000
1782819250.787263,0.007478157,-0.034490585,0.000000000,,,
1782819250.797212,,,,4127.000000000,372.000000000,0.000000000
1782819250.797316,0.007478157,-0.034466743,0.000000000,,,
1782819250.807149,,,,4138.000000000,393.000000000,0.000000000
1782819250.807216,0.007478157,-0.034538746,0.000000000,,,
1782819250.817146,,,,4178.000000000,419.000000000,0.000000000
1782819250.817196,0.007550062,-0.034538746,0.000000000,,,
1782819250.827122,,,,4171.000000000,419.000000000,0.000000000
1782819250.827171,0.007574030,-0.034562588,0.000000000,,,
1782819250.837369,,,,4119.000000000,373.000000000,0.000000000
1782819250.837461,0.007526094,-0.034490585,0.000000000,,,
1782819250.847193,,,,4154.000000000,387.000000000,0.000000000
1782819250.847254,0.007478157,-0.034490585,0.000000000,,,
1782819250.857355,,,,4096.000000000,364.000000000,0.000000000
1782819250.857441,0.007478157,-0.034514427,0.000000000,,,
1782819250.867059,,,,4122.000000000,342.000000000,0.000000000
1782819250.867126,0.007502125,-0.034514427,0.000000000,,,
1782819250.877360,,,,4111.000000000,365.000000000,0.000000000
1782819250.877408,0.007502125,-0.034538746,0.000000000,,,
1782819250.887089,,,,4162.000000000,404.000000000,0.000000000
1782819250.887141,0.007526094,-0.034514427,0.000000000,,,
1782819250.897093,,,,4128.000000000,403.000000000,0.000000000
1782819250.897124,0.007526094,-0.034490585,0.000000000,,,
1782819250.907150,,,,4170.000000000,426.000000000,0.000000000
1782819250.907191,0.007478157,-0.034466743,0.000000000,,,
1782819250.916951,,,,4162.000000000,418.000000000,0.000000000
1782819250.917006,0.007502125,-0.034514427,0.000000000,,,
1782819250.926954,,,,4178.000000000,410.000000000,0.000000000
1782819250.926980,0.007502125,-0.034514427,0.000000000,,,
1782819250.937047,,,,4193.000000000,463.000000000,0.000000000
1782819250.937082,0.007550062,-0.034514427,0.000000000,,,
1782819250.947054,,,,4173.000000000,414.000000000,0.000000000
1782819250.947101,0.007574030,-0.034538746,0.000000000,,,
1782819250.957068,,,,4169.000000000,424.000000000,0.000000000
1782819250.957128,0.007526094,-0.034514427,0.000000000,,,
1782819250.966983,,,,4204.000000000,445.000000000,0.000000000
1782819250.967036,0.007478157,-0.034538746,0.000000000,,,
1782819250.977154,,,,4128.000000000,384.000000000,0.000000000
1782819250.977215,0.007478157,-0.034538746,0.000000000,,,
1782819250.987091,,,,4083.000000000,337.000000000,0.000000000
1782819250.987152,0.007502125,-0.034538746,0.000000000,,,
1782819250.997209,,,,4151.000000000,410.000000000,0.000000000
1782819250.997274,0.007526094,-0.034538746,0.000000000,,,
1782819251.007117,,,,4130.000000000,403.000000000,0.000000000
1782819251.007177,0.007550062,-0.034538746,0.000000000,,,
1782819251.017052,,,,4132.000000000,384.000000000,0.000000000
1782819251.017120,0.007526094,-0.034514427,0.000000000,,,
1782819251.027013,,,,4097.000000000,352.000000000,0.000000000
1782819251.027078,0.007502125,-0.034490585,0.000000000,,,
1782819251.037032,,,,4159.000000000,379.000000000,0.000000000
1782819251.037102,0.007478157,-0.034490585,0.000000000,,,
1782819251.047095,,,,4130.000000000,392.000000000,0.000000000
1782819251.047153,0.007502125,-0.034514427,0.000000000,,,
1782819251.057054,,,,4135.000000000,376.000000000,0.000000000
1782819251.057125,0.007526094,-0.034514427,0.000000000,,,
1782819251.067163,,,,4165.000000000,420.000000000,0.000000000
1782819251.067226,0.007526094,-0.034514427,0.000000000,,,
1782819251.077178,,,,4196.000000000,424.000000000,0.000000000
1782819251.077249,0.007526094,-0.034490585,0.000000000,,,
1782819251.087174,,,,4134.000000000,373.000000000,0.000000000
1782819251.087234,0.007454188,-0.034490585,0.000000000,,,
1782819251.097082,,,,4112.000000000,369.000000000,0.000000000
1782819251.097139,0.007478157,-0.034490585,0.000000000,,,
1782819251.107041,,,,4130.000000000,395.000000000,0.000000000
1782819251.107105,0.007502125,-0.034562588,0.000000000,,,
1782819251.117224,,,,4095.000000000,358.000000000,0.000000000
1782819251.117331,0.007502125,-0.034538746,0.000000000,,,
1782819251.127026,,,,4123.000000000,376.000000000,0.000000000
1782819251.127076,0.007526094,-0.034538746,0.000000000,,,
1782819251.136962,,,,4150.000000000,393.000000000,0.000000000
1782819251.137013,0.007526094,-0.034514427,0.000000000,,,
1782819251.146965,,,,4139.000000000,381.000000000,0.000000000
1782819251.147013,0.007478157,-0.034514427,0.000000000,,,
1782819251.157074,,,,4138.000000000,383.000000000,0.000000000
1782819251.157128,0.007478157,-0.034538746,0.000000000,,,
1782819251.166928,,,,4147.000000000,400.000000000,0.000000000
1782819251.166978,0.007478157,-0.034538746,0.000000000,,,
1782819251.176919,,,,4138.000000000,389.000000000,0.000000000
1782819251.176963,0.007526094,-0.034538746,0.000000000,,,
1782819251.186858,,,,4080.000000000,361.000000000,0.000000000
1782819251.186903,0.007526094,-0.034466743,0.000000000,,,
1782819251.196929,,,,4110.000000000,358.000000000,0.000000000
1782819251.196970,0.007502125,-0.034466743,0.000000000,,,
1782819251.207048,,,,4136.000000000,385.000000000,0.000000000
1782819251.207111,0.007478157,-0.034490585,0.000000000,,,
1782819251.217153,,,,4123.000000000,395.000000000,0.000000000
1782819251.217198,0.007478157,-0.034514427,0.000000000,,,
1782819251.226990,,,,4155.000000000,399.000000000,0.000000000
1782819251.227055,0.007478157,-0.034514427,0.000000000,,,
1782819251.236986,,,,4139.000000000,410.000000000,0.000000000
1782819251.237026,0.007526094,-0.034514427,0.000000000,,,
1782819251.247056,,,,4142.000000000,395.000000000,0.000000000
1782819251.247113,0.007526094,-0.034466743,0.000000000,,,
1782819251.257082,,,,4169.000000000,410.000000000,0.000000000
1782819251.257142,0.007526094,-0.034466743,0.000000000,,,
1782819251.266939,,,,4135.000000000,396.000000000,0.000000000
1782819251.266987,0.007478157,-0.034538746,0.000000000,,,
1782819251.277008,,,,4165.000000000,399.000000000,0.000000000
1782819251.277073,0.007454188,-0.034538746,0.000000000,,,
1782819251.286956,,,,4182.000000000,450.000000000,0.000000000
1782819251.286998,0.007478157,-0.034538746,0.000000000,,,
1782819251.297006,,,,4135.000000000,411.000000000,0.000000000
1782819251.297051,0.007526094,-0.034490585,0.000000000,,,
1782819251.307047,,,,4163.000000000,406.000000000,0.000000000
1782819251.307103,0.007526094,-0.034514427,0.000000000,,,
1782819251.316970,,,,4142.000000000,383.000000000,0.000000000
1782819251.317021,0.007526094,-0.034514427,0.000000000,,,
1782819251.326947,,,,4177.000000000,392.000000000,0.000000000
1782819251.326989,0.007478157,-0.034562588,0.000000000,,,
1782819251.337097,,,,4163.000000000,393.000000000,0.000000000
1782819251.337157,0.007478157,-0.034562588,0.000000000,,,
1782819251.346993,,,,4103.000000000,389.000000000,0.000000000
1782819251.347061,0.007478157,-0.034562588,0.000000000,,,
1782819251.357017,,,,4136.000000000,410.000000000,0.000000000
1782819251.357073,0.007526094,-0.034562588,0.000000000,,,
1782819251.367029,,,,4154.000000000,396.000000000,0.000000000
1782819251.367079,0.007526094,-0.034466743,0.000000000,,,
1782819251.377138,,,,4151.000000000,411.000000000,0.000000000
1782819251.377202,0.007526094,-0.034466743,0.000000000,,,
1782819251.386896,,,,4142.000000000,387.000000000,0.000000000
1782819251.386939,0.007478157,-0.034538746,0.000000000,,,
1782819251.397020,,,,4139.000000000,381.000000000,0.000000000
1782819251.397070,0.007478157,-0.034538746,0.000000000,,,
1782819251.407348,,,,4092.000000000,356.000000000,0.000000000
1782819251.407415,0.007478157,-0.034514427,0.000000000,,,
1782819251.416888,,,,4054.000000000,302.000000000,0.000000000
1782819251.416922,0.007526094,-0.034466743,0.000000000,,,
1782819251.427096,,,,4122.000000000,375.000000000,0.000000000
1782819251.427182,0.007526094,-0.034466743,0.000000000,,,
1782819251.436932,,,,4130.000000000,373.000000000,0.000000000
1782819251.436990,0.007550062,-0.034466743,0.000000000,,,
1782819251.446863,,,,4154.000000000,423.000000000,0.000000000
1782819251.446894,0.007478157,-0.034538746,0.000000000,,,
1782819251.456857,,,,4146.000000000,385.000000000,0.000000000
1782819251.456888,0.007478157,-0.034538746,0.000000000,,,
1782819251.466828,,,,4107.000000000,414.000000000,0.000000000
1782819251.466855,0.007478157,-0.034490585,0.000000000,,,
1782819251.476947,,,,4154.000000000,399.000000000,0.000000000
1782819251.477008,0.007526094,-0.034490585,0.000000000,,,
1782819251.487049,,,,4114.000000000,361.000000000,0.000000000
1782819251.487116,0.007526094,-0.034490585,0.000000000,,,
1782819251.496933,,,,4084.000000000,344.000000000,0.000000000
1782819251.496970,0.007526094,-0.034538746,0.000000000,,,
1782819251.506801,,,,4110.000000000,369.000000000,0.000000000
1782819251.506835,0.007478157,-0.034538746,0.000000000,,,
1782819251.516918,,,,4157.000000000,404.000000000,0.000000000
1782819251.516972,0.007478157,-0.034562588,0.000000000,,,
1782819251.527111,,,,4142.000000000,410.000000000,0.000000000
1782819251.527171,0.007478157,-0.034466743,0.000000000,,,
1782819251.536918,,,,4108.000000000,371.000000000,0.000000000
1782819251.536985,0.007526094,-0.034466743,0.000000000,,,
1782819251.546967,,,,4170.000000000,414.000000000,0.000000000
1782819251.547012,0.007526094,-0.034466743,0.000000000,,,
1782819251.557018,,,,4124.000000000,380.000000000,0.000000000
1782819251.557082,0.007526094,-0.034538746,0.000000000,,,
1782819251.567008,,,,4120.000000000,391.000000000,0.000000000
1782819251.567102,0.007478157,-0.034538746,0.000000000,,,
1782819251.577023,,,,4127.000000000,399.000000000,0.000000000
1782819251.577106,0.007478157,-0.034466743,0.000000000,,,
1782819251.587027,,,,4092.000000000,392.000000000,0.000000000
1782819251.587100,0.007478157,-0.034466743,0.000000000,,,
1782819251.597103,,,,4186.000000000,430.000000000,0.000000000
1782819251.597188,0.007526094,-0.034442902,0.000000000,,,
1782819251.607018,,,,4118.000000000,385.000000000,0.000000000
1782819251.607091,0.007550062,-0.034538746,0.000000000,,,
1782819251.617025,,,,4165.000000000,407.000000000,0.000000000
1782819251.617091,0.007526094,-0.034538746,0.000000000,,,
1782819251.626944,,,,4128.000000000,385.000000000,0.000000000
1782819251.627006,0.007478157,-0.034514427,0.000000000,,,
1782819251.637212,,,,4147.000000000,406.000000000,0.000000000
1782819251.637327,0.007478157,-0.034490585,0.000000000,,,
1782819251.647145,,,,4106.000000000,395.000000000,0.000000000
1782819251.647233,0.007478157,-0.034490585,0.000000000,,,
1782819251.657147,,,,4118.000000000,385.000000000,0.000000000
1782819251.657219,0.007526094,-0.034490585,0.000000000,,,
1782819251.667000,,,,4122.000000000,379.000000000,0.000000000
1782819251.667055,0.007526094,-0.034538746,0.000000000,,,
1782819251.677131,,,,4146.000000000,352.000000000,0.000000000
1782819251.677204,0.007526094,-0.034562588,0.000000000,,,
1782819251.687049,,,,4179.000000000,449.000000000,0.000000000
1782819251.687136,0.007454188,-0.034490585,0.000000000,,,
1782819251.697159,,,,4162.000000000,412.000000000,0.000000000
1782819251.697240,0.007454188,-0.034466743,0.000000000,,,
1782819251.707037,,,,4165.000000000,419.000000000,0.000000000
1782819251.707089,0.007478157,-0.034490585,0.000000000,,,
1782819251.717035,,,,4116.000000000,375.000000000,0.000000000
1782819251.717081,0.007526094,-0.034514427,0.000000000,,,
1782819251.727025,,,,4084.000000000,348.000000000,0.000000000
1782819251.727091,0.007526094,-0.034514427,0.000000000,,,
1782819251.737176,,,,4157.000000000,410.000000000,0.000000000
1782819251.737272,0.007550062,-0.034538746,0.000000000,,,
1782819251.747068,,,,4119.000000000,380.000000000,0.000000000
1782819251.747122,0.007502125,-0.034490585,0.000000000,,,
1782819251.756973,,,,4151.000000000,408.000000000,0.000000000
1782819251.757032,0.007478157,-0.034466743,0.000000000,,,
1782819251.766923,,,,4150.000000000,415.000000000,0.000000000
1782819251.766976,0.007478157,-0.034538746,0.000000000,,,
1782819251.777217,,,,4132.000000000,392.000000000,0.000000000
1782819251.777324,0.007526094,-0.034538746,0.000000000,,,
1782819251.787102,,,,4143.000000000,361.000000000,0.000000000
1782819251.787150,0.007526094,-0.034538746,0.000000000,,,
1782819251.797173,,,,4124.000000000,389.000000000,0.000000000
1782819251.797231,0.007550062,-0.034538746,0.000000000,,,
1782819251.807101,,,,4143.000000000,419.000000000,0.000000000
1782819251.807186,0.007454188,-0.034514427,0.000000000,,,
1782819251.817190,,,,4136.000000000,392.000000000,0.000000000
1782819251.817273,0.007454188,-0.034490585,0.000000000,,,
1782819251.827117,,,,4106.000000000,365.000000000,0.000000000
1782819251.827174,0.007478157,-0.034538746,0.000000000,,,
1782819251.837272,,,,4080.000000000,324.000000000,0.000000000
1782819251.837363,0.007526094,-0.034562588,0.000000000,,,
1782819251.847113,,,,4122.000000000,388.000000000,0.000000000
1782819251.847175,0.007526094,-0.034538746,0.000000000,,,
1782819251.857232,,,,4092.000000000,373.000000000,0.000000000
1782819251.857330,0.007550062,-0.034514427,0.000000000,,,
1782819251.867197,,,,4157.000000000,399.000000000,0.000000000
1782819251.867265,0.007454188,-0.034514427,0.000000000,,,
1782819251.877266,,,,4151.000000000,392.000000000,0.000000000
1782819251.877371,0.007454188,-0.034466743,0.000000000,,,
1782819251.887126,,,,4178.000000000,438.000000000,0.000000000
1782819251.887180,0.007478157,-0.034490585,0.000000000,,,
1782819251.897092,,,,4166.000000000,414.000000000,0.000000000
1782819251.897145,0.007526094,-0.034514427,0.000000000,,,
1782819251.907055,,,,4119.000000000,384.000000000,0.000000000
1782819251.907100,0.007574030,-0.034514427,0.000000000,,,
1782819251.917173,,,,4130.000000000,377.000000000,0.000000000
1782819251.917301,0.007526094,-0.034514427,0.000000000,,,
1782819251.927106,,,,4165.000000000,408.000000000,0.000000000
1782819251.927153,0.007478157,-0.034490585,0.000000000,,,
1782819251.937222,,,,4184.000000000,436.000000000,0.000000000
1782819251.937327,0.007478157,-0.034514427,0.000000000,,,
1782819251.947060,,,,4120.000000000,391.000000000,0.000000000
1782819251.947126,0.007454188,-0.034514427,0.000000000,,,
1782819251.957004,,,,4178.000000000,422.000000000,0.000000000
1782819251.957069,0.007526094,-0.034514427,0.000000000,,,
1782819251.967061,,,,4124.000000000,373.000000000,0.000000000
1782819251.967125,0.007526094,-0.034562588,0.000000000,,,
1782819251.977196,,,,4139.000000000,415.000000000,0.000000000
1782819251.977277,0.007526094,-0.034514427,0.000000000,,,
1782819251.987059,,,,4134.000000000,377.000000000,0.000000000
1782819251.987145,0.007478157,-0.034514427,0.000000000,,,
1782819251.997051,,,,4131.000000000,402.000000000,0.000000000
1782819251.997120,0.007454188,-0.034538746,0.000000000,,,
1782819252.007151,,,,4110.000000000,368.000000000,0.000000000
1782819252.007244,0.007478157,-0.034538746,0.000000000,,,
1782819252.017078,,,,4155.000000000,419.000000000,0.000000000
1782819252.017128,0.007526094,-0.034538746,0.000000000,,,
1782819252.027072,,,,4138.000000000,408.000000000,0.000000000
1782819252.027147,0.007526094,-0.034538746,0.000000000,,,
1782819252.037113,,,,4099.000000000,365.000000000,0.000000000
1782819252.037188,0.007526094,-0.034538746,0.000000000,,,
1782819252.047193,,,,4081.000000000,349.000000000,0.000000000
1782819252.047305,0.007454188,-0.034466743,0.000000000,,,
1782819252.057097,,,,4135.000000000,399.000000000,0.000000000
1782819252.057182,0.007478157,-0.034490585,0.000000000,,,
1782819252.066904,,,,4155.000000000,403.000000000,0.000000000
1782819252.066967,0.007478157,-0.034538746,0.000000000,,,
1782819252.076950,,,,4126.000000000,376.000000000,0.000000000
1782819252.077013,0.007526094,-0.034514427,0.000000000,,,
1782819252.087065,,,,4139.000000000,414.000000000,0.000000000
1782819252.087152,0.007502125,-0.034514427,0.000000000,,,
1782819252.096970,,,,4143.000000000,387.000000000,0.000000000
1782819252.097036,0.007526094,-0.034466743,0.000000000,,,
1782819252.106871,,,,4139.000000000,404.000000000,0.000000000
1782819252.106934,0.007478157,-0.034490585,0.000000000,,,
1782819252.117035,,,,4157.000000000,396.000000000,0.000000000
1782819252.117120,0.007454188,-0.034490585,0.000000000,,,
1782819252.126972,,,,4085.000000000,354.000000000,0.000000000
1782819252.127036,0.007502125,-0.034562588,0.000000000,,,
1782819252.136937,,,,4208.000000000,449.000000000,0.000000000
1782819252.137003,0.007526094,-0.034538746,0.000000000,,,
1782819252.146858,,,,4095.000000000,338.000000000,0.000000000
1782819252.146911,0.007526094,-0.034538746,0.000000000,,,
1782819252.156987,,,,4124.000000000,383.000000000,0.000000000
1782819252.157067,0.007526094,-0.034490585,0.000000000,,,
1782819252.166742,,,,4181.000000000,447.000000000,0.000000000
1782819252.166787,0.007478157,-0.034514427,0.000000000,,,
1782819252.176779,,,,4151.000000000,395.000000000,0.000000000
1782819252.176826,0.007478157,-0.034538746,0.000000000,,,
1782819252.186853,,,,4149.000000000,439.000000000,0.000000000
1782819252.186909,0.007478157,-0.034538746,0.000000000,,,
1782819252.196831,,,,4114.000000000,360.000000000,0.000000000
1782819252.196892,0.007526094,-0.034538746,0.000000000,,,
1782819252.207021,,,,4120.000000000,376.000000000,0.000000000
1782819252.207103,0.007526094,-0.034466743,0.000000000,,,
1782819252.216898,,,,4151.000000000,414.000000000,0.000000000
1782819252.216953,0.007526094,-0.034466743,0.000000000,,,
1782819252.227026,,,,4110.000000000,392.000000000,0.000000000
1782819252.227100,0.007478157,-0.034466743,0.000000000,,,
1782819252.237373,,,,4163.000000000,440.000000000,0.000000000
1782819252.237460,0.007454188,-0.034562588,0.000000000,,,
1782819252.246908,,,,4119.000000000,375.000000000,0.000000000
1782819252.246976,0.007478157,-0.034514427,0.000000000,,,
1782819252.257029,,,,4135.000000000,404.000000000,0.000000000
1782819252.257102,0.007526094,-0.034538746,0.000000000,,,
1782819252.266780,,,,4122.000000000,392.000000000,0.000000000
1782819252.266832,0.007526094,-0.034466743,0.000000000,,,
1782819252.276925,,,,4106.000000000,346.000000000,0.000000000
1782819252.277009,0.007526094,-0.034466743,0.000000000,,,
1782819252.286820,,,,4118.000000000,383.000000000,0.000000000
1782819252.286875,0.007454188,-0.034562588,0.000000000,,,
1782819252.296796,,,,4189.000000000,410.000000000,0.000000000
1782819252.296848,0.007454188,-0.034562588,0.000000000,,,
1782819252.306992,,,,4085.000000000,322.000000000,0.000000000
1782819252.307081,0.007478157,-0.034562588,0.000000000,,,
1782819252.317024,,,,4165.000000000,414.000000000,0.000000000
1782819252.317113,0.007502125,-0.034490585,0.000000000,,,
1782819252.326983,,,,4123.000000000,383.000000000,0.000000000
1782819252.327059,0.007502125,-0.034490585,0.000000000,,,
1782819252.337058,,,,4182.000000000,439.000000000,0.000000000
1782819252.337129,0.007526094,-0.034490585,0.000000000,,,
1782819252.346960,,,,4107.000000000,376.000000000,0.000000000
1782819252.347041,0.007478157,-0.034538746,0.000000000,,,
1782819252.356908,,,,4171.000000000,415.000000000,0.000000000
1782819252.356973,0.007478157,-0.034538746,0.000000000,,,
1782819252.366826,,,,4100.000000000,324.000000000,0.000000000
1782819252.366879,0.007478157,-0.034538746,0.000000000,,,
1782819252.376925,,,,4079.000000000,364.000000000,0.000000000
1782819252.376975,0.007526094,-0.034466743,0.000000000,,,
1782819252.386808,,,,4136.000000000,379.000000000,0.000000000
1782819252.386872,0.007550062,-0.034466743,0.000000000,,,
1782819252.396923,,,,4110.000000000,376.000000000,0.000000000
1782819252.396976,0.007526094,-0.034466743,0.000000000,,,
1782819252.406852,,,,4130.000000000,400.000000000,0.000000000
1782819252.406898,0.007454188,-0.034514427,0.000000000,,,
1782819252.416800,,,,4108.000000000,361.000000000,0.000000000
1782819252.416856,0.007454188,-0.034538746,0.000000000,,,
1782819252.426765,,,,4153.000000000,403.000000000,0.000000000
1782819252.426820,0.007478157,-0.034538746,0.000000000,,,
1782819252.436782,,,,4150.000000000,371.000000000,0.000000000
1782819252.436858,0.007526094,-0.034466743,0.000000000,,,
1782819252.446677,,,,4178.000000000,406.000000000,0.000000000
1782819252.446731,0.007526094,-0.034442902,0.000000000,,,
1782819252.456912,,,,4118.000000000,380.000000000,0.000000000
1782819252.456990,0.007526094,-0.034442902,0.000000000,,,
1782819252.466918,,,,4158.000000000,408.000000000,0.000000000
1782819252.466992,0.007478157,-0.034538746,0.000000000,,,
1782819252.476784,,,,4170.000000000,408.000000000,0.000000000
1782819252.476829,0.007478157,-0.034538746,0.000000000,,,
1782819252.486720,,,,4124.000000000,387.000000000,0.000000000
1782819252.486751,0.007478157,-0.034514427,0.000000000,,,
1782819252.497004,,,,4103.000000000,373.000000000,0.000000000
1782819252.497078,0.007526094,-0.034490585,0.000000000,,,
1782819252.506886,,,,4147.000000000,397.000000000,0.000000000
1782819252.506960,0.007550062,-0.034490585,0.000000000,,,
1782819252.516978,,,,4104.000000000,385.000000000,0.000000000
1782819252.517050,0.007526094,-0.034538746,0.000000000,,,
1782819252.527029,,,,4165.000000000,426.000000000,0.000000000
1782819252.527104,0.007478157,-0.034514427,0.000000000,,,
1782819252.536796,,,,4118.000000000,365.000000000,0.000000000
1782819252.536873,0.007454188,-0.034562588,0.000000000,,,
1782819252.547042,,,,4142.000000000,416.000000000,0.000000000
1782819252.547101,0.007478157,-0.034466743,0.000000000,,,
1782819252.556786,,,,4153.000000000,385.000000000,0.000000000
1782819252.556859,0.007526094,-0.034466743,0.000000000,,,
1782819252.566771,,,,4124.000000000,377.000000000,0.000000000
1782819252.566840,0.007526094,-0.034466743,0.000000000,,,
1782819252.576989,,,,4149.000000000,410.000000000,0.000000000
1782819252.577083,0.007526094,-0.034514427,0.000000000,,,
1782819252.586982,,,,4106.000000000,354.000000000,0.000000000
1782819252.587051,0.007454188,-0.034538746,0.000000000,,,
1782819252.596948,,,,4151.000000000,418.000000000,0.000000000
1782819252.597028,0.007454188,-0.034490585,0.000000000,,,
1782819252.607019,,,,4135.000000000,379.000000000,0.000000000
1782819252.607109,0.007478157,-0.034466743,0.000000000,,,
1782819252.616955,,,,4145.000000000,388.000000000,0.000000000
1782819252.617045,0.007502125,-0.034442902,0.000000000,,,
1782819252.626828,,,,4158.000000000,400.000000000,0.000000000
1782819252.626898,0.007526094,-0.034538746,0.000000000,,,
1782819252.636898,,,,4073.000000000,354.000000000,0.000000000
1782819252.636978,0.007526094,-0.034538746,0.000000000,,,
1782819252.646876,,,,4088.000000000,349.000000000,0.000000000
1782819252.646943,0.007454188,-0.034538746,0.000000000,,,
1782819252.656730,,,,4167.000000000,422.000000000,0.000000000
1782819252.656797,0.007454188,-0.034514427,0.000000000,,,
1782819252.666758,,,,4103.000000000,383.000000000,0.000000000
1782819252.666816,0.007478157,-0.034490585,0.000000000,,,
1782819252.676772,,,,4143.000000000,396.000000000,0.000000000
1782819252.676830,0.007526094,-0.034538746,0.000000000,,,
1782819252.686899,,,,4104.000000000,329.000000000,0.000000000
1782819252.686979,0.007526094,-0.034538746,0.000000000,,,
1782819252.696773,,,,4142.000000000,388.000000000,0.000000000
1782819252.696830,0.007526094,-0.034562588,0.000000000,,,
1782819252.706805,,,,4134.000000000,361.000000000,0.000000000
1782819252.706851,0.007454188,-0.034514427,0.000000000,,,
1782819252.716641,,,,4131.000000000,407.000000000,0.000000000
1782819252.716691,0.007454188,-0.034490585,0.000000000,,,
1782819252.726908,,,,4112.000000000,350.000000000,0.000000000
1782819252.726979,0.007478157,-0.034490585,0.000000000,,,
1782819252.736886,,,,4157.000000000,389.000000000,0.000000000
1782819252.736948,0.007502125,-0.034490585,0.000000000,,,
1782819252.746945,,,,4146.000000000,395.000000000,0.000000000
1782819252.747007,0.007526094,-0.034514427,0.000000000,,,
1782819252.756968,,,,4131.000000000,392.000000000,0.000000000
1782819252.757040,0.007526094,-0.034538746,0.000000000,,,
1782819252.766941,,,,4165.000000000,410.000000000,0.000000000
1782819252.767010,0.007454188,-0.034514427,0.000000000,,,
1782819252.777000,,,,4154.000000000,397.000000000,0.000000000
1782819252.777088,0.007478157,-0.034490585,0.000000000,,,
1782819252.787011,,,,4095.000000000,357.000000000,0.000000000
1782819252.787086,0.007478157,-0.034514427,0.000000000,,,
1782819252.797004,,,,4102.000000000,356.000000000,0.000000000
1782819252.797074,0.007502125,-0.034538746,0.000000000,,,
1782819252.806909,,,,4119.000000000,371.000000000,0.000000000
1782819252.806973,0.007526094,-0.034514427,0.000000000,,,
1782819252.816768,0.007526094,-0.034562588,0.000000000,,,
1782819252.816837,,,,4124.000000000,391.000000000,0.000000000
1782819252.826830,,,,4102.000000000,357.000000000,0.000000000
1782819252.826884,0.007478157,-0.034538746,0.000000000,,,
1782819252.836938,,,,4136.000000000,399.000000000,0.000000000
1782819252.837046,0.007454188,-0.034514427,0.000000000,,,
1782819252.846950,,,,4120.000000000,389.000000000,0.000000000
1782819252.847027,0.007478157,-0.034538746,0.000000000,,,
1782819252.856781,,,,4157.000000000,419.000000000,0.000000000
1782819252.856846,0.007502125,-0.034538746,0.000000000,,,
1782819252.866860,,,,4102.000000000,376.000000000,0.000000000
1782819252.866934,0.007526094,-0.034538746,0.000000000,,,
1782819252.876660,,,,4130.000000000,396.000000000,0.000000000
1782819252.876709,0.007526094,-0.034514427,0.000000000,,,
1782819252.887024,,,,4171.000000000,419.000000000,0.000000000
1782819252.887083,0.007454188,-0.034514427,0.000000000,,,
1782819252.897013,,,,4071.000000000,352.000000000,0.000000000
1782819252.897102,0.007454188,-0.034466743,0.000000000,,,
1782819252.906966,,,,4146.000000000,422.000000000,0.000000000
1782819252.907052,0.007502125,-0.034490585,0.000000000,,,
1782819252.916800,,,,4079.000000000,334.000000000,0.000000000
1782819252.916849,0.007526094,-0.034490585,0.000000000,,,
1782819252.926854,,,,4132.000000000,400.000000000,0.000000000
1782819252.926907,0.007526094,-0.034538746,0.000000000,,,
1782819252.936727,,,,4141.000000000,402.000000000,0.000000000
1782819252.936772,0.007526094,-0.034514427,0.000000000,,,
1782819252.946852,,,,4157.000000000,395.000000000,0.000000000
1782819252.946924,0.007454188,-0.034514427,0.000000000,,,
1782819252.956774,,,,4130.000000000,392.000000000,0.000000000
1782819252.956846,0.007454188,-0.034514427,0.000000000,,,
1782819252.966747,,,,4096.000000000,369.000000000,0.000000000
1782819252.966808,0.007478157,-0.034514427,0.000000000,,,
1782819252.976915,,,,4179.000000000,430.000000000,0.000000000
1782819252.976983,0.007526094,-0.034562588,0.000000000,,,
1782819252.986935,,,,4116.000000000,379.000000000,0.000000000
1782819252.987018,0.007526094,-0.034562588,0.000000000,,,
1782819252.996703,,,,4091.000000000,369.000000000,0.000000000
1782819252.996755,0.007502125,-0.034562588,0.000000000,,,
1782819253.006804,,,,4068.000000000,348.000000000,0.000000000
1782819253.006861,0.007454188,-0.034490585,0.000000000,,,
1782819253.016857,,,,4068.000000000,357.000000000,0.000000000
1782819253.016914,0.007478157,-0.034514427,0.000000000,,,
1782819253.026871,,,,4122.000000000,387.000000000,0.000000000
1782819253.026941,0.007478157,-0.034538746,0.000000000,,,
1782819253.036839,,,,4107.000000000,350.000000000,0.000000000
1782819253.036894,0.007502125,-0.034538746,0.000000000,,,
1782819253.046907,,,,4130.000000000,381.000000000,0.000000000
1782819253.046967,0.007526094,-0.034538746,0.000000000,,,
1782819253.056778,,,,4157.000000000,392.000000000,0.000000000
1782819253.056849,0.007526094,-0.034538746,0.000000000,,,
1782819253.066843,,,,4127.000000000,391.000000000,0.000000000
1782819253.066920,0.007454188,-0.034466743,0.000000000,,,
1782819253.076900,,,,4146.000000000,396.000000000,0.000000000
1782819253.076949,0.007454188,-0.034490585,0.000000000,,,
1782819253.086809,,,,4130.000000000,403.000000000,0.000000000
1782819253.086868,0.007478157,-0.034538746,0.000000000,,,
1782819253.096906,,,,4163.000000000,402.000000000,0.000000000
1782819253.096984,0.007502125,-0.034538746,0.000000000,,,
1782819253.106893,,,,4136.000000000,387.000000000,0.000000000
1782819253.106978,0.007526094,-0.034538746,0.000000000,,,
1782819253.116802,,,,4130.000000000,397.000000000,0.000000000
1782819253.116878,0.007502125,-0.034490585,0.000000000,,,
1782819253.126819,,,,4127.000000000,403.000000000,0.000000000
1782819253.126885,0.007478157,-0.034490585,0.000000000,,,
1782819253.136827,,,,4157.000000000,393.000000000,0.000000000
1782819253.136916,0.007454188,-0.034514427,0.000000000,,,
1782819253.146970,,,,4130.000000000,385.000000000,0.000000000
1782819253.147057,0.007454188,-0.034562588,0.000000000,,,
1782819253.156995,,,,4131.000000000,383.000000000,0.000000000
1782819253.157075,0.007502125,-0.034562588,0.000000000,,,
1782819253.166798,,,,4155.000000000,424.000000000,0.000000000
1782819253.166853,0.007526094,-0.034562588,0.000000000,,,
1782819253.176817,,,,4097.000000000,384.000000000,0.000000000
1782819253.176877,0.007454188,-0.034466743,0.000000000,,,
1782819253.186691,,,,4102.000000000,375.000000000,0.000000000
1782819253.186744,0.007454188,-0.034514427,0.000000000,,,
1782819253.197013,,,,4169.000000000,408.000000000,0.000000000
1782819253.197083,0.007454188,-0.034514427,0.000000000,,,
1782819253.206905,,,,4079.000000000,375.000000000,0.000000000
1782819253.206975,0.007478157,-0.034538746,0.000000000,,,
1782819253.216862,,,,4128.000000000,391.000000000,0.000000000
1782819253.216941,0.007502125,-0.034562588,0.000000000,,,
1782819253.226882,,,,4025.000000000,317.000000000,0.000000000
1782819253.226969,0.007526094,-0.034466743,0.000000000,,,
1782819253.236936,,,,4077.000000000,345.000000000,0.000000000
1782819253.237026,0.007526094,-0.034466743,0.000000000,,,
1782819253.246970,,,,4151.000000000,400.000000000,0.000000000
1782819253.247042,0.007454188,-0.034490585,0.000000000,,,
1782819253.256850,,,,4150.000000000,388.000000000,0.000000000
1782819253.256910,0.007454188,-0.034538746,0.000000000,,,
1782819253.266720,,,,4166.000000000,407.000000000,0.000000000
1782819253.266835,0.007478157,-0.034538746,0.000000000,,,
1782819253.276805,,,,4102.000000000,367.000000000,0.000000000
1782819253.276885,0.007526094,-0.034466743,0.000000000,,,
1782819253.286599,,,,4131.000000000,388.000000000,0.000000000
1782819253.286663,0.007526094,-0.034466743,0.000000000,,,
1782819253.296858,,,,4131.000000000,392.000000000,0.000000000
1782819253.296926,0.007526094,-0.034490585,0.000000000,,,
1782819253.306854,,,,4177.000000000,428.000000000,0.000000000
1782819253.306912,0.007478157,-0.034586430,0.000000000,,,
1782819253.316840,,,,4091.000000000,338.000000000,0.000000000
1782819253.316905,0.007454188,-0.034562588,0.000000000,,,
1782819253.326710,,,,4122.000000000,399.000000000,0.000000000
1782819253.326759,0.007454188,-0.034538746,0.000000000,,,
1782819253.336784,,,,4161.000000000,427.000000000,0.000000000
1782819253.336864,0.007502125,-0.034490585,0.000000000,,,
1782819253.346918,,,,4130.000000000,393.000000000,0.000000000
1782819253.346995,0.007502125,-0.034490585,0.000000000,,,
1782819253.356854,,,,4161.000000000,396.000000000,0.000000000
1782819253.356946,0.007526094,-0.034490585,0.000000000,,,
1782819253.366767,,,,4157.000000000,387.000000000,0.000000000
1782819253.366838,0.007454188,-0.034538746,0.000000000,,,
1782819253.376847,,,,4147.000000000,410.000000000,0.000000000
1782819253.376938,0.007454188,-0.034538746,0.000000000,,,
1782819253.386902,,,,4193.000000000,434.000000000,0.000000000
1782819253.386954,0.007478157,-0.034538746,0.000000000,,,
1782819253.396795,,,,4102.000000000,368.000000000,0.000000000
1782819253.396857,0.007526094,-0.034442902,0.000000000,,,
1782819253.406835,,,,4124.000000000,388.000000000,0.000000000
1782819253.406896,0.007526094,-0.034466743,0.000000000,,,
1782819253.416949,,,,4141.000000000,396.000000000,0.000000000
1782819253.417016,0.007526094,-0.034466743,0.000000000,,,
1782819253.426903,,,,4116.000000000,356.000000000,0.000000000
1782819253.426955,0.007454188,-0.034514427,0.000000000,,,
1782819253.436974,,,,4077.000000000,356.000000000,0.000000000
1782819253.437054,0.007454188,-0.034514427,0.000000000,,,
1782819253.446971,,,,4166.000000000,420.000000000,0.000000000
1782819253.447033,0.007502125,-0.034538746,0.000000000,,,
1782819253.456939,,,,4139.000000000,400.000000000,0.000000000
1782819253.457029,0.007502125,-0.034490585,0.000000000,,,
1782819253.467012,,,,4116.000000000,356.000000000,0.000000000
1782819253.467097,0.007502125,-0.034466743,0.000000000,,,
1782819253.476877,,,,4163.000000000,408.000000000,0.000000000
1782819253.476954,0.007502125,-0.034466743,0.000000000,,,
1782819253.486912,,,,4150.000000000,420.000000000,0.000000000
1782819253.486978,0.007454188,-0.034562588,0.000000000,,,
1782819253.496901,,,,4112.000000000,368.000000000,0.000000000
1782819253.496988,0.007454188,-0.034562588,0.000000000,,,
1782819253.507101,,,,4150.000000000,426.000000000,0.000000000
1782819253.507178,0.007454188,-0.034514427,0.000000000,,,
1782819253.516891,,,,4103.000000000,364.000000000,0.000000000
1782819253.516941,0.007502125,-0.034514427,0.000000000,,,
1782819253.526814,,,,4135.000000000,403.000000000,0.000000000
1782819253.526878,0.007502125,-0.034490585,0.000000000,,,
1782819253.536690,,,,4157.000000000,412.000000000,0.000000000
1782819253.536770,0.007502125,-0.034538746,0.000000000,,,
1782819253.546831,,,,4128.000000000,388.000000000,0.000000000
1782819253.546882,0.007454188,-0.034562588,0.000000000,,,
1782819253.556889,,,,4124.000000000,358.000000000,0.000000000
1782819253.556966,0.007454188,-0.034538746,0.000000000,,,
1782819253.566802,,,,4106.000000000,376.000000000,0.000000000
1782819253.566859,0.007454188,-0.034466743,0.000000000,,,
1782819253.576746,,,,4130.000000000,389.000000000,0.000000000
1782819253.576825,0.007502125,-0.034466743,0.000000000,,,
1782819253.586864,,,,4147.000000000,395.000000000,0.000000000
1782819253.586943,0.007526094,-0.034514427,0.000000000,,,
1782819253.596743,,,,4150.000000000,404.000000000,0.000000000
1782819253.596789,0.007454188,-0.034514427,0.000000000,,,
1782819253.606893,,,,4092.000000000,344.000000000,0.000000000
1782819253.606964,0.007454188,-0.034514427,0.000000000,,,
1782819253.616697,,,,4122.000000000,385.000000000,0.000000000
1782819253.616753,0.007454188,-0.034514427,0.000000000,,,
1782819253.626785,,,,4115.000000000,365.000000000,0.000000000
1782819253.626849,0.007454188,-0.034490585,0.000000000,,,
1782819253.636835,,,,4104.000000000,369.000000000,0.000000000
1782819253.636890,0.007502125,-0.034538746,0.000000000,,,
1782819253.646889,,,,4107.000000000,375.000000000,0.000000000
1782819253.646954,0.007526094,-0.034538746,0.000000000,,,
1782819253.656855,,,,4097.000000000,358.000000000,0.000000000
1782819253.656916,0.007526094,-0.034562588,0.000000000,,,
1782819253.666813,,,,4104.000000000,389.000000000,0.000000000
1782819253.666879,0.007454188,-0.034538746,0.000000000,,,
1782819253.676788,,,,4143.000000000,381.000000000,0.000000000
1782819253.676841,0.007454188,-0.034538746,0.000000000,,,
1782819253.686852,,,,4132.000000000,400.000000000,0.000000000
1782819253.686920,0.007478157,-0.034490585,0.000000000,,,
1782819253.696907,,,,4147.000000000,397.000000000,0.000000000
1782819253.696984,0.007502125,-0.034514427,0.000000000,,,
1782819253.706770,,,,4138.000000000,385.000000000,0.000000000
1782819253.706833,0.007478157,-0.034538746,0.000000000,,,
1782819253.716639,,,,4127.000000000,399.000000000,0.000000000
1782819253.716704,0.007502125,-0.034538746,0.000000000,,,
1782819253.726829,,,,4127.000000000,399.000000000,0.000000000
1782819253.726894,0.007454188,-0.034538746,0.000000000,,,
1782819253.736689,,,,4153.000000000,399.000000000,0.000000000
1782819253.736740,0.007454188,-0.034490585,0.000000000,,,
1782819253.746895,,,,4063.000000000,324.000000000,0.000000000
1782819253.746967,0.007454188,-0.034490585,0.000000000,,,
1782819253.756772,,,,4154.000000000,396.000000000,0.000000000
1782819253.756830,0.007502125,-0.034490585,0.000000000,,,
1782819253.766678,,,,4108.000000000,397.000000000,0.000000000
1782819253.766738,0.007502125,-0.034490585,0.000000000,,,
1782819253.776907,,,,4102.000000000,364.000000000,0.000000000
1782819253.776972,0.007502125,-0.034514427,0.000000000,,,
1782819253.786772,,,,4145.000000000,411.000000000,0.000000000
1782819253.786853,0.007454188,-0.034514427,0.000000000,,,
1782819253.796744,,,,4131.000000000,363.000000000,0.000000000
1782819253.796810,0.007454188,-0.034490585,0.000000000,,,
1782819253.806877,,,,4120.000000000,375.000000000,0.000000000
1782819253.806956,0.007454188,-0.034514427,0.000000000,,,
1782819253.816689,,,,4123.000000000,380.000000000,0.000000000
1782819253.816734,0.007502125,-0.034514427,0.000000000,,,
1782819253.826827,,,,4175.000000000,407.000000000,0.000000000
1782819253.826896,0.007502125,-0.034514427,0.000000000,,,
1782819253.836845,,,,4151.000000000,393.000000000,0.000000000
1782819253.836929,0.007454188,-0.034562588,0.000000000,,,
1782819253.846800,,,,4150.000000000,415.000000000,0.000000000
1782819253.846881,0.007454188,-0.034562588,0.000000000,,,
1782819253.856804,,,,4112.000000000,371.000000000,0.000000000
1782819253.856871,0.007478157,-0.034538746,0.000000000,,,
1782819253.866695,,,,4103.000000000,385.000000000,0.000000000
1782819253.866746,0.007478157,-0.034514427,0.000000000,,,
1782819253.877151,,,,4118.000000000,376.000000000,0.000000000
1782819253.877214,0.007502125,-0.034514427,0.000000000,,,
1782819253.886744,,,,4107.000000000,365.000000000,0.000000000
1782819253.886805,0.007502125,-0.034538746,0.000000000,,,
1782819253.896819,,,,4159.000000000,392.000000000,0.000000000
1782819253.896883,0.007502125,-0.034538746,0.000000000,,,
1782819253.906637,,,,4092.000000000,334.000000000,0.000000000
1782819253.906683,0.007454188,-0.034514427,0.000000000,,,
1782819253.916843,,,,4128.000000000,397.000000000,0.000000000
1782819253.916915,0.007454188,-0.034466743,0.000000000,,,
1782819253.926753,,,,4071.000000000,338.000000000,0.000000000
1782819253.926823,0.007454188,-0.034466743,0.000000000,,,
1782819253.936775,,,,4122.000000000,381.000000000,0.000000000
1782819253.936846,0.007478157,-0.034490585,0.000000000,,,
1782819253.946776,,,,4089.000000000,358.000000000,0.000000000
1782819253.946831,0.007502125,-0.034538746,0.000000000,,,
1782819253.956727,,,,4146.000000000,383.000000000,0.000000000
1782819253.956785,0.007502125,-0.034538746,0.000000000,,,
1782819253.966696,,,,4120.000000000,407.000000000,0.000000000
1782819253.966754,0.007454188,-0.034514427,0.000000000,,,
1782819253.976758,,,,4092.000000000,337.000000000,0.000000000
1782819253.976834,0.007454188,-0.034514427,0.000000000,,,
1782819253.986657,,,,4096.000000000,358.000000000,0.000000000
1782819253.986721,0.007478157,-0.034514427,0.000000000,,,
1782819253.996731,,,,4120.000000000,383.000000000,0.000000000
1782819253.996800,0.007502125,-0.034562588,0.000000000,,,
1782819254.006792,,,,4132.000000000,397.000000000,0.000000000
1782819254.006855,0.007502125,-0.034562588,0.000000000,,,
1782819254.016619,,,,4130.000000000,387.000000000,0.000000000
1782819254.016669,0.007502125,-0.034562588,0.000000000,,,
1782819254.026689,,,,4134.000000000,419.000000000,0.000000000
1782819254.026748,0.007454188,-0.034490585,0.000000000,,,
1782819254.036695,,,,4131.000000000,372.000000000,0.000000000
1782819254.036775,0.007454188,-0.034490585,0.000000000,,,
1782819254.046778,,,,4181.000000000,439.000000000,0.000000000
1782819254.046876,0.007478157,-0.034514427,0.000000000,,,
1782819254.056718,,,,4134.000000000,371.000000000,0.000000000
1782819254.056811,0.007478157,-0.034538746,0.000000000,,,
1782819254.066675,,,,4178.000000000,436.000000000,0.000000000
1782819254.066725,0.007502125,-0.034538746,0.000000000,,,
1782819254.076676,,,,4127.000000000,387.000000000,0.000000000
1782819254.076742,0.007454188,-0.034538746,0.000000000,,,
1782819254.086728,,,,4096.000000000,357.000000000,0.000000000
1782819254.086818,0.007478157,-0.034466743,0.000000000,,,
1782819254.096535,,,,4161.000000000,435.000000000,0.000000000
1782819254.096580,0.007454188,-0.034466743,0.000000000,,,
1782819254.106582,,,,4132.000000000,383.000000000,0.000000000
1782819254.106609,0.007478157,-0.034562588,0.000000000,,,
1782819254.116576,,,,4128.000000000,392.000000000,0.000000000
1782819254.116635,0.007478157,-0.034538746,0.000000000,,,
1782819254.126580,,,,4142.000000000,380.000000000,0.000000000
1782819254.126636,0.007478157,-0.034538746,0.000000000,,,
1782819254.136730,,,,4151.000000000,415.000000000,0.000000000
1782819254.136793,0.007454188,-0.034490585,0.000000000,,,
1782819254.146745,,,,4205.000000000,438.000000000,0.000000000
1782819254.146824,0.007454188,-0.034490585,0.000000000,,,
1782819254.156757,,,,4173.000000000,406.000000000,0.000000000
1782819254.156835,0.007454188,-0.034490585,0.000000000,,,
1782819254.166837,,,,4130.000000000,388.000000000,0.000000000
1782819254.166913,0.007478157,-0.034562588,0.000000000,,,
1782819254.176727,,,,4120.000000000,367.000000000,0.000000000
1782819254.176794,0.007502125,-0.034562588,0.000000000,,,
1782819254.186742,,,,4072.000000000,341.000000000,0.000000000
1782819254.186821,0.007454188,-0.034490585,0.000000000,,,
1782819254.196691,,,,4092.000000000,360.000000000,0.000000000
1782819254.196761,0.007502125,-0.034490585,0.000000000,,,
1782819254.206826,,,,4099.000000000,369.000000000,0.000000000
1782819254.206912,0.007454188,-0.034490585,0.000000000,,,
1782819254.216793,,,,4178.000000000,403.000000000,0.000000000
1782819254.216860,0.007454188,-0.034514427,0.000000000,,,
1782819254.226705,,,,4157.000000000,412.000000000,0.000000000
1782819254.226754,0.007478157,-0.034562588,0.000000000,,,
1782819254.236683,,,,4161.000000000,412.000000000,0.000000000
1782819254.236748,0.007454188,-0.034562588,0.000000000,,,
1782819254.246765,,,,4142.000000000,393.000000000,0.000000000
1782819254.246832,0.007478157,-0.034442902,0.000000000,,,
1782819254.256785,,,,4110.000000000,375.000000000,0.000000000
1782819254.256864,0.007454188,-0.034466743,0.000000000,,,
1782819254.266811,,,,4146.000000000,410.000000000,0.000000000
1782819254.266882,0.007478157,-0.034466743,0.000000000,,,
1782819254.276823,,,,4104.000000000,388.000000000,0.000000000
1782819254.276894,0.007454188,-0.034538746,0.000000000,,,
1782819254.286876,,,,4084.000000000,360.000000000,0.000000000
1782819254.286956,0.007478157,-0.034538746,0.000000000,,,
1782819254.296779,,,,4118.000000000,389.000000000,0.000000000
1782819254.296850,0.007454188,-0.034490585,0.000000000,,,
1782819254.306740,,,,4135.000000000,385.000000000,0.000000000
1782819254.306796,0.007478157,-0.034490585,0.000000000,,,
1782819254.316803,,,,4165.000000000,422.000000000,0.000000000
1782819254.316883,0.007502125,-0.034466743,0.000000000,,,
1782819254.326866,,,,4096.000000000,367.000000000,0.000000000
1782819254.326956,0.007454188,-0.034562588,0.000000000,,,
1782819254.336840,,,,4165.000000000,426.000000000,0.000000000
1782819254.336931,0.007454188,-0.034514427,0.000000000,,,
1782819254.346792,,,,4175.000000000,408.000000000,0.000000000
1782819254.346868,0.007478157,-0.034562588,0.000000000,,,
1782819254.356761,,,,4157.000000000,404.000000000,0.000000000
1782819254.356828,0.007454188,-0.034490585,0.000000000,,,
1782819254.366719,,,,4119.000000000,396.000000000,0.000000000
1782819254.366776,0.007454188,-0.034490585,0.000000000,,,
1782819254.376885,,,,4154.000000000,387.000000000,0.000000000
1782819254.376976,0.007454188,-0.034490585,0.000000000,,,
1782819254.386885,,,,4123.000000000,384.000000000,0.000000000
1782819254.386961,0.007454188,-0.034490585,0.000000000,,,
1782819254.396810,,,,4123.000000000,399.000000000,0.000000000
1782819254.396890,0.007454188,-0.034538746,0.000000000,,,
1782819254.406853,,,,4149.000000000,422.000000000,0.000000000
1782819254.406927,0.007478157,-0.034538746,0.000000000,,,
1782819254.416782,,,,4150.000000000,402.000000000,0.000000000
1782819254.416867,0.007454188,-0.034490585,0.000000000,,,
1782819254.426679,,,,4145.000000000,404.000000000,0.000000000
1782819254.426733,0.007430220,-0.034466743,0.000000000,,,
1782819254.436687,,,,4161.000000000,411.000000000,0.000000000
1782819254.436736,0.007454188,-0.034466743,0.000000000,,,
1782819254.446671,,,,4151.000000000,419.000000000,0.000000000
1782819254.446734,0.007454188,-0.034514427,0.000000000,,,
1782819254.456669,,,,4169.000000000,442.000000000,0.000000000
1782819254.456743,0.007478157,-0.034538746,0.000000000,,,
1782819254.466805,,,,4138.000000000,368.000000000,0.000000000
1782819254.466897,0.007478157,-0.034514427,0.000000000,,,
1782819254.476672,,,,4123.000000000,353.000000000,0.000000000
1782819254.476721,0.007478157,-0.034490585,0.000000000,,,
1782819254.486670,,,,4143.000000000,403.000000000,0.000000000
1782819254.486729,0.007430220,-0.034490585,0.000000000,,,
1782819254.496782,,,,4188.000000000,445.000000000,0.000000000
1782819254.496869,0.007454188,-0.034538746,0.000000000,,,
1782819254.506671,,,,4097.000000000,360.000000000,0.000000000
1782819254.506728,0.007454188,-0.034538746,0.000000000,,,
1782819254.516662,,,,4057.000000000,311.000000000,0.000000000
1782819254.516711,0.007502125,-0.034562588,0.000000000,,,
1782819254.526771,,,,4111.000000000,385.000000000,0.000000000
1782819254.526849,0.007478157,-0.034514427,0.000000000,,,
1782819254.536620,,,,4081.000000000,348.000000000,0.000000000
1782819254.536669,0.007454188,-0.034514427,0.000000000,,,
1782819254.546610,,,,4103.000000000,367.000000000,0.000000000
1782819254.546671,0.007454188,-0.034514427,0.000000000,,,
1782819254.556722,,,,4143.000000000,381.000000000,0.000000000
1782819254.556789,0.007454188,-0.034514427,0.000000000,,,
1782819254.566750,,,,4111.000000000,383.000000000,0.000000000
1782819254.566831,0.007478157,-0.034514427,0.000000000,,,
1782819254.576767,,,,4135.000000000,393.000000000,0.000000000
1782819254.576844,0.007478157,-0.034538746,0.000000000,,,
1782819254.586561,,,,4092.000000000,367.000000000,0.000000000
1782819254.586605,0.007478157,-0.034490585,0.000000000,,,
1782819254.596655,,,,4100.000000000,356.000000000,0.000000000
1782819254.596713,0.007454188,-0.034466743,0.000000000,,,
1782819254.606789,,,,4075.000000000,363.000000000,0.000000000
1782819254.606869,0.007430220,-0.034514427,0.000000000,,,
1782819254.616795,,,,4106.000000000,371.000000000,0.000000000
1782819254.616885,0.007454188,-0.034514427,0.000000000,,,
1782819254.626864,,,,4167.000000000,416.000000000,0.000000000
1782819254.626939,0.007502125,-0.034514427,0.000000000,,,
1782819254.636712,,,,4124.000000000,388.000000000,0.000000000
1782819254.636780,0.007478157,-0.034538746,0.000000000,,,
1782819254.646722,,,,4123.000000000,385.000000000,0.000000000
1782819254.646788,0.007454188,-0.034514427,0.000000000,,,
1782819254.656754,,,,4153.000000000,384.000000000,0.000000000
1782819254.656831,0.007454188,-0.034490585,0.000000000,,,
1782819254.666778,,,,4119.000000000,373.000000000,0.000000000
1782819254.666851,0.007454188,-0.034538746,0.000000000,,,
1782819254.676813,,,,4123.000000000,380.000000000,0.000000000
1782819254.676899,0.007502125,-0.034538746,0.000000000,,,
1782819254.686570,,,,4122.000000000,367.000000000,0.000000000
1782819254.686621,0.007502125,-0.034538746,0.000000000,,,
1782819254.696744,,,,4146.000000000,385.000000000,0.000000000
1782819254.696823,0.007478157,-0.034538746,0.000000000,,,
1782819254.706715,,,,4147.000000000,395.000000000,0.000000000
1782819254.706780,0.007454188,-0.034538746,0.000000000,,,
1782819254.716711,,,,4153.000000000,420.000000000,0.000000000
1782819254.716780,0.007454188,-0.034490585,0.000000000,,,
1782819254.726691,,,,4132.000000000,380.000000000,0.000000000
1782819254.726780,0.007502125,-0.034514427,0.000000000,,,
1782819254.736541,,,,4071.000000000,348.000000000,0.000000000
1782819254.736598,0.007502125,-0.034538746,0.000000000,,,
1782819254.746685,,,,4146.000000000,403.000000000,0.000000000
1782819254.746757,0.007478157,-0.034514427,0.000000000,,,
1782819254.756556,,,,4130.000000000,399.000000000,0.000000000
1782819254.756613,0.007454188,-0.034514427,0.000000000,,,
1782819254.766717,,,,4158.000000000,416.000000000,0.000000000
1782819254.766795,0.007454188,-0.034490585,0.000000000,,,
1782819254.776540,,,,4108.000000000,368.000000000,0.000000000
1782819254.776592,0.007430220,-0.034490585,0.000000000,,,
1782819254.786585,,,,4193.000000000,426.000000000,0.000000000
1782819254.786650,0.007502125,-0.034466743,0.000000000,,,
1782819254.796670,,,,4134.000000000,388.000000000,0.000000000
1782819254.796744,0.007502125,-0.034562588,0.000000000,,,
1782819254.806880,,,,4115.000000000,381.000000000,0.000000000
1782819254.806967,0.007478157,-0.034538746,0.000000000,,,
1782819254.817016,,,,4111.000000000,393.000000000,0.000000000
1782819254.817071,0.007454188,-0.034514427,0.000000000,,,
1782819254.826680,,,,4080.000000000,337.000000000,0.000000000
1782819254.826761,0.007454188,-0.034514427,0.000000000,,,
1782819254.836813,,,,4075.000000000,322.000000000,0.000000000
1782819254.836892,0.007502125,-0.034538746,0.000000000,,,
1782819254.846859,,,,4150.000000000,373.000000000,0.000000000
1782819254.846942,0.007502125,-0.034514427,0.000000000,,,
1782819254.856779,,,,4138.000000000,397.000000000,0.000000000
1782819254.856853,0.007526094,-0.034538746,0.000000000,,,
1782819254.866655,,,,4167.000000000,392.000000000,0.000000000
1782819254.866729,0.007454188,-0.034562588,0.000000000,,,
1782819254.876824,,,,4118.000000000,369.000000000,0.000000000
1782819254.876911,0.007454188,-0.034562588,0.000000000,,,
1782819254.886779,,,,4135.000000000,381.000000000,0.000000000
1782819254.886857,0.007454188,-0.034490585,0.000000000,,,
1782819254.896909,,,,4081.000000000,361.000000000,0.000000000
1782819254.896993,0.007502125,-0.034514427,0.000000000,,,
1782819254.906736,,,,4178.000000000,432.000000000,0.000000000
1782819254.906806,0.007502125,-0.034538746,0.000000000,,,
1782819254.916673,,,,4126.000000000,404.000000000,0.000000000
1782819254.916729,0.007478157,-0.034538746,0.000000000,,,
1782819254.926673,,,,4167.000000000,412.000000000,0.000000000
1782819254.926750,0.007478157,-0.034538746,0.000000000,,,
1782819254.936725,,,,4106.000000000,411.000000000,0.000000000
1782819254.936805,0.007478157,-0.034466743,0.000000000,,,
1782819254.946621,,,,4120.000000000,396.000000000,0.000000000
1782819254.946679,0.007430220,-0.034490585,0.000000000,,,
1782819254.956645,,,,4149.000000000,379.000000000,0.000000000
1782819254.956710,0.007454188,-0.034466743,0.000000000,,,
1782819254.966729,,,,4119.000000000,369.000000000,0.000000000
1782819254.966803,0.007478157,-0.034538746,0.000000000,,,
1782819254.976597,,,,4174.000000000,415.000000000,0.000000000
1782819254.976661,0.007478157,-0.034538746,0.000000000,,,
1782819254.986729,,,,4166.000000000,426.000000000,0.000000000
1782819254.986804,0.007430220,-0.034538746,0.000000000,,,
1782819254.996775,,,,4170.000000000,403.000000000,0.000000000
1782819254.996845,0.007478157,-0.034490585,0.000000000,,,
1782819255.006671,,,,4147.000000000,392.000000000,0.000000000
1782819255.006730,0.007454188,-0.034514427,0.000000000,,,
1782819255.016820,,,,4134.000000000,399.000000000,0.000000000
1782819255.016898,0.007478157,-0.034562588,0.000000000,,,
1782819255.026711,,,,4204.000000000,442.000000000,0.000000000
1782819255.026782,0.007478157,-0.034562588,0.000000000,,,
1782819255.036723,,,,4115.000000000,352.000000000,0.000000000
1782819255.036804,0.007502125,-0.034562588,0.000000000,,,
1782819255.046766,,,,4112.000000000,356.000000000,0.000000000
1782819255.046838,0.007454188,-0.034490585,0.000000000,,,
1782819255.056684,,,,4103.000000000,338.000000000,0.000000000
1782819255.056774,0.007430220,-0.034490585,0.000000000,,,
1782819255.066668,,,,4162.000000000,393.000000000,0.000000000
1782819255.066745,0.007430220,-0.034514427,0.000000000,,,
1782819255.076572,,,,4200.000000000,406.000000000,0.000000000
1782819255.076643,0.007454188,-0.034538746,0.000000000,,,
1782819255.086862,,,,4158.000000000,395.000000000,0.000000000
1782819255.086934,0.007478157,-0.034538746,0.000000000,,,
1782819255.096678,,,,4169.000000000,392.000000000,0.000000000
1782819255.096732,0.007478157,-0.034490585,0.000000000,,,
1782819255.106764,,,,4150.000000000,393.000000000,0.000000000
1782819255.106839,0.007454188,-0.034442902,0.000000000,,,
1782819255.116668,,,,4106.000000000,360.000000000,0.000000000
1782819255.116740,0.007454188,-0.034466743,0.000000000,,,
1782819255.126647,,,,4146.000000000,392.000000000,0.000000000
1782819255.126696,0.007430220,-0.034538746,0.000000000,,,
1782819255.136601,,,,4146.000000000,408.000000000,0.000000000
1782819255.136656,0.007454188,-0.034538746,0.000000000,,,
1782819255.146753,,,,4112.000000000,360.000000000,0.000000000
1782819255.146850,0.007478157,-0.034538746,0.000000000,,,
1782819255.156556,,,,4096.000000000,322.000000000,0.000000000
1782819255.156616,0.007478157,-0.034490585,0.000000000,,,
1782819255.166536,,,,4136.000000000,389.000000000,0.000000000
1782819255.166584,0.007430220,-0.034490585,0.000000000,,,
1782819255.177057,0.007430220,-0.034490585,0.000000000,,,
1782819255.177110,,,,4157.000000000,408.000000000,0.000000000
1782819255.186836,,,,4143.000000000,403.000000000,0.000000000
1782819255.186899,0.007454188,-0.034562588,0.000000000,,,
1782819255.196707,,,,4194.000000000,427.000000000,0.000000000
1782819255.196787,0.007454188,-0.034562588,0.000000000,,,
1782819255.206778,,,,4114.000000000,360.000000000,0.000000000
1782819255.206853,0.007478157,-0.034490585,0.000000000,,,
1782819255.216821,,,,4154.000000000,396.000000000,0.000000000
1782819255.216887,0.007478157,-0.034490585,0.000000000,,,
1782819255.226653,,,,4135.000000000,377.000000000,0.000000000
1782819255.226718,0.007406251,-0.034490585,0.000000000,,,
1782819255.236774,,,,4167.000000000,395.000000000,0.000000000
1782819255.236852,0.007430220,-0.034538746,0.000000000,,,
1782819255.246855,,,,4192.000000000,412.000000000,0.000000000
1782819255.246944,0.007430220,-0.034538746,0.000000000,,,
1782819255.256779,,,,4071.000000000,322.000000000,0.000000000
1782819255.256839,0.007430220,-0.034538746,0.000000000,,,
1782819255.266800,,,,4115.000000000,361.000000000,0.000000000
1782819255.266855,0.007454188,-0.034466743,0.000000000,,,
1782819255.276733,,,,4177.000000000,412.000000000,0.000000000
1782819255.276781,0.007478157,-0.034442902,0.000000000,,,
1782819255.287042,,,,4167.000000000,419.000000000,0.000000000
1782819255.287063,0.007430220,-0.034466743,0.000000000,,,
1782819255.297172,,,,4106.000000000,372.000000000,0.000000000
1782819255.297233,0.007406251,-0.034538746,0.000000000,,,
1782819255.307226,,,,4171.000000000,411.000000000,0.000000000
1782819255.307324,0.007430220,-0.034538746,0.000000000,,,
1782819255.317338,,,,4142.000000000,428.000000000,0.000000000
1782819255.317428,0.007454188,-0.034514427,0.000000000,,,
1782819255.327346,,,,4177.000000000,432.000000000,0.000000000
1782819255.327395,0.007454188,-0.034490585,0.000000000,,,
1782819255.337227,,,,4192.000000000,428.000000000,0.000000000
1782819255.337284,0.007454188,-0.034490585,0.000000000,,,
1782819255.347451,,,,4178.000000000,423.000000000,0.000000000
1782819255.347533,0.007454188,-0.034562588,0.000000000,,,
1782819255.357362,,,,4132.000000000,352.000000000,0.000000000
1782819255.357441,0.007454188,-0.034562588,0.000000000,,,
1782819255.367409,,,,4165.000000000,406.000000000,0.000000000
1782819255.367480,0.007430220,-0.034562588,0.000000000,,,
1782819255.377424,,,,4037.000000000,310.000000000,0.000000000
1782819255.377507,0.007454188,-0.034514427,0.000000000,,,
1782819255.387182,,,,4163.000000000,419.000000000,0.000000000
1782819255.387240,0.007454188,-0.034538746,0.000000000,,,
1782819255.397383,,,,4131.000000000,393.000000000,0.000000000
1782819255.397466,0.007454188,-0.034538746,0.000000000,,,
1782819255.407051,,,,4130.000000000,381.000000000,0.000000000
1782819255.407090,0.007430220,-0.034514427,0.000000000,,,
1782819255.417181,,,,4158.000000000,395.000000000,0.000000000
1782819255.417253,0.007406251,-0.034538746,0.000000000,,,
1782819255.427207,,,,4165.000000000,418.000000000,0.000000000
1782819255.427280,0.007430220,-0.034538746,0.000000000,,,
