phattanaratjeedjeen-sudo/wheel_loader/results/csv/multi_weigh_pose1.csv
__time,/vehicle/loader_joint_angles/data[0],/vehicle/loader_joint_angles/data[1],/vehicle/loader_joint_angles/layout/data_offset,/vehicle/loader_joint_pressures/data[0],/vehicle/loader_joint_pressures/data[1],/vehicle/loader_joint_pressures/layout/data_offset,lift,tilt
1782646977.013521,,,,2905.000000000,395.000000000,0.000000000,,
1782646977.013561,0.064019732,-0.071929455,0.000000000,,,,3.668063558,-4.121257664
1782646977.023576,,,,2861.000000000,328.000000000,0.000000000,,
1782646977.023624,0.064067669,-0.071953297,0.000000000,,,,3.670810150,-4.122623703
1782646977.033487,,,,2861.000000000,297.000000000,0.000000000,,
1782646977.033508,0.064043701,-0.071953297,0.000000000,,,,3.669436854,-4.122623703
1782646977.043515,,,,2914.000000000,334.000000000,0.000000000,,
1782646977.043538,0.064043701,-0.071929455,0.000000000,,,,3.669436854,-4.121257664
1782646977.053623,,,,2828.000000000,317.000000000,0.000000000,,
1782646977.053663,0.064043701,-0.071929455,0.000000000,,,,3.669436854,-4.121257664
1782646977.063526,,,,2925.000000000,408.000000000,0.000000000,,
1782646977.063555,0.064043701,-0.071929455,0.000000000,,,,3.669436854,-4.121257664
1782646977.073537,,,,2922.000000000,434.000000000,0.000000000,,
1782646977.073557,0.064067669,-0.071929455,0.000000000,,,,3.670810150,-4.121257664
1782646977.083477,,,,2902.000000000,439.000000000,0.000000000,,
1782646977.083502,0.064043701,-0.071929455,0.000000000,,,,3.669436854,-4.121257664
1782646977.093666,,,,2869.000000000,380.000000000,0.000000000,,
1782646977.093695,0.064043701,-0.071929455,0.000000000,,,,3.669436854,-4.121257664
1782646977.103527,,,,2874.000000000,337.000000000,0.000000000,,
1782646977.103546,0.064019732,-0.071953297,0.000000000,,,,3.668063558,-4.122623703
1782646977.113565,,,,2886.000000000,356.000000000,0.000000000,,
1782646977.113588,0.064019732,-0.071953297,0.000000000,,,,3.668063558,-4.122623703
1782646977.123487,,,,2896.000000000,353.000000000,0.000000000,,
1782646977.123500,0.064019732,-0.071881294,0.000000000,,,,3.668063558,-4.118498265
1782646977.133585,,,,2889.000000000,293.000000000,0.000000000,,
1782646977.133607,0.064043701,-0.071929455,0.000000000,,,,3.669436854,-4.121257664
1782646977.143645,,,,2891.000000000,328.000000000,0.000000000,,
1782646977.143684,0.064043701,-0.071929455,0.000000000,,,,3.669436854,-4.121257664
1782646977.153519,,,,2906.000000000,385.000000000,0.000000000,,
1782646977.153548,0.063995764,-0.071953297,0.000000000,,,,3.666690262,-4.122623703
1782646977.163614,,,,2867.000000000,391.000000000,0.000000000,,
1782646977.163634,0.063995764,-0.071929455,0.000000000,,,,3.666690262,-4.121257664
1782646977.173534,,,,2914.000000000,415.000000000,0.000000000,,
1782646977.173551,0.063971795,-0.071929455,0.000000000,,,,3.665316965,-4.121257664
1782646977.183526,,,,2891.000000000,399.000000000,0.000000000,,
1782646977.183549,0.064019732,-0.071929455,0.000000000,,,,3.668063558,-4.121257664
1782646977.193572,,,,2928.000000000,381.000000000,0.000000000,,
1782646977.193587,0.064019732,-0.071929455,0.000000000,,,,3.668063558,-4.121257664
1782646977.203560,,,,2878.000000000,356.000000000,0.000000000,,
1782646977.203579,0.064043701,-0.071953297,0.000000000,,,,3.669436854,-4.122623703
1782646977.213563,,,,2881.000000000,315.000000000,0.000000000,,
1782646977.213583,0.064019732,-0.071929455,0.000000000,,,,3.668063558,-4.121257664
1782646977.223493,,,,2850.000000000,342.000000000,0.000000000,,
1782646977.223511,0.064019732,-0.071929455,0.000000000,,,,3.668063558,-4.121257664
1782646977.233515,,,,2917.000000000,396.000000000,0.000000000,,
1782646977.233527,0.064043701,-0.071929455,0.000000000,,,,3.669436854,-4.121257664
1782646977.243593,,,,2916.000000000,431.000000000,0.000000000,,
1782646977.243621,0.064019732,-0.071929455,0.000000000,,,,3.668063558,-4.121257664
1782646977.253542,,,,2918.000000000,419.000000000,0.000000000,,
1782646977.253557,0.064043701,-0.071929455,0.000000000,,,,3.669436854,-4.121257664
1782646977.263514,,,,2879.000000000,381.000000000,0.000000000,,
1782646977.263528,0.064019732,-0.071953297,0.000000000,,,,3.668063558,-4.122623703
1782646977.273545,,,,2912.000000000,373.000000000,0.000000000,,
1782646977.273557,0.064019732,-0.071953297,0.000000000,,,,3.668063558,-4.122623703
1782646977.283507,,,,2874.000000000,341.000000000,0.000000000,,
1782646977.283520,0.064019732,-0.071953297,0.000000000,,,,3.668063558,-4.122623703
1782646977.293593,,,,2901.000000000,360.000000000,0.000000000,,
1782646977.293605,0.064019732,-0.071929455,0.000000000,,,,3.668063558,-4.121257664
1782646977.303365,,,,2904.000000000,336.000000000,0.000000000,,
1782646977.303378,0.064019732,-0.071929455,0.000000000,,,,3.668063558,-4.121257664
1782646977.313517,,,,2957.000000000,428.000000000,0.000000000,,
1782646977.313529,0.064019732,-0.071905136,0.000000000,,,,3.668063558,-4.119864304
1782646977.323388,,,,2904.000000000,341.000000000,0.000000000,,
1782646977.323401,0.063995764,-0.071905136,0.000000000,,,,3.666690262,-4.119864304
1782646977.333525,,,,2941.000000000,369.000000000,0.000000000,,
1782646977.333538,0.063971795,-0.071953297,0.000000000,,,,3.665316965,-4.122623703
1782646977.343463,,,,2913.000000000,418.000000000,0.000000000,,
1782646977.343476,0.064043701,-0.071953297,0.000000000,,,,3.669436854,-4.122623703
1782646977.353489,,,,2840.000000000,403.000000000,0.000000000,,
1782646977.353502,0.064043701,-0.071929455,0.000000000,,,,3.669436854,-4.121257664
1782646977.363471,,,,2804.000000000,353.000000000,0.000000000,,
1782646977.363484,0.064067669,-0.071929455,0.000000000,,,,3.670810150,-4.121257664
1782646977.373548,,,,2858.000000000,352.000000000,0.000000000,,
1782646977.373561,0.064019732,-0.071953297,0.000000000,,,,3.668063558,-4.122623703
1782646977.383542,,,,2902.000000000,357.000000000,0.000000000,,
1782646977.383574,0.063995764,-0.071929455,0.000000000,,,,3.666690262,-4.121257664
1782646977.393458,,,,2920.000000000,334.000000000,0.000000000,,
1782646977.393473,0.064019732,-0.071905136,0.000000000,,,,3.668063558,-4.119864304
1782646977.403411,,,,2984.000000000,371.000000000,0.000000000,,
1782646977.403424,0.063995764,-0.071929455,0.000000000,,,,3.666690262,-4.121257664
1782646977.413464,,,,3026.000000000,388.000000000,0.000000000,,
1782646977.413477,0.063971795,-0.071953297,0.000000000,,,,3.665316965,-4.122623703
1782646977.423386,,,,3017.000000000,399.000000000,0.000000000,,
1782646977.423399,0.063947827,-0.071977139,0.000000000,,,,3.663943669,-4.123989742
1782646977.433411,,,,2925.000000000,410.000000000,0.000000000,,
1782646977.433423,0.063947827,-0.071929455,0.000000000,,,,3.663943669,-4.121257664
1782646977.443453,,,,2812.000000000,353.000000000,0.000000000,,
1782646977.443466,0.064139575,-0.071905136,0.000000000,,,,3.674930038,-4.119864304
1782646977.453520,,,,2847.000000000,337.000000000,0.000000000,,
1782646977.453533,0.064163543,-0.071929455,0.000000000,,,,3.676303334,-4.121257664
1782646977.463547,,,,2846.000000000,341.000000000,0.000000000,,
1782646977.463560,0.064019732,-0.071905136,0.000000000,,,,3.668063558,-4.119864304
1782646977.473465,,,,2992.000000000,392.000000000,0.000000000,,
1782646977.473478,0.063971795,-0.071881294,0.000000000,,,,3.665316965,-4.118498265
1782646977.483457,,,,3070.000000000,377.000000000,0.000000000,,
1782646977.483470,0.063947827,-0.071881294,0.000000000,,,,3.663943669,-4.118498265
1782646977.493457,,,,3107.000000000,430.000000000,0.000000000,,
1782646977.493478,0.064067669,-0.071929455,0.000000000,,,,3.670810150,-4.121257664
1782646977.503469,,,,3073.000000000,349.000000000,0.000000000,,
1782646977.503490,0.064091638,-0.071953297,0.000000000,,,,3.672183446,-4.122623703
1782646977.513543,,,,2995.000000000,399.000000000,0.000000000,,
1782646977.513556,0.064091638,-0.071953297,0.000000000,,,,3.672183446,-4.122623703
1782646977.523415,,,,2834.000000000,326.000000000,0.000000000,,
1782646977.523431,0.064307354,-0.071881294,0.000000000,,,,3.684543110,-4.118498265
1782646977.533501,,,,2866.000000000,326.000000000,0.000000000,,
1782646977.533513,0.064379260,-0.071905136,0.000000000,,,,3.688662999,-4.119864304
1782646977.543508,,,,2877.000000000,315.000000000,0.000000000,,
1782646977.543521,0.063899890,-0.071905136,0.000000000,,,,3.661197077,-4.119864304
1782646977.553464,,,,3085.000000000,376.000000000,0.000000000,,
1782646977.553476,0.063899890,-0.071881294,0.000000000,,,,3.661197077,-4.118498265
1782646977.563522,,,,3100.000000000,399.000000000,0.000000000,,
1782646977.563534,0.063899890,-0.071929455,0.000000000,,,,3.661197077,-4.121257664
1782646977.573391,,,,3092.000000000,337.000000000,0.000000000,,
1782646977.573404,0.064331323,-0.071953297,0.000000000,,,,3.685916407,-4.122623703
1782646977.583351,,,,3123.000000000,364.000000000,0.000000000,,
1782646977.583363,0.064403228,-0.071905136,0.000000000,,,,3.690036295,-4.119864304
1782646977.593427,,,,3000.000000000,340.000000000,0.000000000,,
1782646977.593440,0.064475134,-0.071905136,0.000000000,,,,3.694156183,-4.119864304
1782646977.603424,,,,2947.000000000,367.000000000,0.000000000,,
1782646977.603442,0.064355291,-0.071881294,0.000000000,,,,3.687289703,-4.118498265
1782646977.613422,,,,2898.000000000,313.000000000,0.000000000,,
1782646977.613442,0.064403228,-0.071905136,0.000000000,,,,3.690036295,-4.119864304
1782646977.623411,,,,3011.000000000,330.000000000,0.000000000,,
1782646977.623428,0.064451165,-0.071929455,0.000000000,,,,3.692782887,-4.121257664
1782646977.633372,,,,3170.000000000,330.000000000,0.000000000,,
1782646977.633384,0.063947827,-0.071905136,0.000000000,,,,3.663943669,-4.119864304
1782646977.643421,,,,3178.000000000,367.000000000,0.000000000,,
1782646977.643435,0.063995764,-0.071905136,0.000000000,,,,3.666690262,-4.119864304
1782646977.653407,,,,3168.000000000,360.000000000,0.000000000,,
1782646977.653419,0.064810693,-0.071905136,0.000000000,,,,3.713382328,-4.119864304
1782646977.663442,,,,3109.000000000,307.000000000,0.000000000,,
1782646977.663456,0.064834662,-0.071881294,0.000000000,,,,3.714755624,-4.118498265
1782646977.673348,,,,2999.000000000,334.000000000,0.000000000,,
1782646977.673362,0.064858630,-0.071857452,0.000000000,,,,3.716128920,-4.117132226
1782646977.683345,,,,2984.000000000,333.000000000,0.000000000,,
1782646977.683357,0.064211480,-0.071905136,0.000000000,,,,3.679049926,-4.119864304
1782646977.693439,,,,3000.000000000,332.000000000,0.000000000,,
1782646977.693450,0.064211480,-0.071929455,0.000000000,,,,3.679049926,-4.121257664
1782646977.703372,,,,3185.000000000,317.000000000,0.000000000,,
1782646977.703385,0.064211480,-0.071929455,0.000000000,,,,3.679049926,-4.121257664
1782646977.713438,,,,3292.000000000,412.000000000,0.000000000,,
1782646977.713450,0.064547040,-0.071857452,0.000000000,,,,3.698276071,-4.117132226
1782646977.723346,,,,3304.000000000,412.000000000,0.000000000,,
1782646977.723358,0.064618945,-0.071905136,0.000000000,,,,3.702395959,-4.119864304
1782646977.733440,,,,3292.000000000,403.000000000,0.000000000,,
1782646977.733474,0.064690851,-0.071857452,0.000000000,,,,3.706515848,-4.117132226
1782646977.743423,,,,3177.000000000,379.000000000,0.000000000,,
1782646977.743436,0.065146245,-0.071833611,0.000000000,,,,3.732608046,-4.115766187
1782646977.753433,,,,3127.000000000,345.000000000,0.000000000,,
1782646977.753446,0.065074340,-0.071857452,0.000000000,,,,3.728488158,-4.117132226
1782646977.763334,,,,3109.000000000,356.000000000,0.000000000,,
1782646977.763348,0.064355291,-0.071953297,0.000000000,,,,3.687289703,-4.122623703
1782646977.773386,,,,3182.000000000,322.000000000,0.000000000,,
1782646977.773399,0.064403228,-0.071953297,0.000000000,,,,3.690036295,-4.122623703
1782646977.783422,,,,3363.000000000,358.000000000,0.000000000,,
1782646977.783434,0.064427197,-0.071953297,0.000000000,,,,3.691409591,-4.122623703
1782646977.793411,,,,3406.000000000,438.000000000,0.000000000,,
1782646977.793424,0.065409899,-0.071857452,0.000000000,,,,3.747714303,-4.117132226
1782646977.803380,,,,3374.000000000,400.000000000,0.000000000,,
1782646977.803392,0.065505773,-0.071905136,0.000000000,,,,3.753207487,-4.119864304
1782646977.813452,,,,3263.000000000,365.000000000,0.000000000,,
1782646977.813464,0.065577678,-0.071929455,0.000000000,,,,3.757327375,-4.121257664
1782646977.823343,,,,3197.000000000,396.000000000,0.000000000,,
1782646977.823356,0.064882599,-0.071833611,0.000000000,,,,3.717502216,-4.115766187
1782646977.833338,,,,3172.000000000,297.000000000,0.000000000,,
1782646977.833350,0.064834662,-0.071857452,0.000000000,,,,3.714755624,-4.117132226
1782646977.843370,,,,3269.000000000,363.000000000,0.000000000,,
1782646977.843382,0.065050371,-0.071881294,0.000000000,,,,3.727114862,-4.118498265
1782646977.853371,,,,3371.000000000,387.000000000,0.000000000,,
1782646977.853384,0.065170214,-0.071905136,0.000000000,,,,3.733981342,-4.119864304
1782646977.863474,,,,3488.000000000,396.000000000,0.000000000,,
1782646977.863493,0.065290056,-0.071857452,0.000000000,,,,3.740847822,-4.117132226
1782646977.873357,,,,3436.000000000,367.000000000,0.000000000,,
1782646977.873373,0.065673552,-0.071857452,0.000000000,,,,3.762820560,-4.117132226
1782646977.883377,,,,3341.000000000,424.000000000,0.000000000,,
1782646977.883390,0.065697521,-0.071905136,0.000000000,,,,3.764193856,-4.119864304
1782646977.893357,,,,3186.000000000,340.000000000,0.000000000,,
1782646977.893370,0.065697521,-0.071881294,0.000000000,,,,3.764193856,-4.118498265
1782646977.903296,,,,3214.000000000,324.000000000,0.000000000,,
1782646977.903309,0.064762756,-0.071809292,0.000000000,,,,3.710635736,-4.114372827
1782646977.913349,,,,3280.000000000,367.000000000,0.000000000,,
1782646977.913362,0.064834662,-0.071857452,0.000000000,,,,3.714755624,-4.117132226
1782646977.923337,,,,3354.000000000,321.000000000,0.000000000,,
1782646977.923350,0.064954504,-0.071881294,0.000000000,,,,3.721622104,-4.118498265
1782646977.933335,,,,3410.000000000,357.000000000,0.000000000,,
1782646977.933348,0.065985143,-0.071809292,0.000000000,,,,3.780673408,-4.114372827
1782646977.943338,,,,3538.000000000,419.000000000,0.000000000,,
1782646977.943351,0.066057049,-0.071761608,0.000000000,,,,3.784793297,-4.111640750
1782646977.953336,,,,3414.000000000,385.000000000,0.000000000,,
1782646977.953349,0.065242119,-0.071881294,0.000000000,,,,3.738101230,-4.118498265
1782646977.963402,,,,3254.000000000,380.000000000,0.000000000,,
1782646977.963416,0.065218151,-0.071881294,0.000000000,,,,3.736727934,-4.118498265
1782646977.973432,,,,3245.000000000,353.000000000,0.000000000,,
1782646977.973468,0.065194182,-0.071857452,0.000000000,,,,3.735354638,-4.117132226
1782646977.983437,,,,3280.000000000,395.000000000,0.000000000,,
1782646977.983471,0.065649584,-0.071809292,0.000000000,,,,3.761447263,-4.114372827
1782646977.993382,,,,3410.000000000,358.000000000,0.000000000,,
1782646977.993407,0.065793395,-0.071857452,0.000000000,,,,3.769687040,-4.117132226
1782646978.003337,,,,3419.000000000,333.000000000,0.000000000,,
1782646978.003361,0.065937206,-0.071857452,0.000000000,,,,3.777926816,-4.117132226
1782646978.013399,,,,3458.000000000,354.000000000,0.000000000,,
1782646978.013436,0.066152923,-0.071785450,0.000000000,,,,3.790286481,-4.113006789
1782646978.023377,,,,3505.000000000,419.000000000,0.000000000,,
1782646978.023417,0.066057049,-0.071761608,0.000000000,,,,3.784793297,-4.111640750
1782646978.033460,,,,3281.000000000,346.000000000,0.000000000,,
1782646978.033479,0.066033080,-0.071857452,0.000000000,,,,3.783420001,-4.117132226
1782646978.043479,,,,3225.000000000,319.000000000,0.000000000,,
1782646978.043503,0.065553710,-0.071833611,0.000000000,,,,3.755954079,-4.115766187
1782646978.053491,,,,3272.000000000,369.000000000,0.000000000,,
1782646978.053528,0.065625615,-0.071737766,0.000000000,,,,3.760073967,-4.110274711
1782646978.063515,,,,3455.000000000,349.000000000,0.000000000,,
1782646978.063529,0.066943884,-0.071833611,0.000000000,,,,3.835605251,-4.115766187
1782646978.073600,,,,3548.000000000,400.000000000,0.000000000,,
1782646978.073633,0.066991821,-0.071857452,0.000000000,,,,3.838351843,-4.117132226
1782646978.083596,,,,3534.000000000,358.000000000,0.000000000,,
1782646978.083627,0.067015789,-0.071785450,0.000000000,,,,3.839725139,-4.113006789
1782646978.093558,,,,3466.000000000,368.000000000,0.000000000,,
1782646978.093574,0.065865301,-0.071785450,0.000000000,,,,3.773806928,-4.113006789
1782646978.103566,,,,3388.000000000,365.000000000,0.000000000,,
1782646978.103601,0.065865301,-0.071809292,0.000000000,,,,3.773806928,-4.114372827
1782646978.113602,,,,3307.000000000,324.000000000,0.000000000,,
1782646978.113636,0.065913238,-0.071833611,0.000000000,,,,3.776553520,-4.115766187
1782646978.123609,,,,3281.000000000,356.000000000,0.000000000,,
1782646978.123632,0.067015789,-0.071665764,0.000000000,,,,3.839725139,-4.106149273
1782646978.133621,,,,3462.000000000,314.000000000,0.000000000,,
1782646978.133656,0.067183569,-0.071641922,0.000000000,,,,3.849338212,-4.104783234
1782646978.143547,,,,3601.000000000,368.000000000,0.000000000,,
1782646978.143563,0.066800073,-0.071833611,0.000000000,,,,3.827365475,-4.115766187
1782646978.153448,,,,3634.000000000,392.000000000,0.000000000,,
1782646978.153464,0.066824041,-0.071785450,0.000000000,,,,3.828738771,-4.113006789
1782646978.163546,,,,3542.000000000,407.000000000,0.000000000,,
1782646978.163580,0.066776104,-0.071665764,0.000000000,,,,3.825992179,-4.106149273
1782646978.173664,,,,3436.000000000,381.000000000,0.000000000,,
1782646978.173705,0.066632293,-0.071761608,0.000000000,,,,3.817752402,-4.111640750
1782646978.183554,,,,3339.000000000,294.000000000,0.000000000,,
1782646978.183568,0.066895947,-0.071737766,0.000000000,,,,3.832858659,-4.110274711
1782646978.193630,,,,3424.000000000,361.000000000,0.000000000,,
1782646978.193660,0.067159601,-0.071713448,0.000000000,,,,3.847964916,-4.108881351
1782646978.203500,,,,3558.000000000,337.000000000,0.000000000,,
1782646978.203534,0.067758806,-0.071593761,0.000000000,,,,3.882296891,-4.102023835
1782646978.213583,,,,3658.000000000,395.000000000,0.000000000,,
1782646978.213603,0.067806743,-0.071641922,0.000000000,,,,3.885043483,-4.104783234
1782646978.223536,,,,3712.000000000,410.000000000,0.000000000,,
1782646978.223567,0.067830712,-0.071689606,0.000000000,,,,3.886416779,-4.107515312
1782646978.233564,,,,3568.000000000,408.000000000,0.000000000,,
1782646978.233582,0.066848010,-0.071593761,0.000000000,,,,3.830112067,-4.102023835
1782646978.243607,,,,3410.000000000,358.000000000,0.000000000,,
1782646978.243638,0.066967852,-0.071497917,0.000000000,,,,3.836978547,-4.096532358
1782646978.253658,,,,3385.000000000,319.000000000,0.000000000,,
1782646978.253699,0.068549767,-0.071713448,0.000000000,,,,3.927615661,-4.108881351
1782646978.263641,,,,3394.000000000,302.000000000,0.000000000,,
1782646978.263683,0.068669610,-0.071641922,0.000000000,,,,3.934482141,-4.104783234
1782646978.273427,,,,3530.000000000,349.000000000,0.000000000,,
1782646978.273443,0.068741515,-0.071569920,0.000000000,,,,3.938602030,-4.100657796
1782646978.283582,,,,3618.000000000,373.000000000,0.000000000,,
1782646978.283616,0.067662932,-0.071665764,0.000000000,,,,3.876803706,-4.106149273
1782646978.293611,,,,3686.000000000,380.000000000,0.000000000,,
1782646978.293647,0.067638971,-0.071713448,0.000000000,,,,3.875430837,-4.108881351
1782646978.303529,,,,3506.000000000,411.000000000,0.000000000,,
1782646978.303542,0.067686900,-0.071689606,0.000000000,,,,3.878177003,-4.107515312
1782646978.313577,,,,3316.000000000,332.000000000,0.000000000,,
1782646978.313596,0.069029137,-0.071425915,0.000000000,,,,3.955081582,-4.092406921
1782646978.323539,,,,3310.000000000,328.000000000,0.000000000,,
1782646978.323562,0.069196917,-0.071474075,0.000000000,,,,3.964694655,-4.095166319
1782646978.333543,,,,3444.000000000,321.000000000,0.000000000,,
1782646978.333566,0.069460571,-0.071474075,0.000000000,,,,3.979800912,-4.095166319
1782646978.343476,,,,3612.000000000,361.000000000,0.000000000,,
1782646978.343490,0.068957232,-0.071569920,0.000000000,,,,3.950961694,-4.100657796
1782646978.353657,,,,3583.000000000,344.000000000,0.000000000,,
1782646978.353692,0.068933263,-0.071449757,0.000000000,,,,3.949588398,-4.093772960
1782646978.363572,,,,3599.000000000,369.000000000,0.000000000,,
1782646978.363595,0.069029137,-0.071474075,0.000000000,,,,3.955081582,-4.095166319
1782646978.373538,,,,3439.000000000,352.000000000,0.000000000,,
1782646978.373570,0.069388665,-0.071545601,0.000000000,,,,3.975681023,-4.099264436
1782646978.383462,,,,3370.000000000,315.000000000,0.000000000,,
1782646978.383484,0.069676287,-0.071521759,0.000000000,,,,3.992160576,-4.097898397
1782646978.393513,,,,3384.000000000,341.000000000,0.000000000,,
1782646978.393528,0.070227563,-0.071425915,0.000000000,,,,4.023746386,-4.092406921
1782646978.403543,,,,3522.000000000,286.000000000,0.000000000,,
1782646978.403567,0.070275500,-0.071474075,0.000000000,,,,4.026492978,-4.095166319
1782646978.413606,,,,3691.000000000,342.000000000,0.000000000,,
1782646978.413637,0.070299469,-0.071545601,0.000000000,,,,4.027866274,-4.099264436
1782646978.423389,,,,3705.000000000,397.000000000,0.000000000,,
1782646978.423409,0.069412634,-0.071569920,0.000000000,,,,3.977054320,-4.100657796
1782646978.433480,,,,3618.000000000,400.000000000,0.000000000,,
1782646978.433499,0.069724225,-0.071258068,0.000000000,,,,3.994907168,-4.082790006
1782646978.443554,,,,3486.000000000,371.000000000,0.000000000,,
1782646978.443594,0.069724225,-0.071353912,0.000000000,,,,3.994907168,-4.088281483
1782646978.453418,,,,3431.000000000,297.000000000,0.000000000,,
1782646978.453434,0.071306139,-0.071330070,0.000000000,,,,4.085544282,-4.086915444
1782646978.463428,,,,3460.000000000,328.000000000,0.000000000,,
1782646978.463442,0.071378045,-0.071258068,0.000000000,,,,4.089664170,-4.082790006
1782646978.473472,,,,3634.000000000,333.000000000,0.000000000,,
1782646978.473485,0.071449950,-0.071210384,0.000000000,,,,4.093784059,-4.080057928
1782646978.483511,,,,3760.000000000,387.000000000,0.000000000,,
1782646978.483531,0.070299469,-0.071449757,0.000000000,,,,4.027866274,-4.093772960
1782646978.493547,,,,3722.000000000,371.000000000,0.000000000,,
1782646978.493562,0.070395336,-0.071378231,0.000000000,,,,4.033359032,-4.089674843
1782646978.503430,,,,3499.000000000,329.000000000,0.000000000,,
1782646978.503453,0.070515178,-0.071210384,0.000000000,,,,4.040225512,-4.080057928
1782646978.513573,,,,3479.000000000,371.000000000,0.000000000,,
1782646978.513604,0.072384723,-0.071282387,0.000000000,,,,4.147342605,-4.084183366
1782646978.523540,,,,3449.000000000,293.000000000,0.000000000,,
1782646978.523561,0.072576471,-0.071378231,0.000000000,,,,4.158328974,-4.089674843
1782646978.533555,,,,3622.000000000,342.000000000,0.000000000,,
1782646978.533569,0.072744250,-0.071282387,0.000000000,,,,4.167942046,-4.084183366
1782646978.543612,,,,3673.000000000,365.000000000,0.000000000,,
1782646978.543651,0.071641698,-0.071210384,0.000000000,,,,4.104770427,-4.080057928
1782646978.553589,,,,3714.000000000,342.000000000,0.000000000,,
1782646978.553618,0.071665667,-0.071282387,0.000000000,,,,4.106143723,-4.084183366
1782646978.563548,,,,3717.000000000,426.000000000,0.000000000,,
1782646978.563562,0.072816156,-0.071114540,0.000000000,,,,4.172061935,-4.074566451
1782646978.573683,,,,3478.000000000,389.000000000,0.000000000,,
1782646978.573723,0.073199645,-0.071018696,0.000000000,,,,4.194034245,-4.069074975
1782646978.583627,,,,3404.000000000,336.000000000,0.000000000,,
1782646978.583667,0.073535204,-0.071018696,0.000000000,,,,4.213260390,-4.069074975
1782646978.593590,,,,3432.000000000,311.000000000,0.000000000,,
1782646978.593615,0.073199645,-0.071330070,0.000000000,,,,4.194034245,-4.086915444
1782646978.603490,,,,3674.000000000,369.000000000,0.000000000,,
1782646978.603521,0.073247582,-0.071210384,0.000000000,,,,4.196780837,-4.080057928
1782646978.613549,,,,3678.000000000,349.000000000,0.000000000,,
1782646978.613582,0.073247582,-0.071114540,0.000000000,,,,4.196780837,-4.074566451
1782646978.623500,,,,3718.000000000,373.000000000,0.000000000,,
1782646978.623518,0.073463298,-0.071210384,0.000000000,,,,4.209140502,-4.080057928
1782646978.633469,,,,3584.000000000,311.000000000,0.000000000,,
1782646978.633482,0.073918700,-0.071186066,0.000000000,,,,4.235233127,-4.078664568
1782646978.643536,,,,3484.000000000,368.000000000,0.000000000,,
1782646978.643551,0.074350134,-0.071066380,0.000000000,,,,4.259952456,-4.071807053
1782646978.653527,,,,3420.000000000,275.000000000,0.000000000,,
1782646978.653554,0.074757598,-0.071114540,0.000000000,,,,4.283298489,-4.074566451
1782646978.663569,,,,3631.000000000,364.000000000,0.000000000,,
1782646978.663582,0.074829504,-0.071186066,0.000000000,,,,4.287418378,-4.078664568
1782646978.673543,,,,3728.000000000,350.000000000,0.000000000,,
1782646978.673556,0.074062511,-0.070970535,0.000000000,,,,4.243472903,-4.066315576
1782646978.683602,,,,3737.000000000,364.000000000,0.000000000,,
1782646978.683628,0.074326165,-0.070874691,0.000000000,,,,4.258579160,-4.060824099
1782646978.693614,,,,3677.000000000,329.000000000,0.000000000,,
1782646978.693651,0.074661724,-0.070898533,0.000000000,,,,4.277805305,-4.062190138
1782646978.703604,,,,3585.000000000,356.000000000,0.000000000,,
1782646978.703616,0.076387450,-0.071018696,0.000000000,,,,4.376682195,-4.069074975
1782646978.713549,,,,3548.000000000,305.000000000,0.000000000,,
1782646978.713564,0.076435387,-0.070922852,0.000000000,,,,4.379428787,-4.063583498
1782646978.723520,,,,3566.000000000,336.000000000,0.000000000,,
1782646978.723555,0.076483324,-0.070874691,0.000000000,,,,4.382175380,-4.060824099
1782646978.733535,,,,3757.000000000,318.000000000,0.000000000,,
1782646978.733567,0.075404748,-0.071066380,0.000000000,,,,4.320377483,-4.071807053
1782646978.743598,,,,3838.000000000,368.000000000,0.000000000,,
1782646978.743625,0.075572528,-0.070994377,0.000000000,,,,4.329990556,-4.067681615
1782646978.753526,,,,3884.000000000,373.000000000,0.000000000,,
1782646978.753539,0.077490002,-0.070730686,0.000000000,,,,4.439853814,-4.052573224
1782646978.763559,,,,3677.000000000,381.000000000,0.000000000,,
1782646978.763572,0.077777624,-0.070827007,0.000000000,,,,4.456333367,-4.058092021
1782646978.773506,,,,3548.000000000,305.000000000,0.000000000,,
1782646978.773532,0.078017309,-0.070898533,0.000000000,,,,4.470066328,-4.062190138
1782646978.783616,,,,3620.000000000,368.000000000,0.000000000,,
1782646978.783653,0.076651104,-0.070683002,0.000000000,,,,4.391788452,-4.049841146
1782646978.793540,,,,3710.000000000,346.000000000,0.000000000,,
1782646978.793554,0.076794915,-0.070683002,0.000000000,,,,4.400028228,-4.049841146
1782646978.803627,,,,3786.000000000,350.000000000,0.000000000,,
1782646978.803653,0.076938726,-0.070755005,0.000000000,,,,4.408268005,-4.053966583
1782646978.813521,,,,3913.000000000,399.000000000,0.000000000,,
1782646978.813552,0.078496672,-0.070634842,0.000000000,,,,4.497531823,-4.047081747
1782646978.823517,,,,3798.000000000,356.000000000,0.000000000,,
1782646978.823532,0.078904137,-0.070515156,0.000000000,,,,4.520877856,-4.040224231
1782646978.833523,,,,3557.000000000,317.000000000,0.000000000,,
1782646978.833550,0.079287633,-0.070491314,0.000000000,,,,4.542850593,-4.038858192
1782646978.843599,,,,3530.000000000,318.000000000,0.000000000,,
1782646978.843640,0.078256994,-0.070778847,0.000000000,,,,4.483799289,-4.055332622
1782646978.853566,,,,3587.000000000,322.000000000,0.000000000,,
1782646978.853593,0.078328893,-0.070659161,0.000000000,,,,4.487918750,-4.048475107
1782646978.863555,,,,3826.000000000,387.000000000,0.000000000,,
1782646978.863588,0.079023980,-0.070467472,0.000000000,,,,4.527744336,-4.037492153
1782646978.873616,,,,3812.000000000,329.000000000,0.000000000,,
1782646978.873646,0.079455413,-0.070538998,0.000000000,,,,4.552463665,-4.041590270
1782646978.883669,,,,3846.000000000,317.000000000,0.000000000,,
1782646978.883711,0.079910815,-0.070538998,0.000000000,,,,4.578556291,-4.041590270
1782646978.893448,,,,3741.000000000,363.000000000,0.000000000,,
1782646978.893461,0.080198437,-0.070419312,0.000000000,,,,4.595035844,-4.034732755
1782646978.903603,,,,3569.000000000,306.000000000,0.000000000,,
1782646978.903626,0.080150500,-0.070419312,0.000000000,,,,4.592289251,-4.034732755
1782646978.913599,,,,3544.000000000,317.000000000,0.000000000,,
1782646978.913633,0.080126531,-0.070491314,0.000000000,,,,4.590915955,-4.038858192
1782646978.923662,,,,3780.000000000,352.000000000,0.000000000,,
1782646978.923704,0.080246374,-0.070275307,0.000000000,,,,4.597782436,-4.026481879
1782646978.933472,,,,3912.000000000,342.000000000,0.000000000,,
1782646978.933501,0.080629870,-0.070155621,0.000000000,,,,4.619755173,-4.019624363
1782646978.943535,,,,3855.000000000,301.000000000,0.000000000,,
1782646978.943569,0.081013359,-0.070395470,0.000000000,,,,4.641727483,-4.033366716
1782646978.953483,,,,3857.000000000,350.000000000,0.000000000,,
1782646978.953498,0.082235754,-0.070347309,0.000000000,,,,4.711765583,-4.030607317
1782646978.963600,,,,3713.000000000,290.000000000,0.000000000,,
1782646978.963625,0.082235754,-0.070227623,0.000000000,,,,4.711765583,-4.023749801
1782646978.973495,,,,3726.000000000,332.000000000,0.000000000,,
1782646978.973525,0.081181139,-0.070227623,0.000000000,,,,4.651340555,-4.023749801
1782646978.983532,,,,3678.000000000,295.000000000,0.000000000,,
1782646978.983575,0.081540667,-0.070251465,0.000000000,,,,4.671939997,-4.025115840
1782646978.993487,,,,3917.000000000,310.000000000,0.000000000,,
1782646978.993510,0.081900194,-0.070227623,0.000000000,,,,4.692539438,-4.023749801
1782646979.003429,,,,3994.000000000,336.000000000,0.000000000,,
1782646979.003444,0.083649889,-0.069963932,0.000000000,,,,4.792789624,-4.008641410
1782646979.013422,,,,4025.000000000,383.000000000,0.000000000,,
1782646979.013446,0.083913542,-0.070035934,0.000000000,,,,4.807895881,-4.012766848
1782646979.023530,,,,3787.000000000,346.000000000,0.000000000,,
1782646979.023579,0.084105290,-0.070107937,0.000000000,,,,4.818882249,-4.016892285
1782646979.033453,,,,3739.000000000,346.000000000,0.000000000,,
1782646979.033490,0.082523376,-0.069868088,0.000000000,,,,4.728245135,-4.003149933
1782646979.043499,,,,3777.000000000,376.000000000,0.000000000,,
1782646979.043532,0.082787029,-0.069844246,0.000000000,,,,4.743351392,-4.001783894
1782646979.053419,,,,3816.000000000,321.000000000,0.000000000,,
1782646979.053449,0.084704503,-0.069963932,0.000000000,,,,4.853214651,-4.008641410
1782646979.063698,,,,3952.000000000,340.000000000,0.000000000,,
1782646979.063721,0.085040063,-0.069868088,0.000000000,,,,4.872440796,-4.003149933
1782646979.073567,,,,4002.000000000,324.000000000,0.000000000,,
1782646979.073613,0.085375622,-0.069748402,0.000000000,,,,4.891666941,-3.996292417
1782646979.083425,,,,3944.000000000,330.000000000,0.000000000,,
1782646979.083441,0.084273070,-0.069963932,0.000000000,,,,4.828495322,-4.008641410
1782646979.093385,,,,3710.000000000,318.000000000,0.000000000,,
1782646979.093413,0.084297039,-0.069915771,0.000000000,,,,4.829868618,-4.005882011
1782646979.103686,,,,3686.000000000,321.000000000,0.000000000,,
1782646979.103730,0.084416881,-0.069819927,0.000000000,,,,4.836735098,-4.000390534
1782646979.113531,,,,3712.000000000,302.000000000,0.000000000,,
1782646979.113561,0.086046740,-0.069580555,0.000000000,,,,4.930119231,-3.986675503
1782646979.123488,,,,3907.000000000,321.000000000,0.000000000,,
1782646979.123513,0.086430229,-0.069676399,0.000000000,,,,4.952091541,-3.992166980
1782646979.133585,,,,4003.000000000,371.000000000,0.000000000,,
1782646979.133629,0.086813726,-0.069724083,0.000000000,,,,4.974064278,-3.994899058
1782646979.143458,,,,3989.000000000,353.000000000,0.000000000,,
1782646979.143501,0.086406261,-0.069580555,0.000000000,,,,4.950718245,-3.986675503
1782646979.153394,,,,3864.000000000,358.000000000,0.000000000,,
1782646979.153410,0.086382292,-0.069580555,0.000000000,,,,4.949344949,-3.986675503
1782646979.163435,,,,3749.000000000,321.000000000,0.000000000,,
1782646979.163450,0.086861663,-0.069556236,0.000000000,,,,4.976810870,-3.985282143
1782646979.173500,,,,3712.000000000,334.000000000,0.000000000,,
1782646979.173546,0.087317064,-0.069436550,0.000000000,,,,5.002903496,-3.978424627
1782646979.183439,,,,3861.000000000,260.000000000,0.000000000,,
1782646979.183458,0.087748498,-0.069316864,0.000000000,,,,5.027622825,-3.971567112
1782646979.193508,,,,4026.000000000,306.000000000,0.000000000,,
1782646979.193536,0.088371679,-0.069556236,0.000000000,,,,5.063328523,-3.985282143
1782646979.203577,,,,4018.000000000,295.000000000,0.000000000,,
1782646979.203620,0.088443585,-0.069508553,0.000000000,,,,5.067448411,-3.982550065
1782646979.213471,,,,3985.000000000,377.000000000,0.000000000,,
1782646979.213497,0.088467553,-0.069412708,0.000000000,,,,5.068821707,-3.977058588
1782646979.223338,,,,3885.000000000,329.000000000,0.000000000,,
1782646979.223358,0.087964214,-0.069316864,0.000000000,,,,5.039982490,-3.971567112
1782646979.233466,,,,3834.000000000,279.000000000,0.000000000,,
1782646979.233506,0.088419616,-0.069388866,0.000000000,,,,5.066075115,-3.975692549
1782646979.243537,,,,3907.000000000,333.000000000,0.000000000,,
1782646979.243568,0.088875018,-0.069196701,0.000000000,,,,5.092167740,-3.964682275
1782646979.253530,,,,4081.000000000,348.000000000,0.000000000,,
1782646979.253569,0.090169311,-0.069172859,0.000000000,,,,5.166325301,-3.963316236
1782646979.263484,,,,4190.000000000,368.000000000,0.000000000,,
1782646979.263515,0.090289153,-0.069196701,0.000000000,,,,5.173191781,-3.964682275
1782646979.273376,,,,4107.000000000,334.000000000,0.000000000,,
1782646979.273431,0.088970885,-0.069196701,0.000000000,,,,5.097660498,-3.964682275
1782646979.283475,,,,3924.000000000,365.000000000,0.000000000,,
1782646979.283520,0.089210570,-0.069053173,0.000000000,,,,5.111393458,-3.956458720
1782646979.293386,,,,3896.000000000,338.000000000,0.000000000,,
1782646979.293402,0.089546129,-0.069005013,0.000000000,,,,5.130619603,-3.953699322
1782646979.303317,,,,3869.000000000,367.000000000,0.000000000,,
1782646979.303352,0.091679320,-0.069149017,0.000000000,,,,5.252842527,-3.961950197
1782646979.313503,,,,4034.000000000,340.000000000,0.000000000,,
1782646979.313539,0.091871068,-0.069077015,0.000000000,,,,5.263828895,-3.957824759
1782646979.323334,,,,4135.000000000,344.000000000,0.000000000,,
1782646979.323348,0.092062816,-0.068981171,0.000000000,,,,5.274815264,-3.952333283
1782646979.333410,,,,4173.000000000,350.000000000,0.000000000,,
1782646979.333447,0.090744555,-0.069100857,0.000000000,,,,5.199284407,-3.959190798
1782646979.343421,,,,4104.000000000,352.000000000,0.000000000,,
1782646979.343434,0.090864398,-0.069100857,0.000000000,,,,5.206150887,-3.959190798
1782646979.353537,,,,3904.000000000,340.000000000,0.000000000,,
1782646979.353558,0.092733935,-0.069077015,0.000000000,,,,5.313267554,-3.957824759
1782646979.363508,,,,3857.000000000,328.000000000,0.000000000,,
1782646979.363533,0.093141399,-0.068741322,0.000000000,,,,5.336613587,-3.938590931
1782646979.373392,,,,3912.000000000,332.000000000,0.000000000,,
1782646979.373412,0.093476959,-0.068765640,0.000000000,,,,5.355839732,-3.939984290
1782646979.383375,,,,4075.000000000,283.000000000,0.000000000,,
1782646979.383389,0.092542186,-0.068837166,0.000000000,,,,5.302281185,-3.944082407
1782646979.393504,,,,4104.000000000,361.000000000,0.000000000,,
1782646979.393532,0.092590123,-0.068837166,0.000000000,,,,5.305027777,-3.944082407
1782646979.403400,,,,4158.000000000,321.000000000,0.000000000,,
1782646979.403434,0.092638060,-0.068765640,0.000000000,,,,5.307774369,-3.939984290
1782646979.413552,,,,4042.000000000,360.000000000,0.000000000,,
1782646979.413585,0.093836486,-0.068765640,0.000000000,,,,5.376439173,-3.939984290
1782646979.423458,,,,3909.000000000,353.000000000,0.000000000,,
1782646979.423475,0.094267912,-0.068717480,0.000000000,,,,5.401158075,-3.937224892
1782646979.433431,,,,3877.000000000,315.000000000,0.000000000,,
1782646979.433468,0.094675377,-0.068573952,0.000000000,,,,5.424504108,-3.929001337
1782646979.443376,,,,4046.000000000,345.000000000,0.000000000,,
1782646979.443389,0.094459660,-0.068549633,0.000000000,,,,5.412144444,-3.927607977
1782646979.453353,,,,4217.000000000,333.000000000,0.000000000,,
1782646979.453377,0.094459660,-0.068717480,0.000000000,,,,5.412144444,-3.937224892
1782646979.463487,,,,4248.000000000,338.000000000,0.000000000,,
1782646979.463518,0.094507597,-0.068669796,0.000000000,,,,5.414891036,-3.934492814
1782646979.473397,,,,4188.000000000,356.000000000,0.000000000,,
1782646979.473437,0.094411723,-0.068406105,0.000000000,,,,5.409397852,-3.919384422
1782646979.483346,,,,4014.000000000,314.000000000,0.000000000,,
1782646979.483377,0.094843157,-0.068429947,0.000000000,,,,5.434117181,-3.920750461
1782646979.493458,,,,4010.000000000,318.000000000,0.000000000,,
1782646979.493489,0.095298558,-0.068477631,0.000000000,,,,5.460209806,-3.923482539
1782646979.503461,,,,4049.000000000,342.000000000,0.000000000,,
1782646979.503496,0.096257299,-0.068357944,0.000000000,,,,5.515141649,-3.916625024
1782646979.513296,,,,4275.000000000,361.000000000,0.000000000,,
1782646979.513319,0.096281268,-0.068310261,0.000000000,,,,5.516514945,-3.913892946
1782646979.523344,,,,4349.000000000,392.000000000,0.000000000,,
1782646979.523362,0.096353173,-0.068310261,0.000000000,,,,5.520634833,-3.913892946
1782646979.533448,,,,4360.000000000,376.000000000,0.000000000,,
1782646979.533476,0.095729992,-0.068334103,0.000000000,,,,5.484929136,-3.915258985
1782646979.543565,,,,4114.000000000,315.000000000,0.000000000,,
1782646979.543604,0.096017614,-0.068190098,0.000000000,,,,5.501408688,-3.907008109
1782646979.553471,,,,4052.000000000,350.000000000,0.000000000,,
1782646979.553499,0.096377142,-0.068238258,0.000000000,,,,5.522008129,-3.909767508
1782646979.563484,,,,4060.000000000,337.000000000,0.000000000,,
1782646979.563517,0.098126836,-0.068262100,0.000000000,,,,5.622258316,-3.911133547
1782646979.573359,,,,4128.000000000,346.000000000,0.000000000,,
1782646979.573392,0.098222710,-0.068190098,0.000000000,,,,5.627751500,-3.907008109
1782646979.583477,,,,4295.000000000,326.000000000,0.000000000,,
1782646979.583501,0.096928410,-0.068094254,0.000000000,,,,5.553593512,-3.901516632
1782646979.593512,,,,4317.000000000,344.000000000,0.000000000,,
1782646979.593551,0.097168095,-0.068166256,0.000000000,,,,5.567326473,-3.905642070
1782646979.603374,,,,4279.000000000,337.000000000,0.000000000,,
1782646979.603390,0.097407781,-0.068142414,0.000000000,,,,5.581059434,-3.904276031
1782646979.613328,,,,4032.000000000,294.000000000,0.000000000,,
1782646979.613353,0.099229388,-0.067878723,0.000000000,,,,5.685429935,-3.889167640
1782646979.623477,,,,3985.000000000,302.000000000,0.000000000,,
1782646979.623516,0.099564940,-0.067854881,0.000000000,,,,5.704655653,-3.887801601
1782646979.633296,,,,4050.000000000,287.000000000,0.000000000,,
1782646979.633310,0.099852562,-0.067902565,0.000000000,,,,5.721135206,-3.890533679
1782646979.643520,,,,4240.000000000,303.000000000,0.000000000,,
1782646979.643551,0.098486364,-0.067902565,0.000000000,,,,5.642857757,-3.890533679
1782646979.653455,,,,4303.000000000,365.000000000,0.000000000,,
1782646979.653494,0.098582238,-0.067782879,0.000000000,,,,5.648350941,-3.883676163
1782646979.663362,,,,4350.000000000,340.000000000,0.000000000,,
1782646979.663376,0.099924468,-0.067854881,0.000000000,,,,5.725255094,-3.887801601
1782646979.673428,,,,4247.000000000,346.000000000,0.000000000,,
1782646979.673461,0.100307964,-0.067806721,0.000000000,,,,5.747227831,-3.885042202
1782646979.683470,,,,4068.000000000,317.000000000,0.000000000,,
1782646979.683510,0.100691460,-0.067687035,0.000000000,,,,5.769200568,-3.878184686
1782646979.693315,,,,4017.000000000,282.000000000,0.000000000,,
1782646979.693329,0.100236058,-0.067734718,0.000000000,,,,5.743107943,-3.880916764
1782646979.703370,,,,4194.000000000,324.000000000,0.000000000,,
1782646979.703397,0.100260027,-0.067759037,0.000000000,,,,5.744481239,-3.882310124
1782646979.713454,,,,4393.000000000,353.000000000,0.000000000,,
1782646979.713487,0.100307964,-0.067759037,0.000000000,,,,5.747227831,-3.882310124
1782646979.723350,,,,4368.000000000,340.000000000,0.000000000,,
1782646979.723380,0.101050988,-0.067519188,0.000000000,,,,5.789800009,-3.868567772
1782646979.733428,,,,4313.000000000,325.000000000,0.000000000,,
1782646979.733459,0.101410516,-0.067566872,0.000000000,,,,5.810399450,-3.871299850
1782646979.743459,,,,4228.000000000,328.000000000,0.000000000,,
1782646979.743488,0.101770043,-0.067591190,0.000000000,,,,5.830998891,-3.872693210
1782646979.753441,,,,4209.000000000,326.000000000,0.000000000,,
1782646979.753480,0.102081634,-0.067519188,0.000000000,,,,5.848851740,-3.868567772
1782646979.763513,,,,4159.000000000,274.000000000,0.000000000,,
1782646979.763548,0.102081634,-0.067543030,0.000000000,,,,5.848851740,-3.869933811
1782646979.773394,,,,4385.000000000,315.000000000,0.000000000,,
1782646979.773420,0.101841949,-0.067566872,0.000000000,,,,5.835118780,-3.871299850
1782646979.783495,,,,4494.000000000,349.000000000,0.000000000,,
1782646979.783536,0.102177501,-0.067471027,0.000000000,,,,5.854344498,-3.865808373
1782646979.793400,,,,4458.000000000,322.000000000,0.000000000,,
1782646979.793415,0.102513060,-0.067375183,0.000000000,,,,5.873570643,-3.860316897
1782646979.803472,,,,4321.000000000,333.000000000,0.000000000,,
1782646979.803505,0.103783391,-0.067399502,0.000000000,,,,5.946355334,-3.861710256
1782646979.813493,,,,4221.000000000,313.000000000,0.000000000,,
1782646979.813535,0.103903234,-0.067423344,0.000000000,,,,5.953221815,-3.863076295
1782646979.823404,,,,4224.000000000,313.000000000,0.000000000,,
1782646979.823431,0.103951171,-0.067327499,0.000000000,,,,5.955968407,-3.857584819
1782646979.833341,,,,4311.000000000,318.000000000,0.000000000,,
1782646979.833358,0.102992430,-0.067255497,0.000000000,,,,5.901036564,-3.853459381
1782646979.843538,,,,4440.000000000,361.000000000,0.000000000,,
1782646979.843582,0.103327990,-0.067255497,0.000000000,,,,5.920262709,-3.853459381
1782646979.853466,,,,4440.000000000,275.000000000,0.000000000,,
1782646979.853503,0.103687517,-0.067111492,0.000000000,,,,5.940862150,-3.845208505
1782646979.863407,,,,4467.000000000,345.000000000,0.000000000,,
1782646979.863420,0.105125621,-0.067063808,0.000000000,,,,6.023259487,-3.842476427
1782646979.873422,,,,4220.000000000,324.000000000,0.000000000,,
1782646979.873454,0.105341338,-0.067015648,0.000000000,,,,6.035619152,-3.839717029
1782646979.883461,,,,4186.000000000,332.000000000,0.000000000,,
1782646979.883495,0.104214825,-0.067159653,0.000000000,,,,5.971074664,-3.847967904
1782646979.893488,,,,4208.000000000,287.000000000,0.000000000,,
1782646979.893531,0.104358636,-0.067063808,0.000000000,,,,5.979314440,-3.842476427
1782646979.903442,,,,4399.000000000,352.000000000,0.000000000,,
1782646979.903466,0.104550384,-0.066967964,0.000000000,,,,5.990300809,-3.836984951
1782646979.913437,,,,4456.000000000,341.000000000,0.000000000,,
1782646979.913469,0.106108330,-0.067039967,0.000000000,,,,6.079564626,-3.841110388
1782646979.923504,,,,4485.000000000,353.000000000,0.000000000,,
1782646979.923547,0.106395952,-0.066991806,0.000000000,,,,6.096044179,-3.838350990
1782646979.933381,,,,4333.000000000,310.000000000,0.000000000,,
1782646979.933404,0.106611669,-0.066919804,0.000000000,,,,6.108403844,-3.834225552
1782646979.943506,,,,4249.000000000,317.000000000,0.000000000,,
1782646979.943534,0.105892614,-0.066943645,0.000000000,,,,6.067204962,-3.835591591
1782646979.953445,,,,4189.000000000,270.000000000,0.000000000,,
1782646979.953480,0.105964519,-0.066943645,0.000000000,,,,6.071324850,-3.835591591
1782646979.963508,,,,4350.000000000,326.000000000,0.000000000,,
1782646979.963548,0.106923260,-0.066751957,0.000000000,,,,6.126256693,-3.824608637
1782646979.973173,,,,4474.000000000,267.000000000,0.000000000,,
1782646979.973188,0.107282788,-0.066680431,0.000000000,,,,6.146856134,-3.820510520
1782646979.983407,,,,4481.000000000,310.000000000,0.000000000,,
1782646979.983429,0.107618339,-0.066656113,0.000000000,,,,6.166081852,-3.819117161
1782646979.993410,,,,4489.000000000,324.000000000,0.000000000,,
1782646979.993453,0.107594371,-0.066751957,0.000000000,,,,6.164708556,-3.824608637
1782646980.003342,,,,4378.000000000,324.000000000,0.000000000,,
1782646980.003356,0.107618339,-0.066656113,0.000000000,,,,6.166081852,-3.819117161
1782646980.013777,,,,4377.000000000,310.000000000,0.000000000,,
1782646980.013798,0.107618339,-0.066632271,0.000000000,,,,6.166081852,-3.817751122
1782646980.023909,,,,4378.000000000,361.000000000,0.000000000,,
1782646980.023949,0.107953899,-0.066656113,0.000000000,,,,6.185307997,-3.819117161
1782646980.033860,,,,4560.000000000,363.000000000,0.000000000,,
1782646980.033883,0.108337395,-0.066584587,0.000000000,,,,6.207280734,-3.815019044
1782646980.043878,,,,4641.000000000,385.000000000,0.000000000,,
1782646980.043907,0.108672954,-0.066512585,0.000000000,,,,6.226506879,-3.810893606
1782646980.053904,,,,4633.000000000,387.000000000,0.000000000,,
1782646980.053940,0.109176293,-0.066488266,0.000000000,,,,6.255346096,-3.809500246
1782646980.063804,,,,4460.000000000,325.000000000,0.000000000,,
1782646980.063818,0.109272167,-0.066536427,0.000000000,,,,6.260839281,-3.812259645
1782646980.073743,,,,4327.000000000,278.000000000,0.000000000,,
1782646980.073785,0.108553112,-0.066368580,0.000000000,,,,6.219640399,-3.802642730
1782646980.083914,,,,4391.000000000,326.000000000,0.000000000,,
1782646980.083953,0.108864702,-0.066344738,0.000000000,,,,6.237493247,-3.801276691
1782646980.093819,,,,4489.000000000,319.000000000,0.000000000,,
1782646980.093832,0.109248199,-0.066368580,0.000000000,,,,6.259465985,-3.802642730
1782646980.103764,,,,4575.000000000,334.000000000,0.000000000,,
1782646980.103779,0.110518523,-0.066344738,0.000000000,,,,6.332250249,-3.801276691
1782646980.113827,,,,4591.000000000,303.000000000,0.000000000,,
1782646980.113846,0.110662334,-0.066248894,0.000000000,,,,6.340490026,-3.795785215
1782646980.123835,,,,4612.000000000,324.000000000,0.000000000,,
1782646980.123875,0.110782176,-0.066225052,0.000000000,,,,6.347356506,-3.794419176
1782646980.133718,,,,4378.000000000,340.000000000,0.000000000,,
1782646980.133732,0.109871380,-0.066368580,0.000000000,,,,6.295171682,-3.802642730
1782646980.143965,,,,4358.000000000,299.000000000,0.000000000,,
1782646980.143996,0.110063128,-0.066296577,0.000000000,,,,6.306158051,-3.798517293
1782646980.154029,,,,4354.000000000,352.000000000,0.000000000,,
1782646980.154071,0.110302806,-0.066128731,0.000000000,,,,6.319890585,-3.788900378
1782646980.164113,,,,4576.000000000,353.000000000,0.000000000,,
1782646980.164151,0.111956634,-0.066176891,0.000000000,,,,6.414648014,-3.791659777
1782646980.173995,,,,4564.000000000,328.000000000,0.000000000,,
1782646980.174019,0.112196319,-0.066225052,0.000000000,,,,6.428380974,-3.794419176
1782646980.184098,,,,4629.000000000,365.000000000,0.000000000,,
1782646980.184132,0.111237578,-0.066104889,0.000000000,,,,6.373449131,-3.787534339
1782646980.194083,,,,4549.000000000,353.000000000,0.000000000,,
1782646980.194109,0.111333452,-0.066128731,0.000000000,,,,6.378942316,-3.788900378
1782646980.203882,,,,4403.000000000,342.000000000,0.000000000,,
1782646980.203903,0.111477263,-0.066176891,0.000000000,,,,6.387182092,-3.791659777
1782646980.213989,,,,4353.000000000,326.000000000,0.000000000,,
1782646980.214016,0.112771556,-0.065961361,0.000000000,,,,6.461339653,-3.779310785
1782646980.223920,,,,4455.000000000,276.000000000,0.000000000,,
1782646980.223935,0.113083147,-0.065913200,0.000000000,,,,6.479192502,-3.776551386
1782646980.234074,,,,4645.000000000,251.000000000,0.000000000,,
1782646980.234113,0.113394737,-0.065889359,0.000000000,,,,6.497045351,-3.775185347
1782646980.243978,,,,4638.000000000,310.000000000,0.000000000,,
1782646980.244010,0.112867430,-0.066032887,0.000000000,,,,6.466832837,-3.783408902
1782646980.253974,,,,4602.000000000,287.000000000,0.000000000,,
1782646980.254001,0.112915367,-0.065961361,0.000000000,,,,6.469579429,-3.779310785
1782646980.264120,,,,4583.000000000,352.000000000,0.000000000,,
1782646980.264160,0.113394737,-0.065889359,0.000000000,,,,6.497045351,-3.775185347
1782646980.274034,,,,4551.000000000,328.000000000,0.000000000,,
1782646980.274066,0.113754265,-0.065889359,0.000000000,,,,6.517644792,-3.775185347
1782646980.284006,,,,4522.000000000,368.000000000,0.000000000,,
1782646980.284041,0.114089824,-0.065841198,0.000000000,,,,6.536870937,-3.772425948
1782646980.293979,,,,4651.000000000,307.000000000,0.000000000,,
1782646980.294007,0.114401415,-0.065697670,0.000000000,,,,6.554723786,-3.764202393
1782646980.303948,,,,4793.000000000,356.000000000,0.000000000,,
1782646980.303973,0.114497289,-0.065697670,0.000000000,,,,6.560216970,-3.764202393
1782646980.314161,,,,4802.000000000,310.000000000,0.000000000,,
1782646980.314195,0.114593163,-0.065721512,0.000000000,,,,6.565710154,-3.765568432
1782646980.324101,,,,4677.000000000,396.000000000,0.000000000,,
1782646980.324128,0.114449352,-0.065625668,0.000000000,,,,6.557470378,-3.760076956
1782646980.334117,,,,4512.000000000,330.000000000,0.000000000,,
1782646980.334147,0.114736974,-0.065505981,0.000000000,,,,6.573949931,-3.753219440
1782646980.344176,,,,4530.000000000,311.000000000,0.000000000,,
1782646980.344209,0.115072533,-0.065481663,0.000000000,,,,6.593176076,-3.751826080
1782646980.354195,,,,4619.000000000,357.000000000,0.000000000,,
1782646980.354229,0.116246983,-0.065481663,0.000000000,,,,6.660467156,-3.751826080
1782646980.364111,,,,4739.000000000,352.000000000,0.000000000,,
1782646980.364130,0.116342857,-0.065505981,0.000000000,,,,6.665960341,-3.753219440
1782646980.374151,,,,4821.000000000,356.000000000,0.000000000,,
1782646980.374177,0.115623802,-0.065410137,0.000000000,,,,6.624761458,-3.747727963
1782646980.384119,,,,4822.000000000,332.000000000,0.000000000,,
1782646980.384150,0.115887456,-0.065529823,0.000000000,,,,6.639867715,-3.754585479
1782646980.394118,,,,4516.000000000,282.000000000,0.000000000,,
1782646980.394149,0.116175078,-0.065481663,0.000000000,,,,6.656347268,-3.751826080
1782646980.404038,,,,4487.000000000,329.000000000,0.000000000,,
1782646980.404071,0.117565252,-0.065385818,0.000000000,,,,6.735998440,-3.746334603
1782646980.413929,,,,4489.000000000,333.000000000,0.000000000,,
1782646980.413967,0.117828906,-0.065122128,0.000000000,,,,6.751104697,-3.731226212
1782646980.423984,,,,4619.000000000,283.000000000,0.000000000,,
1782646980.424008,0.118020654,-0.065170288,0.000000000,,,,6.762091065,-3.733985611
1782646980.434008,,,,4664.000000000,328.000000000,0.000000000,,
1782646980.434043,0.117373504,-0.065170288,0.000000000,,,,6.725012072,-3.733985611
1782646980.443997,,,,4702.000000000,332.000000000,0.000000000,,
1782646980.444028,0.117613189,-0.065074444,0.000000000,,,,6.738745032,-3.728494134
1782646980.454136,,,,4635.000000000,333.000000000,0.000000000,,
1782646980.454182,0.117900811,-0.065050602,0.000000000,,,,6.755224585,-3.727128095
1782646980.464181,,,,4501.000000000,336.000000000,0.000000000,,
1782646980.464227,0.117900811,-0.064930439,0.000000000,,,,6.755224585,-3.720243259
1782646980.474084,,,,4416.000000000,293.000000000,0.000000000,,
1782646980.474119,0.118907481,-0.064762592,0.000000000,,,,6.812902593,-3.710626344
1782646980.484121,,,,4573.000000000,338.000000000,0.000000000,,
1782646980.484156,0.119195104,-0.064666748,0.000000000,,,,6.829382146,-3.705134868
1782646980.494061,,,,4740.000000000,340.000000000,0.000000000,,
1782646980.494105,0.118931450,-0.064858437,0.000000000,,,,6.814275889,-3.716117821
1782646980.503928,,,,4680.000000000,318.000000000,0.000000000,,
1782646980.503954,0.119099230,-0.064810753,0.000000000,,,,6.823888962,-3.713385743
1782646980.514061,,,,4646.000000000,306.000000000,0.000000000,,
1782646980.514100,0.119290978,-0.064691067,0.000000000,,,,6.834875330,-3.706528227
1782646980.524106,,,,4561.000000000,338.000000000,0.000000000,,
1782646980.524144,0.120057970,-0.064594746,0.000000000,,,,6.878820805,-3.701009430
1782646980.534112,,,,4561.000000000,337.000000000,0.000000000,,
1782646980.534157,0.120393530,-0.064570904,0.000000000,,,,6.898046950,-3.699643391
1782646980.543975,,,,4528.000000000,332.000000000,0.000000000,,
1782646980.543991,0.120705120,-0.064498901,0.000000000,,,,6.915899798,-3.695517953
1782646980.554022,,,,4715.000000000,305.000000000,0.000000000,,
1782646980.554056,0.120705120,-0.064427376,0.000000000,,,,6.915899798,-3.691419836
1782646980.564203,,,,4763.000000000,325.000000000,0.000000000,,
1782646980.564248,0.120848924,-0.064427376,0.000000000,,,,6.924139148,-3.691419836
1782646980.574082,,,,4810.000000000,375.000000000,0.000000000,,
1782646980.574127,0.121328294,-0.064283371,0.000000000,,,,6.951605069,-3.683168961
1782646980.584070,,,,4553.000000000,310.000000000,0.000000000,,
1782646980.584105,0.121687822,-0.064163685,0.000000000,,,,6.972204510,-3.676311445
1782646980.593923,,,,4517.000000000,303.000000000,0.000000000,,
1782646980.593951,0.121999413,-0.064091682,0.000000000,,,,6.990057359,-3.672186007
1782646980.603860,,,,4549.000000000,303.000000000,0.000000000,,
1782646980.603885,0.122478783,-0.064187527,0.000000000,,,,7.017523281,-3.677677484
1782646980.613888,,,,4668.000000000,310.000000000,0.000000000,,
1782646980.613918,0.122670531,-0.064115524,0.000000000,,,,7.028509649,-3.673552046
1782646980.623868,,,,4736.000000000,317.000000000,0.000000000,,
1782646980.623886,0.122766405,-0.064067841,0.000000000,,,,7.034002834,-3.670819968
1782646980.633918,,,,4802.000000000,324.000000000,0.000000000,,
1782646980.633955,0.122886248,-0.064067841,0.000000000,,,,7.040869314,-3.670819968
1782646980.644029,,,,4668.000000000,307.000000000,0.000000000,,
1782646980.644051,0.123269744,-0.063971996,0.000000000,,,,7.062842051,-3.665328491
1782646980.654053,,,,4521.000000000,345.000000000,0.000000000,,
1782646980.654086,0.123653233,-0.063851833,0.000000000,,,,7.084814361,-3.658443655
1782646980.664124,,,,4473.000000000,319.000000000,0.000000000,,
1782646980.664161,0.124372289,-0.063732147,0.000000000,,,,7.126013243,-3.651586139
1782646980.674263,,,,4569.000000000,322.000000000,0.000000000,,
1782646980.674327,0.124588005,-0.063779831,0.000000000,,,,7.138372908,-3.654318217
1782646980.683954,,,,4664.000000000,297.000000000,0.000000000,,
1782646980.683981,0.124132603,-0.063636303,0.000000000,,,,7.112280283,-3.646094662
1782646980.693903,,,,4741.000000000,342.000000000,0.000000000,,
1782646980.693930,0.124468163,-0.063588142,0.000000000,,,,7.131506428,-3.643335264
1782646980.703992,,,,4720.000000000,365.000000000,0.000000000,,
1782646980.704048,0.124851659,-0.063588142,0.000000000,,,,7.153479165,-3.643335264
1782646980.713916,,,,4573.000000000,345.000000000,0.000000000,,
1782646980.713945,0.125906274,-0.063420296,0.000000000,,,,7.213904192,-3.633718349
1782646980.723967,,,,4460.000000000,310.000000000,0.000000000,,
1782646980.724003,0.126145959,-0.063300610,0.000000000,,,,7.227637153,-3.626860834
1782646980.733892,,,,4489.000000000,293.000000000,0.000000000,,
1782646980.733921,0.126385644,-0.063204765,0.000000000,,,,7.241370113,-3.621369357
1782646980.744026,,,,4709.000000000,285.000000000,0.000000000,,
1782646980.744070,0.126050085,-0.063420296,0.000000000,,,,7.222143968,-3.633718349
1782646980.753795,,,,4741.000000000,360.000000000,0.000000000,,
1782646980.753812,0.126337707,-0.063300610,0.000000000,,,,7.238623521,-3.626860834
1782646980.763836,,,,4732.000000000,326.000000000,0.000000000,,
1782646980.763870,0.126649290,-0.063060760,0.000000000,,,,7.256475943,-3.613118481
1782646980.774092,,,,4525.000000000,301.000000000,0.000000000,,
1782646980.774107,0.127823740,-0.063085079,0.000000000,,,,7.323767024,-3.614511841
1782646980.784060,,,,4552.000000000,290.000000000,0.000000000,,
1782646980.784103,0.128087401,-0.063036919,0.000000000,,,,7.338873707,-3.611752442
1782646980.793786,,,,4567.000000000,345.000000000,0.000000000,,
1782646980.793800,0.127751842,-0.063013077,0.000000000,,,,7.319647562,-3.610386403
1782646980.803838,,,,4668.000000000,263.000000000,0.000000000,,
1782646980.803863,0.128015488,-0.063013077,0.000000000,,,,7.334753392,-3.610386403
1782646980.813965,,,,4787.000000000,340.000000000,0.000000000,,
1782646980.813988,0.128303111,-0.063013077,0.000000000,,,,7.351232945,-3.610386403
1782646980.823895,,,,4824.000000000,298.000000000,0.000000000,,
1782646980.823925,0.129333764,-0.062605381,0.000000000,,,,7.410285103,-3.587027137
1782646980.833955,,,,4556.000000000,317.000000000,0.000000000,,
1782646980.833989,0.129693285,-0.062509537,0.000000000,,,,7.430884117,-3.581535660
1782646980.843974,,,,4495.000000000,289.000000000,0.000000000,,
1782646980.843991,0.130052805,-0.062509537,0.000000000,,,,7.451483131,-3.581535660
1782646980.853968,,,,4459.000000000,291.000000000,0.000000000,,
1782646980.853988,0.129717261,-0.062653542,0.000000000,,,,7.432257840,-3.589786535
1782646980.864095,,,,4654.000000000,318.000000000,0.000000000,,
1782646980.864139,0.129956946,-0.062533855,0.000000000,,,,7.445990801,-3.582929020
1782646980.874065,,,,4654.000000000,319.000000000,0.000000000,,
1782646980.874102,0.130771860,-0.062438011,0.000000000,,,,7.492682013,-3.577437543
1782646980.884061,,,,4763.000000000,302.000000000,0.000000000,,
1782646980.884095,0.131155357,-0.062342167,0.000000000,,,,7.514654751,-3.571946066
1782646980.893981,,,,4625.000000000,303.000000000,0.000000000,,
1782646980.894015,0.131538853,-0.062198162,0.000000000,,,,7.536627488,-3.563695191
1782646980.903942,,,,4431.000000000,271.000000000,0.000000000,,
1782646980.903980,0.131538853,-0.062294006,0.000000000,,,,7.536627488,-3.569186667
1782646980.914049,,,,4442.000000000,307.000000000,0.000000000,,
1782646980.914080,0.131730601,-0.062294006,0.000000000,,,,7.547613856,-3.569186667
1782646980.924021,,,,4581.000000000,267.000000000,0.000000000,,
1782646980.924062,0.131922349,-0.062245846,0.000000000,,,,7.558600225,-3.566427269
1782646980.933984,,,,4680.000000000,297.000000000,0.000000000,,
1782646980.934018,0.132665381,-0.061886311,0.000000000,,,,7.601172830,-3.545827401
1782646980.944008,,,,4727.000000000,319.000000000,0.000000000,,
1782646980.944042,0.133024901,-0.061886311,0.000000000,,,,7.621771844,-3.545827401
1782646980.954071,,,,4721.000000000,397.000000000,0.000000000,,
1782646980.954094,0.133408397,-0.061886311,0.000000000,,,,7.643744581,-3.545827401
1782646980.963986,,,,4552.000000000,289.000000000,0.000000000,,
1782646980.964002,0.133672044,-0.061838627,0.000000000,,,,7.658850411,-3.543095323
1782646980.973931,,,,4509.000000000,338.000000000,0.000000000,,
1782646980.973966,0.133791894,-0.061790466,0.000000000,,,,7.665717318,-3.540335924
1782646980.984084,,,,4591.000000000,313.000000000,0.000000000,,
1782646980.984124,0.134271264,-0.061718941,0.000000000,,,,7.693183240,-3.536237807
1782646980.993917,,,,4785.000000000,301.000000000,0.000000000,,
1782646980.993931,0.134654760,-0.061526775,0.000000000,,,,7.715155977,-3.525227533
1782646981.003974,,,,4828.000000000,352.000000000,0.000000000,,
1782646981.003995,0.135038257,-0.061383247,0.000000000,,,,7.737128714,-3.517003978
1782646981.014056,,,,4635.000000000,285.000000000,0.000000000,,
1782646981.014095,0.135469675,-0.061502934,0.000000000,,,,7.761847189,-3.523861494
1782646981.024092,,,,4522.000000000,306.000000000,0.000000000,,
1782646981.024138,0.135709360,-0.061479092,0.000000000,,,,7.775580150,-3.522495455
1782646981.033943,,,,4514.000000000,317.000000000,0.000000000,,
1782646981.033960,0.135901108,-0.061359406,0.000000000,,,,7.786566519,-3.515637939
1782646981.043995,,,,4599.000000000,342.000000000,0.000000000,,
1782646981.044023,0.136188731,-0.061287403,0.000000000,,,,7.803046071,-3.511512501
1782646981.054029,,,,4655.000000000,286.000000000,0.000000000,,
1782646981.054072,0.136596203,-0.061239243,0.000000000,,,,7.826392532,-3.508753103
1782646981.064087,,,,4724.000000000,305.000000000,0.000000000,,
1782646981.064131,0.136979699,-0.060975552,0.000000000,,,,7.848365269,-3.493644711
1782646981.073831,,,,4707.000000000,291.000000000,0.000000000,,
1782646981.073848,0.137459069,-0.060927868,0.000000000,,,,7.875831190,-3.490912633
1782646981.083972,,,,4530.000000000,334.000000000,0.000000000,,
1782646981.083999,0.137674779,-0.060951710,0.000000000,,,,7.888190428,-3.492278672
1782646981.094013,,,,4452.000000000,321.000000000,0.000000000,,
1782646981.094057,0.137866527,-0.060832024,0.000000000,,,,7.899176796,-3.485421157
1782646981.103934,,,,4505.000000000,286.000000000,0.000000000,,
1782646981.103964,0.138202086,-0.060711861,0.000000000,,,,7.918402941,-3.478536320
1782646981.114010,,,,4673.000000000,321.000000000,0.000000000,,
1782646981.114033,0.138561606,-0.060664177,0.000000000,,,,7.939001955,-3.475804242
1782646981.124051,,,,4661.000000000,322.000000000,0.000000000,,
1782646981.124074,0.139280662,-0.060664177,0.000000000,,,,7.980200838,-3.475804242
1782646981.133936,,,,4716.000000000,328.000000000,0.000000000,,
1782646981.133974,0.139496386,-0.060592175,0.000000000,,,,7.992560929,-3.471678804
1782646981.143972,,,,4583.000000000,336.000000000,0.000000000,,
1782646981.143998,0.139688134,-0.060496330,0.000000000,,,,8.003547298,-3.466187328
1782646981.154060,,,,4497.000000000,319.000000000,0.000000000,,
1782646981.154099,0.139879882,-0.060592175,0.000000000,,,,8.014533666,-3.471678804
1782646981.164130,,,,4493.000000000,319.000000000,0.000000000,,
1782646981.164175,0.140239403,-0.060448647,0.000000000,,,,8.035132680,-3.463455250
1782646981.174049,,,,4678.000000000,256.000000000,0.000000000,,
1782646981.174083,0.141030356,-0.060160637,0.000000000,,,,8.080451024,-3.446953499
1782646981.183832,,,,4741.000000000,337.000000000,0.000000000,,
1782646981.183857,0.141341954,-0.060184956,0.000000000,,,,8.098304300,-3.448346859
1782646981.193891,,,,4747.000000000,332.000000000,0.000000000,,
1782646981.193908,0.141605601,-0.060208797,0.000000000,,,,8.113410129,-3.449712898
1782646981.203905,,,,4606.000000000,324.000000000,0.000000000,,
1782646981.203929,0.141509727,-0.060089111,0.000000000,,,,8.107916945,-3.442855382
1782646981.214009,,,,4549.000000000,307.000000000,0.000000000,,
1782646981.214047,0.141845286,-0.060064793,0.000000000,,,,8.127143090,-3.441462022
1782646981.223941,,,,4569.000000000,342.000000000,0.000000000,,
1782646981.223978,0.142228782,-0.060040951,0.000000000,,,,8.149115827,-3.440095983
1782646981.233891,,,,4732.000000000,293.000000000,0.000000000,,
1782646981.233903,0.143019751,-0.059729576,0.000000000,,,,8.194435024,-3.422255514
1782646981.244001,,,,4813.000000000,303.000000000,0.000000000,,
1782646981.244034,0.143331334,-0.059609413,0.000000000,,,,8.212287447,-3.415370677
1782646981.253993,,,,4834.000000000,332.000000000,0.000000000,,
1782646981.254025,0.143594980,-0.059609413,0.000000000,,,,8.227393276,-3.415370677
1782646981.263937,,,,4590.000000000,340.000000000,0.000000000,,
1782646981.263962,0.143547043,-0.059705257,0.000000000,,,,8.224646684,-3.420862154
1782646981.273979,,,,4512.000000000,306.000000000,0.000000000,,
1782646981.273999,0.143882602,-0.059561729,0.000000000,,,,8.243872829,-3.412638599
1782646981.284007,,,,4478.000000000,264.000000000,0.000000000,,
1782646981.284041,0.144769445,-0.059465885,0.000000000,,,,8.294685211,-3.407147123
1782646981.293906,,,,4646.000000000,317.000000000,0.000000000,,
1782646981.293923,0.145081028,-0.059441566,0.000000000,,,,8.312537633,-3.405753763
1782646981.303832,,,,4666.000000000,322.000000000,0.000000000,,
1782646981.303865,0.145344689,-0.059345722,0.000000000,,,,8.327644316,-3.400262286
1782646981.313993,,,,4780.000000000,303.000000000,0.000000000,,
1782646981.314027,0.145296752,-0.059370041,0.000000000,,,,8.324897724,-3.401655646
1782646981.324034,,,,4610.000000000,334.000000000,0.000000000,,
1782646981.324052,0.145632312,-0.059345722,0.000000000,,,,8.344123869,-3.400262286
1782646981.333971,,,,4452.000000000,317.000000000,0.000000000,,
1782646981.333997,0.145967856,-0.059274197,0.000000000,,,,8.363349160,-3.396164169
1782646981.343945,,,,4467.000000000,319.000000000,0.000000000,,
1782646981.343979,0.146830723,-0.058842659,0.000000000,,,,8.412787819,-3.371438864
1782646981.353891,,,,4659.000000000,340.000000000,0.000000000,,
1782646981.353913,0.147214219,-0.058842659,0.000000000,,,,8.434760556,-3.371438864
1782646981.364048,,,,4747.000000000,318.000000000,0.000000000,,
1782646981.364075,0.147525817,-0.058842659,0.000000000,,,,8.452613832,-3.371438864
1782646981.373979,,,,4725.000000000,302.000000000,0.000000000,,
1782646981.373992,0.147525817,-0.058938503,0.000000000,,,,8.452613832,-3.376930340
1782646981.383904,,,,4682.000000000,340.000000000,0.000000000,,
1782646981.383939,0.147669628,-0.058818340,0.000000000,,,,8.460853608,-3.370045504
1782646981.393883,,,,4548.000000000,262.000000000,0.000000000,,
1782646981.393905,0.148508519,-0.058794498,0.000000000,,,,8.508918544,-3.368679465
1782646981.403893,,,,4524.000000000,302.000000000,0.000000000,,
1782646981.403932,0.148868039,-0.058650970,0.000000000,,,,8.529517558,-3.360455910
1782646981.414134,,,,4630.000000000,270.000000000,0.000000000,,
1782646981.414180,0.149227574,-0.058483124,0.000000000,,,,8.550117426,-3.350838996
1782646981.423908,,,,4815.000000000,338.000000000,0.000000000,,
1782646981.423925,0.149155661,-0.058339119,0.000000000,,,,8.545997111,-3.342588120
1782646981.433849,,,,4867.000000000,354.000000000,0.000000000,,
1782646981.433889,0.149395347,-0.058578968,0.000000000,,,,8.559730072,-3.356330472
1782646981.443774,,,,4642.000000000,295.000000000,0.000000000,,
1782646981.443789,0.149706945,-0.058483124,0.000000000,,,,8.577583347,-3.350838996
1782646981.453874,,,,4521.000000000,279.000000000,0.000000000,,
1782646981.453890,0.150593773,-0.058362961,0.000000000,,,,8.628394875,-3.343954159
1782646981.463663,,,,4530.000000000,325.000000000,0.000000000,,
1782646981.463697,0.150929332,-0.058171272,0.000000000,,,,8.647621020,-3.332971206
1782646981.473579,,,,4630.000000000,289.000000000,0.000000000,,
1782646981.473592,0.150929332,-0.058147430,0.000000000,,,,8.647621020,-3.331605167
1782646981.483719,,,,4735.000000000,332.000000000,0.000000000,,
1782646981.483763,0.151025206,-0.058123589,0.000000000,,,,8.653114204,-3.330239128
1782646981.493787,,,,4807.000000000,306.000000000,0.000000000,,
1782646981.493820,0.151240930,-0.058099747,0.000000000,,,,8.665474296,-3.328873089
1782646981.503818,,,,4702.000000000,329.000000000,0.000000000,,
1782646981.503838,0.151480600,-0.058099747,0.000000000,,,,8.679206403,-3.328873089
1782646981.513950,,,,4490.000000000,332.000000000,0.000000000,,
1782646981.513989,0.152295530,-0.057787895,0.000000000,,,,8.725898469,-3.311005299
1782646981.523931,,,,4466.000000000,291.000000000,0.000000000,,
1782646981.523967,0.152679026,-0.057668209,0.000000000,,,,8.747871206,-3.304147783
1782646981.533853,,,,4569.000000000,263.000000000,0.000000000,,
1782646981.533883,0.153062522,-0.057596207,0.000000000,,,,8.769843943,-3.300022345
1782646981.543953,,,,4698.000000000,319.000000000,0.000000000,,
1782646981.543981,0.153134435,-0.057764053,0.000000000,,,,8.773964258,-3.309639260
1782646981.553982,,,,4705.000000000,302.000000000,0.000000000,,
1782646981.554020,0.153374121,-0.057692051,0.000000000,,,,8.787697219,-3.305513822
1782646981.563814,,,,4704.000000000,310.000000000,0.000000000,,
1782646981.563831,0.153661743,-0.057620049,0.000000000,,,,8.804176772,-3.301388384
1782646981.573826,,,,4568.000000000,310.000000000,0.000000000,,
1782646981.573848,0.154356822,-0.057524204,0.000000000,,,,8.844001931,-3.295896908
1782646981.583821,,,,4483.000000000,303.000000000,0.000000000,,
1782646981.583839,0.154740319,-0.057404518,0.000000000,,,,8.865974668,-3.289039392
1782646981.593786,,,,4583.000000000,307.000000000,0.000000000,,
1782646981.593802,0.155027941,-0.057332516,0.000000000,,,,8.882454221,-3.284913954
1782646981.603722,,,,4731.000000000,291.000000000,0.000000000,,
1782646981.603758,0.155267626,-0.057332516,0.000000000,,,,8.896187182,-3.284913954
1782646981.613810,,,,4754.000000000,306.000000000,0.000000000,,
1782646981.613849,0.155483335,-0.057308674,0.000000000,,,,8.908546420,-3.283547915
1782646981.623835,,,,4756.000000000,369.000000000,0.000000000,,
1782646981.623855,0.156034619,-0.056972980,0.000000000,,,,8.940132656,-3.264314086
1782646981.633728,,,,4579.000000000,310.000000000,0.000000000,,
1782646981.633752,0.156418115,-0.056949139,0.000000000,,,,8.962105393,-3.262948047
1782646981.643926,,,,4553.000000000,290.000000000,0.000000000,,
1782646981.643970,0.156801596,-0.056925297,0.000000000,,,,8.984077277,-3.261582008
1782646981.653920,,,,4606.000000000,329.000000000,0.000000000,,
1782646981.653964,0.157137156,-0.056900978,0.000000000,,,,9.003303421,-3.260188648
1782646981.663955,,,,4768.000000000,328.000000000,0.000000000,,
1782646981.663986,0.157352880,-0.056805134,0.000000000,,,,9.015663513,-3.254697172
1782646981.673925,,,,4854.000000000,303.000000000,0.000000000,,
1782646981.673954,0.157592565,-0.056781292,0.000000000,,,,9.029396474,-3.253331133
1782646981.683933,,,,4795.000000000,315.000000000,0.000000000,,
1782646981.683967,0.158143833,-0.056613445,0.000000000,,,,9.060981856,-3.243714218
1782646981.693769,,,,4541.000000000,371.000000000,0.000000000,,
1782646981.693796,0.158527330,-0.056445599,0.000000000,,,,9.082954594,-3.234097304
1782646981.703646,,,,4444.000000000,295.000000000,0.000000000,,
1782646981.703662,0.159078613,-0.056469440,0.000000000,,,,9.114540830,-3.235463343
1782646981.713841,,,,4537.000000000,285.000000000,0.000000000,,
1782646981.713858,0.159318283,-0.056469440,0.000000000,,,,9.128272937,-3.235463343
1782646981.723682,,,,4686.000000000,321.000000000,0.000000000,,
1782646981.723702,0.159534007,-0.056349754,0.000000000,,,,9.140633028,-3.228605827
1782646981.733730,,,,4727.000000000,306.000000000,0.000000000,,
1782646981.733774,0.159821630,-0.056253910,0.000000000,,,,9.157112581,-3.223114350
1782646981.743705,,,,4707.000000000,311.000000000,0.000000000,,
1782646981.743733,0.160205126,-0.056206226,0.000000000,,,,9.179085318,-3.220382272
1782646981.753818,,,,4552.000000000,276.000000000,0.000000000,,
1782646981.753853,0.160612583,-0.056086063,0.000000000,,,,9.202430925,-3.213497436
1782646981.763982,,,,4439.000000000,295.000000000,0.000000000,,
1782646981.764023,0.161139891,-0.055822372,0.000000000,,,,9.232643438,-3.198389045
1782646981.773884,,,,4524.000000000,299.000000000,0.000000000,,
1782646981.773911,0.161379576,-0.055822372,0.000000000,,,,9.246376399,-3.198389045
1782646981.783740,,,,4733.000000000,295.000000000,0.000000000,,
1782646981.783774,0.161547363,-0.055822372,0.000000000,,,,9.255989898,-3.198389045
1782646981.793717,,,,4728.000000000,301.000000000,0.000000000,,
1782646981.793732,0.161906883,-0.055654526,0.000000000,,,,9.276588913,-3.188772130
1782646981.803771,,,,4728.000000000,314.000000000,0.000000000,,
1782646981.803808,0.162266403,-0.055558681,0.000000000,,,,9.297187927,-3.183280653
1782646981.813708,,,,4629.000000000,313.000000000,0.000000000,,
1782646981.813737,0.163009435,-0.055534840,0.000000000,,,,9.339760532,-3.181914614
1782646981.823652,,,,4587.000000000,317.000000000,0.000000000,,
1782646981.823691,0.163249120,-0.055462837,0.000000000,,,,9.353493492,-3.177789177
1782646981.833524,,,,4559.000000000,276.000000000,0.000000000,,
1782646981.833540,0.163464829,-0.055366993,0.000000000,,,,9.365852730,-3.172297700
1782646981.843637,,,,4805.000000000,369.000000000,0.000000000,,
1782646981.843664,0.163656577,-0.055415154,0.000000000,,,,9.376839099,-3.175057099
1782646981.853815,,,,4852.000000000,350.000000000,0.000000000,,
1782646981.853859,0.164040074,-0.055294991,0.000000000,,,,9.398811836,-3.168172262
1782646981.863715,,,,4836.000000000,336.000000000,0.000000000,,
1782646981.863741,0.164399609,-0.055127621,0.000000000,,,,9.419411704,-3.158582668
1782646981.873629,,,,4568.000000000,310.000000000,0.000000000,,
1782646981.873652,0.165142626,-0.054983616,0.000000000,,,,9.461983455,-3.150331793
1782646981.883848,,,,4553.000000000,328.000000000,0.000000000,,
1782646981.883876,0.165430248,-0.054983616,0.000000000,,,,9.478463008,-3.150331793
1782646981.893786,,,,4549.000000000,314.000000000,0.000000000,,
1782646981.893809,0.165358335,-0.054911613,0.000000000,,,,9.474342693,-3.146206355
1782646981.903652,,,,4697.000000000,330.000000000,0.000000000,,
1782646981.903691,0.165717870,-0.054863930,0.000000000,,,,9.494942561,-3.143474277
1782646981.913833,,,,4756.000000000,318.000000000,0.000000000,,
1782646981.913874,0.166125327,-0.054839611,0.000000000,,,,9.518288167,-3.142080918
1782646981.923800,,,,4779.000000000,266.000000000,0.000000000,,
1782646981.923828,0.166892320,-0.054528236,0.000000000,,,,9.562233641,-3.124240448
1782646981.933911,,,,4595.000000000,349.000000000,0.000000000,,
1782646981.933955,0.167227879,-0.054432392,0.000000000,,,,9.581459786,-3.118748972
1782646981.943811,,,,4477.000000000,334.000000000,0.000000000,,
1782646981.943836,0.167515501,-0.054384232,0.000000000,,,,9.597939339,-3.115989573
1782646981.953724,,,,4477.000000000,324.000000000,0.000000000,,
1782646981.953758,0.167515501,-0.054552078,0.000000000,,,,9.597939339,-3.125606487
1782646981.963885,,,,4717.000000000,333.000000000,0.000000000,,
1782646981.963926,0.167851061,-0.054408550,0.000000000,,,,9.617165484,-3.117382933
1782646981.973818,,,,4701.000000000,306.000000000,0.000000000,,
1782646981.973859,0.168186620,-0.054240704,0.000000000,,,,9.636391629,-3.107766018
1782646981.983558,,,,4764.000000000,340.000000000,0.000000000,,
1782646981.983579,0.169049487,-0.054216862,0.000000000,,,,9.685830288,-3.106399979
1782646981.993820,,,,4645.000000000,321.000000000,0.000000000,,
1782646981.993858,0.169313133,-0.054120541,0.000000000,,,,9.700936117,-3.100881182
1782646982.003740,,,,4571.000000000,295.000000000,0.000000000,,
1782646982.003781,0.169313133,-0.054168701,0.000000000,,,,9.700936117,-3.103640580
1782646982.013639,,,,4517.000000000,282.000000000,0.000000000,,
1782646982.013654,0.169648692,-0.054144859,0.000000000,,,,9.720162262,-3.102274541
1782646982.023655,,,,4764.000000000,330.000000000,0.000000000,,
1782646982.023668,0.169960275,-0.054049015,0.000000000,,,,9.738014684,-3.096783065
1782646982.033807,,,,4768.000000000,294.000000000,0.000000000,,
1782646982.033840,0.170823142,-0.053617477,0.000000000,,,,9.787453343,-3.072057759
1782646982.043661,,,,4801.000000000,291.000000000,0.000000000,,
1782646982.043669,0.171182677,-0.053617477,0.000000000,,,,9.808053211,-3.072057759
1782646982.053749,,,,4649.000000000,330.000000000,0.000000000,,
1782646982.053779,0.171494260,-0.053617477,0.000000000,,,,9.825905633,-3.072057759
1782646982.063843,,,,4607.000000000,314.000000000,0.000000000,,
1782646982.063884,0.171398386,-0.053593636,0.000000000,,,,9.820412449,-3.070691720
1782646982.073843,,,,4564.000000000,298.000000000,0.000000000,,
1782646982.073876,0.171757922,-0.053545475,0.000000000,,,,9.841012317,-3.067932321
1782646982.083730,,,,4736.000000000,328.000000000,0.000000000,,
1782646982.083766,0.172548875,-0.053353786,0.000000000,,,,9.886330660,-3.056949368
1782646982.093848,,,,4774.000000000,319.000000000,0.000000000,,
1782646982.093883,0.172908396,-0.053209782,0.000000000,,,,9.906929674,-3.048698492
1782646982.103715,,,,4922.000000000,321.000000000,0.000000000,,
1782646982.103735,0.173267931,-0.053066254,0.000000000,,,,9.927529542,-3.040474938
1782646982.113697,,,,4610.000000000,301.000000000,0.000000000,,
1782646982.113731,0.173267931,-0.053234100,0.000000000,,,,9.927529542,-3.050091852
1782646982.123860,,,,4481.000000000,305.000000000,0.000000000,,
1782646982.123895,0.173531577,-0.053185940,0.000000000,,,,9.942635372,-3.047332453
1782646982.133821,,,,4493.000000000,298.000000000,0.000000000,,
1782646982.133868,0.173843175,-0.053066254,0.000000000,,,,9.960488648,-3.040474938
1782646982.143773,,,,4646.000000000,268.000000000,0.000000000,,
1782646982.143790,0.174730003,-0.052826405,0.000000000,,,,10.011300176,-3.026732585
1782646982.153925,,,,4692.000000000,290.000000000,0.000000000,,
1782646982.153954,0.175065562,-0.052778721,0.000000000,,,,10.030526321,-3.024000507
1782646982.163906,,,,4768.000000000,322.000000000,0.000000000,,
1782646982.163951,0.175353184,-0.052706718,0.000000000,,,,10.047005873,-3.019875070
1782646982.173807,,,,4666.000000000,319.000000000,0.000000000,,
1782646982.173852,0.175401121,-0.052706718,0.000000000,,,,10.049752465,-3.019875070
1782646982.183790,,,,4525.000000000,311.000000000,0.000000000,,
1782646982.183825,0.175664768,-0.052658558,0.000000000,,,,10.064858295,-3.017115671
1782646982.193641,,,,4490.000000000,309.000000000,0.000000000,,
1782646982.193668,0.176479697,-0.052347183,0.000000000,,,,10.111550362,-2.999275202
1782646982.203731,,,,4655.000000000,302.000000000,0.000000000,,
1782646982.203784,0.176839232,-0.052227020,0.000000000,,,,10.132150230,-2.992390365
1782646982.213824,,,,4836.000000000,354.000000000,0.000000000,,
1782646982.213871,0.177222729,-0.052155495,0.000000000,,,,10.154122967,-2.988292248
1782646982.223603,,,,4841.000000000,350.000000000,0.000000000,,
1782646982.223621,0.177270666,-0.052275181,0.000000000,,,,10.156869559,-2.995149764
1782646982.233615,,,,4741.000000000,367.000000000,0.000000000,,
1782646982.233647,0.177534312,-0.052179337,0.000000000,,,,10.171975389,-2.989658287
1782646982.243720,,,,4664.000000000,373.000000000,0.000000000,,
1782646982.243776,0.177845895,-0.052107334,0.000000000,,,,10.189827811,-2.985532849
1782646982.253804,,,,4557.000000000,328.000000000,0.000000000,,
1782646982.253849,0.178564951,-0.051963806,0.000000000,,,,10.231026693,-2.977309295
1782646982.263731,,,,4721.000000000,306.000000000,0.000000000,,
1782646982.263770,0.178948447,-0.051819801,0.000000000,,,,10.252999430,-2.969058419
1782646982.273727,,,,4814.000000000,298.000000000,0.000000000,,
1782646982.273771,0.179331943,-0.051771641,0.000000000,,,,10.274972167,-2.966299021
1782646982.283727,,,,4930.000000000,329.000000000,0.000000000,,
1782646982.283780,0.179403856,-0.051771641,0.000000000,,,,10.279092482,-2.966299021
1782646982.293769,,,,4676.000000000,318.000000000,0.000000000,,
1782646982.293814,0.179667503,-0.051747799,0.000000000,,,,10.294198312,-2.964932982
1782646982.303545,,,,4556.000000000,325.000000000,0.000000000,,
1782646982.303573,0.180338621,-0.051436424,0.000000000,,,,10.332650602,-2.947092512
1782646982.313723,,,,4514.000000000,274.000000000,0.000000000,,
1782646982.313761,0.180698141,-0.051388264,0.000000000,,,,10.353249616,-2.944333114
1782646982.323663,,,,4626.000000000,260.000000000,0.000000000,,
1782646982.323691,0.181081638,-0.051364422,0.000000000,,,,10.375222353,-2.942967075
1782646982.333508,,,,4713.000000000,306.000000000,0.000000000,,
1782646982.333529,0.181345299,-0.051340580,0.000000000,,,,10.390329037,-2.941601036
1782646982.343728,,,,4846.000000000,352.000000000,0.000000000,,
1782646982.343745,0.181561008,-0.051268578,0.000000000,,,,10.402688275,-2.937475598
1782646982.353842,,,,4702.000000000,313.000000000,0.000000000,,
1782646982.353875,0.181776732,-0.051220417,0.000000000,,,,10.415048366,-2.934716199
1782646982.363807,,,,4513.000000000,326.000000000,0.000000000,,
1782646982.363854,0.182471812,-0.051028728,0.000000000,,,,10.454873525,-2.923733246
1782646982.373801,,,,4483.000000000,313.000000000,0.000000000,,
1782646982.373838,0.182855308,-0.051028728,0.000000000,,,,10.476846263,-2.923733246
1782646982.383620,,,,4672.000000000,322.000000000,0.000000000,,
1782646982.383637,0.183238804,-0.050885201,0.000000000,,,,10.498819000,-2.915509691
1782646982.393659,,,,4766.000000000,313.000000000,0.000000000,,
1782646982.393691,0.183502451,-0.050909042,0.000000000,,,,10.513924830,-2.916875730
1782646982.403713,,,,4814.000000000,353.000000000,0.000000000,,
1782646982.403736,0.183502451,-0.050885201,0.000000000,,,,10.513924830,-2.915509691
1782646982.413788,,,,4740.000000000,325.000000000,0.000000000,,
1782646982.413833,0.183718175,-0.050789356,0.000000000,,,,10.526284921,-2.910018214
1782646982.423723,,,,4630.000000000,286.000000000,0.000000000,,
1782646982.423742,0.184149608,-0.050669193,0.000000000,,,,10.551004250,-2.903133378
1782646982.433666,,,,4592.000000000,346.000000000,0.000000000,,
1782646982.433709,0.184557065,-0.050621510,0.000000000,,,,10.574349857,-2.900401300
1782646982.443620,,,,4689.000000000,321.000000000,0.000000000,,
1782646982.443638,0.184964538,-0.050477505,0.000000000,,,,10.597696317,-2.892150424
1782646982.453609,,,,4830.000000000,310.000000000,0.000000000,,
1782646982.453636,0.185371995,-0.050309658,0.000000000,,,,10.621041923,-2.882533510
1782646982.463702,,,,4883.000000000,333.000000000,0.000000000,,
1782646982.463718,0.185875326,-0.050309658,0.000000000,,,,10.649880714,-2.882533510
1782646982.473676,,,,4712.000000000,310.000000000,0.000000000,,
1782646982.473716,0.185875326,-0.050309658,0.000000000,,,,10.649880714,-2.882533510
1782646982.483767,,,,4567.000000000,267.000000000,0.000000000,,
1782646982.483791,0.186330736,-0.050045967,0.000000000,,,,10.675973766,-2.867425119
1782646982.493638,,,,4563.000000000,309.000000000,0.000000000,,
1782646982.493663,0.186690256,-0.049974442,0.000000000,,,,10.696572780,-2.863327002
1782646982.503841,,,,4680.000000000,289.000000000,0.000000000,,
1782646982.503886,0.187289476,-0.049974442,0.000000000,,,,10.730905609,-2.863327002
1782646982.513670,,,,4817.000000000,340.000000000,0.000000000,,
1782646982.513692,0.187529162,-0.049878120,0.000000000,,,,10.744638569,-2.857808204
1782646982.523652,,,,4896.000000000,332.000000000,0.000000000,,
1782646982.523681,0.187744871,-0.049806595,0.000000000,,,,10.756997807,-2.853710087
1782646982.533808,,,,4762.000000000,350.000000000,0.000000000,,
1782646982.533850,0.188080430,-0.049782276,0.000000000,,,,10.776223952,-2.852316727
1782646982.543761,,,,4520.000000000,330.000000000,0.000000000,,
1782646982.543792,0.188463926,-0.049638748,0.000000000,,,,10.798196689,-2.844093173
1782646982.553818,,,,4489.000000000,286.000000000,0.000000000,,
1782646982.553853,0.188847423,-0.049470901,0.000000000,,,,10.820169426,-2.834476258
1782646982.563747,,,,4685.000000000,307.000000000,0.000000000,,
1782646982.563790,0.189422667,-0.049398899,0.000000000,,,,10.853128532,-2.830350820
1782646982.573549,,,,4750.000000000,276.000000000,0.000000000,,
1782646982.573584,0.189686313,-0.049375057,0.000000000,,,,10.868234362,-2.828984781
1782646982.583742,,,,4750.000000000,290.000000000,0.000000000,,
1782646982.583780,0.189925998,-0.049255371,0.000000000,,,,10.881967323,-2.822127266
1782646982.593500,,,,4723.000000000,301.000000000,0.000000000,,
1782646982.593534,0.190213621,-0.049207211,0.000000000,,,,10.898446875,-2.819367867
1782646982.603702,,,,4630.000000000,303.000000000,0.000000000,,
1782646982.603744,0.190597117,-0.049159527,0.000000000,,,,10.920419613,-2.816635789
1782646982.613528,,,,4522.000000000,301.000000000,0.000000000,,
1782646982.613554,0.191244259,-0.048871517,0.000000000,,,,10.957498180,-2.800134038
1782646982.623693,,,,4637.000000000,270.000000000,0.000000000,,
1782646982.623722,0.191555858,-0.048775673,0.000000000,,,,10.975351455,-2.794642561
1782646982.633717,,,,4846.000000000,322.000000000,0.000000000,,
1782646982.633764,0.191819504,-0.048751831,0.000000000,,,,10.990457285,-2.793276522
1782646982.643757,,,,4840.000000000,334.000000000,0.000000000,,
1782646982.643789,0.191987291,-0.048751831,0.000000000,,,,11.000070785,-2.793276522
1782646982.653630,,,,4764.000000000,350.000000000,0.000000000,,
1782646982.653658,0.192370787,-0.048607826,0.000000000,,,,11.022043522,-2.785025647
1782646982.663725,,,,4651.000000000,372.000000000,0.000000000,,
1782646982.663770,0.192730308,-0.048536301,0.000000000,,,,11.042642536,-2.780927530
1782646982.673645,,,,4626.000000000,356.000000000,0.000000000,,
1782646982.673689,0.193425402,-0.048488140,0.000000000,,,,11.082468549,-2.778168131
1782646982.683491,,,,4701.000000000,329.000000000,0.000000000,,
1782646982.683514,0.193689048,-0.048392296,0.000000000,,,,11.097574379,-2.772676654
1782646982.693559,,,,4830.000000000,345.000000000,0.000000000,,
1782646982.693592,0.193784922,-0.048392296,0.000000000,,,,11.103067563,-2.772676654
1782646982.703374,,,,4903.000000000,290.000000000,0.000000000,,
1782646982.703399,0.194168419,-0.048344135,0.000000000,,,,11.125040300,-2.769917256
1782646982.713678,,,,4778.000000000,341.000000000,0.000000000,,
1782646982.713724,0.194503978,-0.048224449,0.000000000,,,,11.144266445,-2.763059740
1782646982.723491,,,,4567.000000000,272.000000000,0.000000000,,
1782646982.723513,0.195270970,-0.047888756,0.000000000,,,,11.188211919,-2.743825911
1782646982.733581,,,,4479.000000000,274.000000000,0.000000000,,
1782646982.733608,0.195582554,-0.047913074,0.000000000,,,,11.206064341,-2.745219271
1782646982.743819,,,,4630.000000000,297.000000000,0.000000000,,
1782646982.743864,0.195870176,-0.047888756,0.000000000,,,,11.222543894,-2.743825911
1782646982.753740,,,,4724.000000000,295.000000000,0.000000000,,
1782646982.753761,0.195870176,-0.047792912,0.000000000,,,,11.222543894,-2.738334434
1782646982.763756,,,,4771.000000000,287.000000000,0.000000000,,
1782646982.763790,0.196301609,-0.047745228,0.000000000,,,,11.247263223,-2.735602356
1782646982.773773,,,,4702.000000000,283.000000000,0.000000000,,
1782646982.773818,0.196685106,-0.047697067,0.000000000,,,,11.269235961,-2.732842958
1782646982.783661,,,,4598.000000000,279.000000000,0.000000000,,
1782646982.783687,0.197380185,-0.047409534,0.000000000,,,,11.309061120,-2.716368527
1782646982.793584,,,,4529.000000000,338.000000000,0.000000000,,
1782646982.793602,0.197715744,-0.047289848,0.000000000,,,,11.328287265,-2.709511012
1782646982.803447,,,,4646.000000000,268.000000000,0.000000000,,
1782646982.803465,0.197739720,-0.047481537,0.000000000,,,,11.329660988,-2.720493965
1782646982.813678,,,,4811.000000000,328.000000000,0.000000000,,
1782646982.813720,0.198075280,-0.047337532,0.000000000,,,,11.348887133,-2.712243090
1782646982.823380,,,,4872.000000000,349.000000000,0.000000000,,
1782646982.823402,0.198434800,-0.047194004,0.000000000,,,,11.369486147,-2.704019535
1782646982.833429,,,,4758.000000000,342.000000000,0.000000000,,
1782646982.833443,0.199273691,-0.047049999,0.000000000,,,,11.417551082,-2.695768659
1782646982.843364,,,,4681.000000000,324.000000000,0.000000000,,
1782646982.843378,0.199561313,-0.047002316,0.000000000,,,,11.434030635,-2.693036581
1782646982.853322,,,,4707.000000000,357.000000000,0.000000000,,
1782646982.853336,0.199848935,-0.046906471,0.000000000,,,,11.450510188,-2.687545105
1782646982.863591,,,,4774.000000000,321.000000000,0.000000000,,
1782646982.863616,0.199920848,-0.046954155,0.000000000,,,,11.454630503,-2.690277183
1782646982.873429,,,,4880.000000000,317.000000000,0.000000000,,
1782646982.873441,0.200256407,-0.046882153,0.000000000,,,,11.473856648,-2.686151745
1782646982.883558,,,,4985.000000000,341.000000000,0.000000000,,
1782646982.883591,0.200615928,-0.046426773,0.000000000,,,,11.494455662,-2.660060400
1782646982.893444,,,,4751.000000000,354.000000000,0.000000000,,
1782646982.893461,0.201430857,-0.046379089,0.000000000,,,,11.541147729,-2.657328322
1782646982.903486,,,,4603.000000000,301.000000000,0.000000000,,
1782646982.903500,0.201742440,-0.046379089,0.000000000,,,,11.559000151,-2.657328322
1782646982.913795,,,,4575.000000000,280.000000000,0.000000000,,
1782646982.913831,0.201718479,-0.046426773,0.000000000,,,,11.557627281,-2.660060400
1782646982.923437,,,,4713.000000000,293.000000000,0.000000000,,
1782646982.923454,0.202054039,-0.046330929,0.000000000,,,,11.576853426,-2.654568924
1782646982.933478,,,,4818.000000000,334.000000000,0.000000000,,
1782646982.933506,0.202437535,-0.046258926,0.000000000,,,,11.598826164,-2.650443486
1782646982.943437,,,,4873.000000000,371.000000000,0.000000000,,
1782646982.943455,0.203204527,-0.046043396,0.000000000,,,,11.642771638,-2.638094493
1782646982.953520,,,,4717.000000000,354.000000000,0.000000000,,
1782646982.953534,0.203564048,-0.045899391,0.000000000,,,,11.663370652,-2.629843618
1782646982.963526,,,,4590.000000000,356.000000000,0.000000000,,
1782646982.963539,0.203875646,-0.045803547,0.000000000,,,,11.681223928,-2.624352141
1782646982.973427,,,,4557.000000000,322.000000000,0.000000000,,
1782646982.973441,0.203947544,-0.045971394,0.000000000,,,,11.685343389,-2.633969056
1782646982.983592,,,,4760.000000000,333.000000000,0.000000000,,
1782646982.983618,0.204283103,-0.045851707,0.000000000,,,,11.704569534,-2.627111540
1782646982.993577,,,,4775.000000000,295.000000000,0.000000000,,
1782646982.993608,0.205121994,-0.045588017,0.000000000,,,,11.752634470,-2.612003149
1782646983.003596,,,,4871.000000000,348.000000000,0.000000000,,
1782646983.003608,0.205433592,-0.045564175,0.000000000,,,,11.770487745,-2.610637110
1782646983.013616,,,,4708.000000000,321.000000000,0.000000000,,
1782646983.013634,0.205769151,-0.045516014,0.000000000,,,,11.789713890,-2.607877711
1782646983.023432,,,,4657.000000000,302.000000000,0.000000000,,
1782646983.023451,0.205841050,-0.045492172,0.000000000,,,,11.793833352,-2.606511672
1782646983.033603,,,,4637.000000000,326.000000000,0.000000000,,
1782646983.033633,0.206128672,-0.045444012,0.000000000,,,,11.810312905,-2.603752273
1782646983.043569,,,,4834.000000000,306.000000000,0.000000000,,
1782646983.043594,0.206488207,-0.045396328,0.000000000,,,,11.830912772,-2.601020195
1782646983.053707,,,,4899.000000000,297.000000000,0.000000000,,
1782646983.053758,0.207255185,-0.044964790,0.000000000,,,,11.874857393,-2.576294890
1782646983.063293,,,,4856.000000000,317.000000000,0.000000000,,
1782646983.063310,0.207614720,-0.044940948,0.000000000,,,,11.895457261,-2.574928851
1782646983.073255,,,,4607.000000000,262.000000000,0.000000000,,
1782646983.073269,0.207926303,-0.044940948,0.000000000,,,,11.913309683,-2.574928851
1782646983.083276,,,,4635.000000000,332.000000000,0.000000000,,
1782646983.083289,0.207950279,-0.044940948,0.000000000,,,,11.914683406,-2.574928851
1782646983.093530,,,,4668.000000000,325.000000000,0.000000000,,
1782646983.093555,0.208285838,-0.044845104,0.000000000,,,,11.933909551,-2.569437374
1782646983.103554,,,,4797.000000000,329.000000000,0.000000000,,
1782646983.103587,0.209052831,-0.044677258,0.000000000,,,,11.977855025,-2.559820459
1782646983.113351,,,,4875.000000000,360.000000000,0.000000000,,
1782646983.113370,0.209388390,-0.044581413,0.000000000,,,,11.997081170,-2.554328983
1782646983.123485,,,,4783.000000000,298.000000000,0.000000000,,
1782646983.123517,0.209747910,-0.044629097,0.000000000,,,,12.017680184,-2.557061061
1782646983.133536,,,,4573.000000000,282.000000000,0.000000000,,
1782646983.133577,0.209843785,-0.044605255,0.000000000,,,,12.023173368,-2.555695022
1782646983.143303,,,,4520.000000000,314.000000000,0.000000000,,
1782646983.143317,0.210155368,-0.044485569,0.000000000,,,,12.041025791,-2.548837506
1782646983.153328,,,,4649.000000000,336.000000000,0.000000000,,
1782646983.153353,0.210514903,-0.044126034,0.000000000,,,,12.061625658,-2.528237638
1782646983.163602,,,,4797.000000000,306.000000000,0.000000000,,
1782646983.163643,0.211329833,-0.044101715,0.000000000,,,,12.108317725,-2.526844278
1782646983.173511,,,,4861.000000000,353.000000000,0.000000000,,
1782646983.173533,0.211641416,-0.044077873,0.000000000,,,,12.126170147,-2.525478239
1782646983.183406,,,,4799.000000000,342.000000000,0.000000000,,
1782646983.183439,0.211929038,-0.044054031,0.000000000,,,,12.142649700,-2.524112200
1782646983.193557,,,,4705.000000000,306.000000000,0.000000000,,
1782646983.193596,0.212024912,-0.043982029,0.000000000,,,,12.148142884,-2.519986762
1782646983.203459,,,,4631.000000000,290.000000000,0.000000000,,
1782646983.203483,0.212360471,-0.043718338,0.000000000,,,,12.167369029,-2.504878371
1782646983.213560,,,,4725.000000000,282.000000000,0.000000000,,
1782646983.213577,0.213103488,-0.043550491,0.000000000,,,,12.209940780,-2.495261457
1782646983.223523,,,,4881.000000000,338.000000000,0.000000000,,
1782646983.223558,0.213486984,-0.043478966,0.000000000,,,,12.231913517,-2.491163340
1782646983.233612,,,,4896.000000000,294.000000000,0.000000000,,
1782646983.233652,0.213822544,-0.043646336,0.000000000,,,,12.251139662,-2.500752933
1782646983.243586,,,,4778.000000000,329.000000000,0.000000000,,
1782646983.243620,0.213822544,-0.043526649,0.000000000,,,,12.251139662,-2.493895418
1782646983.253603,,,,4676.000000000,360.000000000,0.000000000,,
1782646983.253636,0.214158103,-0.043406963,0.000000000,,,,12.270365807,-2.487037902
1782646983.263632,,,,4602.000000000,324.000000000,0.000000000,,
1782646983.263674,0.214493662,-0.043215275,0.000000000,,,,12.289591952,-2.476054949
1782646983.273503,,,,4756.000000000,329.000000000,0.000000000,,
1782646983.273516,0.215284616,-0.043143272,0.000000000,,,,12.334910296,-2.471929511
1782646983.283577,,,,4832.000000000,349.000000000,0.000000000,,
1782646983.283610,0.215596214,-0.043143272,0.000000000,,,,12.352763572,-2.471929511
1782646983.293556,,,,4969.000000000,326.000000000,0.000000000,,
1782646983.293596,0.215740025,-0.043095112,0.000000000,,,,12.361003348,-2.469170112
1782646983.303522,,,,4686.000000000,326.000000000,0.000000000,,
1782646983.303543,0.216027647,-0.043071270,0.000000000,,,,12.377482901,-2.467804073
1782646983.313531,,,,4520.000000000,321.000000000,0.000000000,,
1782646983.313559,0.216387168,-0.042615891,0.000000000,,,,12.398081915,-2.441712728
1782646983.323554,,,,4553.000000000,319.000000000,0.000000000,,
1782646983.323593,0.217202097,-0.042567730,0.000000000,,,,12.444773981,-2.438953330
1782646983.333615,,,,4705.000000000,290.000000000,0.000000000,,
1782646983.333657,0.217537656,-0.042543888,0.000000000,,,,12.464000126,-2.437587291
1782646983.343539,,,,4801.000000000,346.000000000,0.000000000,,
1782646983.343556,0.217849240,-0.042567730,0.000000000,,,,12.481852548,-2.438953330
1782646983.353500,,,,4860.000000000,322.000000000,0.000000000,,
1782646983.353532,0.217921153,-0.042496204,0.000000000,,,,12.485972863,-2.434855213
1782646983.363554,,,,4764.000000000,311.000000000,0.000000000,,
1782646983.363595,0.218232736,-0.042424202,0.000000000,,,,12.503825285,-2.430729775
1782646983.373717,,,,4665.000000000,356.000000000,0.000000000,,
1782646983.373767,0.218592271,-0.042136669,0.000000000,,,,12.524425153,-2.414255345
1782646983.383672,,,,4694.000000000,322.000000000,0.000000000,,
1782646983.383712,0.219335288,-0.042136669,0.000000000,,,,12.566996905,-2.414255345
1782646983.393558,,,,4853.000000000,293.000000000,0.000000000,,
1782646983.393578,0.219335288,-0.041968822,0.000000000,,,,12.566996905,-2.404638430
1782646983.403716,,,,4911.000000000,325.000000000,0.000000000,,
1782646983.403761,0.219646886,-0.042160511,0.000000000,,,,12.584850180,-2.415621384
1782646983.413709,,,,4865.000000000,337.000000000,0.000000000,,
1782646983.413756,0.219742760,-0.042064667,0.000000000,,,,12.590343365,-2.410129907
1782646983.423571,,,,4747.000000000,388.000000000,0.000000000,,
1782646983.423587,0.220054343,-0.041920662,0.000000000,,,,12.608195787,-2.401879032
1782646983.433492,,,,4637.000000000,353.000000000,0.000000000,,
1782646983.433524,0.220389903,-0.041705132,0.000000000,,,,12.627421932,-2.389530039
1782646983.443660,,,,4711.000000000,329.000000000,0.000000000,,
1782646983.443702,0.221180856,-0.041656971,0.000000000,,,,12.672740275,-2.386770640
1782646983.453491,,,,4832.000000000,302.000000000,0.000000000,,
1782646983.453506,0.221516415,-0.041585445,0.000000000,,,,12.691966420,-2.382672523
1782646983.463517,,,,4971.000000000,364.000000000,0.000000000,,
1782646983.463549,0.221804038,-0.041585445,0.000000000,,,,12.708445973,-2.382672523
1782646983.473590,,,,4780.000000000,349.000000000,0.000000000,,
1782646983.473622,0.221995786,-0.041561127,0.000000000,,,,12.719432342,-2.381279164
1782646983.483655,,,,4596.000000000,352.000000000,0.000000000,,
1782646983.483695,0.222331345,-0.041465282,0.000000000,,,,12.738658487,-2.375787687
1782646983.493601,,,,4573.000000000,346.000000000,0.000000000,,
1782646983.493641,0.222690880,-0.041034222,0.000000000,,,,12.759258354,-2.351089702
1782646983.503694,,,,4702.000000000,297.000000000,0.000000000,,
1782646983.503721,0.223433897,-0.041058064,0.000000000,,,,12.801830106,-2.352455741
1782646983.513594,,,,4822.000000000,334.000000000,0.000000000,,
1782646983.513620,0.223769456,-0.041105747,0.000000000,,,,12.821056251,-2.355187819
1782646983.523677,,,,4864.000000000,315.000000000,0.000000000,,
1782646983.523719,0.223841354,-0.040986061,0.000000000,,,,12.825175712,-2.348330303
1782646983.533591,,,,4814.000000000,333.000000000,0.000000000,,
1782646983.533624,0.224176913,-0.040914059,0.000000000,,,,12.844401857,-2.344204865
1782646983.543635,,,,4681.000000000,311.000000000,0.000000000,,
1782646983.543669,0.224536449,-0.040698528,0.000000000,,,,12.865001725,-2.331855873
1782646983.553574,,,,4645.000000000,310.000000000,0.000000000,,
1782646983.553612,0.225207567,-0.040554523,0.000000000,,,,12.903454015,-2.323604998
1782646983.563540,,,,4844.000000000,310.000000000,0.000000000,,
1782646983.563553,0.225567088,-0.040410995,0.000000000,,,,12.924053029,-2.315381443
1782646983.573561,,,,4973.000000000,361.000000000,0.000000000,,
1782646983.573593,0.225878671,-0.040602684,0.000000000,,,,12.941905451,-2.326364396
1782646983.583669,,,,4935.000000000,380.000000000,0.000000000,,
1782646983.583710,0.226022482,-0.040482521,0.000000000,,,,12.950145228,-2.319479560
1782646983.593602,,,,4760.000000000,360.000000000,0.000000000,,
1782646983.593628,0.226358041,-0.040171146,0.000000000,,,,12.969371372,-2.301639091
1782646983.603473,,,,4653.000000000,307.000000000,0.000000000,,
1782646983.603488,0.227149010,-0.040147305,0.000000000,,,,13.014690570,-2.300273052
1782646983.613434,,,,4747.000000000,358.000000000,0.000000000,,
1782646983.613461,0.227460593,-0.040099144,0.000000000,,,,13.032542992,-2.297513653
1782646983.623533,,,,4829.000000000,321.000000000,0.000000000,,
1782646983.623576,0.227748215,-0.040075302,0.000000000,,,,13.049022545,-2.296147614
1782646983.633461,,,,4920.000000000,291.000000000,0.000000000,,
1782646983.633474,0.227939963,-0.039931297,0.000000000,,,,13.060008913,-2.287896738
1782646983.643547,,,,4801.000000000,295.000000000,0.000000000,,
1782646983.643579,0.228323460,-0.039955616,0.000000000,,,,13.081981650,-2.289290098
1782646983.653681,,,,4569.000000000,282.000000000,0.000000000,,
1782646983.653721,0.228682980,-0.039835453,0.000000000,,,,13.102580664,-2.282405262
1782646983.663681,,,,4525.000000000,293.000000000,0.000000000,,
1782646983.663722,0.229378074,-0.039524078,0.000000000,,,,13.142406677,-2.264564792
1782646983.673440,,,,4716.000000000,301.000000000,0.000000000,,
1782646983.673457,0.229665697,-0.039524078,0.000000000,,,,13.158886230,-2.264564792
1782646983.683501,,,,4833.000000000,342.000000000,0.000000000,,
1782646983.683536,0.229977280,-0.039500237,0.000000000,,,,13.176738652,-2.263198754
1782646983.693465,,,,4918.000000000,348.000000000,0.000000000,,
1782646983.693496,0.230121091,-0.039403915,0.000000000,,,,13.184978429,-2.257679956
1782646983.703574,,,,4828.000000000,364.000000000,0.000000000,,
1782646983.703591,0.230504587,-0.039332390,0.000000000,,,,13.206951166,-2.253581839
1782646983.713476,,,,4711.000000000,345.000000000,0.000000000,,
1782646983.713492,0.231127769,-0.039140701,0.000000000,,,,13.242656864,-2.242598886
1782646983.723510,,,,4626.000000000,319.000000000,0.000000000,,
1782646983.723527,0.231463328,-0.039020538,0.000000000,,,,13.261883009,-2.235714049
1782646983.733609,,,,4879.000000000,367.000000000,0.000000000,,
1782646983.733648,0.231774911,-0.038924694,0.000000000,,,,13.279735431,-2.230222572
1782646983.743574,,,,4950.000000000,348.000000000,0.000000000,,
1782646983.743587,0.231990635,-0.039020538,0.000000000,,,,13.292095522,-2.235714049
1782646983.753658,,,,4978.000000000,364.000000000,0.000000000,,
1782646983.753691,0.232326195,-0.038852692,0.000000000,,,,13.311321667,-2.226097135
1782646983.763546,,,,4767.000000000,373.000000000,0.000000000,,
1782646983.763585,0.232733652,-0.038709164,0.000000000,,,,13.334667273,-2.217873580
1782646983.773662,,,,4686.000000000,302.000000000,0.000000000,,
1782646983.773704,0.233404770,-0.038637161,0.000000000,,,,13.373119563,-2.213748142
