phattanaratjeedjeen-sudo/wheel_loader/results/csv/multi_weigh_pose2.csv
__time,/vehicle/loader_joint_angles/data[0],/vehicle/loader_joint_angles/data[1],/vehicle/loader_joint_angles/layout/data_offset,/vehicle/loader_joint_pressures/data[0],/vehicle/loader_joint_pressures/data[1],/vehicle/loader_joint_pressures/layout/data_offset,lift,tilt,tilt1
1782647697.234648,,,,4115.000000000,406.000000000,0.000000000,,,
1782647697.234684,0.111716948,-0.067063808,0.000000000,,,,6.400915053,-3.842476427,-3.842476427
1782647697.244668,,,,4057.000000000,367.000000000,0.000000000,,,
1782647697.244696,0.111669011,-0.067039967,0.000000000,,,,6.398168461,-3.841110388,-3.841110388
1782647697.254824,,,,4065.000000000,377.000000000,0.000000000,,,
1782647697.254882,0.111788854,-0.067039967,0.000000000,,,,6.405034941,-3.841110388,-3.841110388
1782647697.264585,,,,4102.000000000,402.000000000,0.000000000,,,
1782647697.264603,0.111764885,-0.067039967,0.000000000,,,,6.403661645,-3.841110388,-3.841110388
1782647697.274836,,,,4124.000000000,410.000000000,0.000000000,,,
1782647697.274884,0.111764885,-0.067039967,0.000000000,,,,6.403661645,-3.841110388,-3.841110388
1782647697.284704,,,,4068.000000000,349.000000000,0.000000000,,,
1782647697.284733,0.111740917,-0.067039967,0.000000000,,,,6.402288349,-3.841110388,-3.841110388
1782647697.294688,,,,4112.000000000,385.000000000,0.000000000,,,
1782647697.294714,0.111716948,-0.067063808,0.000000000,,,,6.400915053,-3.842476427,-3.842476427
1782647697.304678,,,,4102.000000000,383.000000000,0.000000000,,,
1782647697.304694,0.111716948,-0.067063808,0.000000000,,,,6.400915053,-3.842476427,-3.842476427
1782647697.314618,,,,4108.000000000,395.000000000,0.000000000,,,
1782647697.314641,0.111740917,-0.067039967,0.000000000,,,,6.402288349,-3.841110388,-3.841110388
1782647697.324732,,,,4085.000000000,345.000000000,0.000000000,,,
1782647697.324767,0.111740917,-0.067063808,0.000000000,,,,6.402288349,-3.842476427,-3.842476427
1782647697.334552,,,,4036.000000000,372.000000000,0.000000000,,,
1782647697.334569,0.111764885,-0.067039967,0.000000000,,,,6.403661645,-3.841110388,-3.841110388
1782647697.344607,,,,4091.000000000,381.000000000,0.000000000,,,
1782647697.344629,0.111740917,-0.067039967,0.000000000,,,,6.402288349,-3.841110388,-3.841110388
1782647697.354523,,,,4081.000000000,353.000000000,0.000000000,,,
1782647697.354536,0.111740917,-0.067063808,0.000000000,,,,6.402288349,-3.842476427,-3.842476427
1782647697.364614,,,,4099.000000000,385.000000000,0.000000000,,,
1782647697.364636,0.111716948,-0.067063808,0.000000000,,,,6.400915053,-3.842476427,-3.842476427
1782647697.374857,,,,4104.000000000,404.000000000,0.000000000,,,
1782647697.374915,0.111740917,-0.067063808,0.000000000,,,,6.402288349,-3.842476427,-3.842476427
1782647697.384729,,,,4099.000000000,379.000000000,0.000000000,,,
1782647697.384760,0.111740917,-0.067039967,0.000000000,,,,6.402288349,-3.841110388,-3.841110388
1782647697.394631,,,,4083.000000000,384.000000000,0.000000000,,,
1782647697.394657,0.111764885,-0.067039967,0.000000000,,,,6.403661645,-3.841110388,-3.841110388
1782647697.404562,,,,4124.000000000,403.000000000,0.000000000,,,
1782647697.404577,0.111740917,-0.067063808,0.000000000,,,,6.402288349,-3.842476427,-3.842476427
1782647697.414597,,,,4145.000000000,424.000000000,0.000000000,,,
1782647697.414618,0.111740917,-0.067039967,0.000000000,,,,6.402288349,-3.841110388,-3.841110388
1782647697.424700,,,,4061.000000000,354.000000000,0.000000000,,,
1782647697.424716,0.111716948,-0.067063808,0.000000000,,,,6.400915053,-3.842476427,-3.842476427
1782647697.434603,,,,4126.000000000,419.000000000,0.000000000,,,
1782647697.434621,0.111740917,-0.067039967,0.000000000,,,,6.402288349,-3.841110388,-3.841110388
1782647697.444705,,,,4091.000000000,399.000000000,0.000000000,,,
1782647697.444732,0.111740917,-0.067039967,0.000000000,,,,6.402288349,-3.841110388,-3.841110388
1782647697.454655,,,,4150.000000000,419.000000000,0.000000000,,,
1782647697.454675,0.111764885,-0.067039967,0.000000000,,,,6.403661645,-3.841110388,-3.841110388
1782647697.464587,,,,4080.000000000,360.000000000,0.000000000,,,
1782647697.464600,0.111740917,-0.067063808,0.000000000,,,,6.402288349,-3.842476427,-3.842476427
1782647697.474673,,,,4075.000000000,364.000000000,0.000000000,,,
1782647697.474703,0.111716948,-0.067063808,0.000000000,,,,6.400915053,-3.842476427,-3.842476427
1782647697.484571,,,,4075.000000000,373.000000000,0.000000000,,,
1782647697.484586,0.111716948,-0.067039967,0.000000000,,,,6.400915053,-3.841110388,-3.841110388
1782647697.494636,,,,4163.000000000,438.000000000,0.000000000,,,
1782647697.494651,0.111740917,-0.067039967,0.000000000,,,,6.402288349,-3.841110388,-3.841110388
1782647697.504641,,,,4104.000000000,408.000000000,0.000000000,,,
1782647697.504653,0.111740917,-0.067039967,0.000000000,,,,6.402288349,-3.841110388,-3.841110388
1782647697.514668,,,,4058.000000000,364.000000000,0.000000000,,,
1782647697.514696,0.111740917,-0.067039967,0.000000000,,,,6.402288349,-3.841110388,-3.841110388
1782647697.524582,0.111740917,-0.067039967,0.000000000,,,,6.402288349,-3.841110388,-3.841110388
1782647697.524602,,,,4053.000000000,353.000000000,0.000000000,,,
1782647697.534547,,,,4146.000000000,431.000000000,0.000000000,,,
1782647697.534560,0.111692980,-0.067039967,0.000000000,,,,6.399541757,-3.841110388,-3.841110388
1782647697.544554,,,,4084.000000000,358.000000000,0.000000000,,,
1782647697.544569,0.111716948,-0.067039967,0.000000000,,,,6.400915053,-3.841110388,-3.841110388
1782647697.554673,,,,4120.000000000,414.000000000,0.000000000,,,
1782647697.554687,0.111740917,-0.067039967,0.000000000,,,,6.402288349,-3.841110388,-3.841110388
1782647697.564610,,,,4054.000000000,357.000000000,0.000000000,,,
1782647697.564624,0.111764885,-0.067039967,0.000000000,,,,6.403661645,-3.841110388,-3.841110388
1782647697.574617,,,,4091.000000000,391.000000000,0.000000000,,,
1782647697.574630,0.111764885,-0.067039967,0.000000000,,,,6.403661645,-3.841110388,-3.841110388
1782647697.584471,,,,4089.000000000,368.000000000,0.000000000,,,
1782647697.584485,0.111669011,-0.067063808,0.000000000,,,,6.398168461,-3.842476427,-3.842476427
1782647697.594591,,,,4084.000000000,392.000000000,0.000000000,,,
1782647697.594605,0.111692980,-0.067039967,0.000000000,,,,6.399541757,-3.841110388,-3.841110388
1782647697.604678,,,,4028.000000000,356.000000000,0.000000000,,,
1782647697.604693,0.111716948,-0.067039967,0.000000000,,,,6.400915053,-3.841110388,-3.841110388
1782647697.614595,,,,4097.000000000,410.000000000,0.000000000,,,
1782647697.614610,0.111740917,-0.067039967,0.000000000,,,,6.402288349,-3.841110388,-3.841110388
1782647697.624647,,,,4046.000000000,350.000000000,0.000000000,,,
1782647697.624660,0.111764885,-0.067063808,0.000000000,,,,6.403661645,-3.842476427,-3.842476427
1782647697.634639,,,,4068.000000000,369.000000000,0.000000000,,,
1782647697.634653,0.111764885,-0.067039967,0.000000000,,,,6.403661645,-3.841110388,-3.841110388
1782647697.644656,,,,4102.000000000,418.000000000,0.000000000,,,
1782647697.644685,0.111692980,-0.067039967,0.000000000,,,,6.399541757,-3.841110388,-3.841110388
1782647697.654571,,,,4092.000000000,379.000000000,0.000000000,,,
1782647697.654588,0.111669011,-0.067039967,0.000000000,,,,6.398168461,-3.841110388,-3.841110388
1782647697.664597,,,,4052.000000000,373.000000000,0.000000000,,,
1782647697.664612,0.111692980,-0.067039967,0.000000000,,,,6.399541757,-3.841110388,-3.841110388
1782647697.674590,,,,4068.000000000,365.000000000,0.000000000,,,
1782647697.674605,0.111740917,-0.067039967,0.000000000,,,,6.402288349,-3.841110388,-3.841110388
1782647697.684597,,,,4100.000000000,388.000000000,0.000000000,,,
1782647697.684644,0.111764885,-0.067039967,0.000000000,,,,6.403661645,-3.841110388,-3.841110388
1782647697.694643,,,,4100.000000000,377.000000000,0.000000000,,,
1782647697.694657,0.111669011,-0.067039967,0.000000000,,,,6.398168461,-3.841110388,-3.841110388
1782647697.704571,,,,4081.000000000,387.000000000,0.000000000,,,
1782647697.704584,0.111692980,-0.067039967,0.000000000,,,,6.399541757,-3.841110388,-3.841110388
1782647697.714531,,,,4092.000000000,404.000000000,0.000000000,,,
1782647697.714545,0.111645043,-0.067039967,0.000000000,,,,6.396795165,-3.841110388,-3.841110388
1782647697.724532,,,,4060.000000000,356.000000000,0.000000000,,,
1782647697.724545,0.111740917,-0.067039967,0.000000000,,,,6.402288349,-3.841110388,-3.841110388
1782647697.734580,,,,4064.000000000,365.000000000,0.000000000,,,
1782647697.734629,0.111764885,-0.067039967,0.000000000,,,,6.403661645,-3.841110388,-3.841110388
1782647697.744584,,,,4103.000000000,404.000000000,0.000000000,,,
1782647697.744632,0.111764885,-0.067039967,0.000000000,,,,6.403661645,-3.841110388,-3.841110388
1782647697.754703,,,,4151.000000000,422.000000000,0.000000000,,,
1782647697.754764,0.111669011,-0.067039967,0.000000000,,,,6.398168461,-3.841110388,-3.841110388
1782647697.764573,,,,4075.000000000,356.000000000,0.000000000,,,
1782647697.764597,0.111669011,-0.067039967,0.000000000,,,,6.398168461,-3.841110388,-3.841110388
1782647697.774518,,,,4036.000000000,346.000000000,0.000000000,,,
1782647697.774531,0.111692980,-0.067039967,0.000000000,,,,6.399541757,-3.841110388,-3.841110388
1782647697.784551,,,,4126.000000000,408.000000000,0.000000000,,,
1782647697.784574,0.111740917,-0.067039967,0.000000000,,,,6.402288349,-3.841110388,-3.841110388
1782647697.794539,,,,4095.000000000,383.000000000,0.000000000,,,
1782647697.794564,0.111764885,-0.067039967,0.000000000,,,,6.403661645,-3.841110388,-3.841110388
1782647697.804542,,,,4080.000000000,356.000000000,0.000000000,,,
1782647697.804559,0.111669011,-0.067063808,0.000000000,,,,6.398168461,-3.842476427,-3.842476427
1782647697.814472,,,,4103.000000000,397.000000000,0.000000000,,,
1782647697.814485,0.111669011,-0.067039967,0.000000000,,,,6.398168461,-3.841110388,-3.841110388
1782647697.824509,0.111669011,-0.067039967,0.000000000,,,,6.398168461,-3.841110388,-3.841110388
1782647697.824520,,,,4063.000000000,353.000000000,0.000000000,,,
1782647697.834622,,,,4077.000000000,385.000000000,0.000000000,,,
1782647697.834640,0.111740917,-0.067039967,0.000000000,,,,6.402288349,-3.841110388,-3.841110388
1782647697.844496,,,,4076.000000000,375.000000000,0.000000000,,,
1782647697.844510,0.111740917,-0.067039967,0.000000000,,,,6.402288349,-3.841110388,-3.841110388
1782647697.854508,,,,4073.000000000,369.000000000,0.000000000,,,
1782647697.854520,0.111764885,-0.067039967,0.000000000,,,,6.403661645,-3.841110388,-3.841110388
1782647697.864517,,,,4106.000000000,410.000000000,0.000000000,,,
1782647697.864534,0.111669011,-0.067039967,0.000000000,,,,6.398168461,-3.841110388,-3.841110388
1782647697.874614,,,,4128.000000000,446.000000000,0.000000000,,,
1782647697.874629,0.111669011,-0.067039967,0.000000000,,,,6.398168461,-3.841110388,-3.841110388
1782647697.884516,,,,4092.000000000,379.000000000,0.000000000,,,
1782647697.884529,0.111740917,-0.067039967,0.000000000,,,,6.402288349,-3.841110388,-3.841110388
1782647697.894494,,,,4089.000000000,364.000000000,0.000000000,,,
1782647697.894507,0.111740917,-0.067039967,0.000000000,,,,6.402288349,-3.841110388,-3.841110388
1782647697.904531,,,,4114.000000000,377.000000000,0.000000000,,,
1782647697.904559,0.111740917,-0.067039967,0.000000000,,,,6.402288349,-3.841110388,-3.841110388
1782647697.914564,,,,4071.000000000,372.000000000,0.000000000,,,
1782647697.914582,0.111692980,-0.067039967,0.000000000,,,,6.399541757,-3.841110388,-3.841110388
1782647697.924530,0.111669011,-0.067039967,0.000000000,,,,6.398168461,-3.841110388,-3.841110388
1782647697.924545,,,,4079.000000000,377.000000000,0.000000000,,,
1782647697.934520,,,,4081.000000000,380.000000000,0.000000000,,,
1782647697.934532,0.111669011,-0.067039967,0.000000000,,,,6.398168461,-3.841110388,-3.841110388
1782647697.944592,,,,4115.000000000,380.000000000,0.000000000,,,
1782647697.944604,0.111740917,-0.067039967,0.000000000,,,,6.402288349,-3.841110388,-3.841110388
1782647697.954522,,,,4108.000000000,410.000000000,0.000000000,,,
1782647697.954534,0.111740917,-0.067039967,0.000000000,,,,6.402288349,-3.841110388,-3.841110388
1782647697.964511,,,,4099.000000000,412.000000000,0.000000000,,,
1782647697.964523,0.111740917,-0.067039967,0.000000000,,,,6.402288349,-3.841110388,-3.841110388
1782647697.974463,,,,4097.000000000,377.000000000,0.000000000,,,
1782647697.974475,0.111669011,-0.067039967,0.000000000,,,,6.398168461,-3.841110388,-3.841110388
1782647697.984496,,,,4132.000000000,439.000000000,0.000000000,,,
1782647697.984509,0.111669011,-0.067039967,0.000000000,,,,6.398168461,-3.841110388,-3.841110388
1782647697.994530,,,,4092.000000000,397.000000000,0.000000000,,,
1782647697.994544,0.111740917,-0.067039967,0.000000000,,,,6.402288349,-3.841110388,-3.841110388
1782647698.004493,,,,4099.000000000,385.000000000,0.000000000,,,
1782647698.004505,0.111764885,-0.067039967,0.000000000,,,,6.403661645,-3.841110388,-3.841110388
1782647698.014513,,,,4088.000000000,391.000000000,0.000000000,,,
1782647698.014526,0.111740917,-0.067039967,0.000000000,,,,6.402288349,-3.841110388,-3.841110388
1782647698.024454,0.111692980,-0.067039967,0.000000000,,,,6.399541757,-3.841110388,-3.841110388
1782647698.024484,,,,4061.000000000,361.000000000,0.000000000,,,
1782647698.034436,,,,4065.000000000,399.000000000,0.000000000,,,
1782647698.034460,0.111669011,-0.067039967,0.000000000,,,,6.398168461,-3.841110388,-3.841110388
1782647698.044491,,,,4087.000000000,404.000000000,0.000000000,,,
1782647698.044505,0.111645043,-0.067039967,0.000000000,,,,6.396795165,-3.841110388,-3.841110388
1782647698.054532,,,,4116.000000000,389.000000000,0.000000000,,,
1782647698.054548,0.111740917,-0.067039967,0.000000000,,,,6.402288349,-3.841110388,-3.841110388
1782647698.064510,,,,4069.000000000,340.000000000,0.000000000,,,
1782647698.064523,0.111740917,-0.067039967,0.000000000,,,,6.402288349,-3.841110388,-3.841110388
1782647698.074430,,,,4085.000000000,373.000000000,0.000000000,,,
1782647698.074444,0.111740917,-0.067039967,0.000000000,,,,6.402288349,-3.841110388,-3.841110388
1782647698.084475,,,,4071.000000000,395.000000000,0.000000000,,,
1782647698.084487,0.111692980,-0.067039967,0.000000000,,,,6.399541757,-3.841110388,-3.841110388
1782647698.094492,,,,4081.000000000,373.000000000,0.000000000,,,
1782647698.094506,0.111669011,-0.067039967,0.000000000,,,,6.398168461,-3.841110388,-3.841110388
1782647698.104491,,,,4091.000000000,377.000000000,0.000000000,,,
1782647698.104504,0.111740917,-0.067039967,0.000000000,,,,6.402288349,-3.841110388,-3.841110388
1782647698.114579,,,,4116.000000000,392.000000000,0.000000000,,,
1782647698.114595,0.111740917,-0.067039967,0.000000000,,,,6.402288349,-3.841110388,-3.841110388
1782647698.124501,0.111740917,-0.067039967,0.000000000,,,,6.402288349,-3.841110388,-3.841110388
1782647698.124514,,,,4089.000000000,399.000000000,0.000000000,,,
1782647698.134514,,,,4069.000000000,369.000000000,0.000000000,,,
1782647698.134526,0.111716948,-0.067063808,0.000000000,,,,6.400915053,-3.842476427,-3.842476427
1782647698.144469,,,,4099.000000000,383.000000000,0.000000000,,,
1782647698.144481,0.111692980,-0.067063808,0.000000000,,,,6.399541757,-3.842476427,-3.842476427
1782647698.154478,,,,4145.000000000,443.000000000,0.000000000,,,
1782647698.154490,0.111669011,-0.067039967,0.000000000,,,,6.398168461,-3.841110388,-3.841110388
1782647698.164543,,,,4075.000000000,368.000000000,0.000000000,,,
1782647698.164576,0.111740917,-0.067039967,0.000000000,,,,6.402288349,-3.841110388,-3.841110388
1782647698.174386,,,,4111.000000000,403.000000000,0.000000000,,,
1782647698.174402,0.111740917,-0.067039967,0.000000000,,,,6.402288349,-3.841110388,-3.841110388
1782647698.184453,,,,4081.000000000,372.000000000,0.000000000,,,
1782647698.184467,0.111716948,-0.067039967,0.000000000,,,,6.400915053,-3.841110388,-3.841110388
1782647698.194449,,,,4096.000000000,387.000000000,0.000000000,,,
1782647698.194463,0.111740917,-0.067063808,0.000000000,,,,6.402288349,-3.842476427,-3.842476427
1782647698.204511,,,,4110.000000000,404.000000000,0.000000000,,,
1782647698.204523,0.111692980,-0.067039967,0.000000000,,,,6.399541757,-3.841110388,-3.841110388
1782647698.214450,,,,4084.000000000,399.000000000,0.000000000,,,
1782647698.214462,0.111716948,-0.067063808,0.000000000,,,,6.400915053,-3.842476427,-3.842476427
1782647698.224413,,,,4049.000000000,364.000000000,0.000000000,,,
1782647698.224427,0.111764885,-0.067039967,0.000000000,,,,6.403661645,-3.841110388,-3.841110388
1782647698.234677,,,,4108.000000000,391.000000000,0.000000000,,,
1782647698.234721,0.111740917,-0.067039967,0.000000000,,,,6.402288349,-3.841110388,-3.841110388
1782647698.244567,,,,4095.000000000,393.000000000,0.000000000,,,
1782647698.244607,0.111740917,-0.067039967,0.000000000,,,,6.402288349,-3.841110388,-3.841110388
1782647698.254582,,,,4067.000000000,365.000000000,0.000000000,,,
1782647698.254610,0.111716948,-0.067063808,0.000000000,,,,6.400915053,-3.842476427,-3.842476427
1782647698.264573,,,,4095.000000000,404.000000000,0.000000000,,,
1782647698.264591,0.111692980,-0.067063808,0.000000000,,,,6.399541757,-3.842476427,-3.842476427
1782647698.274561,,,,4100.000000000,388.000000000,0.000000000,,,
1782647698.274585,0.111716948,-0.067039967,0.000000000,,,,6.400915053,-3.841110388,-3.841110388
1782647698.284543,,,,4118.000000000,380.000000000,0.000000000,,,
1782647698.284567,0.111716948,-0.067039967,0.000000000,,,,6.400915053,-3.841110388,-3.841110388
1782647698.294517,,,,4115.000000000,410.000000000,0.000000000,,,
1782647698.294533,0.111740917,-0.067039967,0.000000000,,,,6.402288349,-3.841110388,-3.841110388
1782647698.304439,,,,4100.000000000,384.000000000,0.000000000,,,
1782647698.304458,0.111764885,-0.067063808,0.000000000,,,,6.403661645,-3.842476427,-3.842476427
1782647698.314515,,,,4063.000000000,360.000000000,0.000000000,,,
1782647698.314550,0.111716948,-0.067039967,0.000000000,,,,6.400915053,-3.841110388,-3.841110388
1782647698.324424,0.111692980,-0.067039967,0.000000000,,,,6.399541757,-3.841110388,-3.841110388
1782647698.324442,,,,4036.000000000,372.000000000,0.000000000,,,
1782647698.334449,,,,4068.000000000,387.000000000,0.000000000,,,
1782647698.334462,0.111716948,-0.067039967,0.000000000,,,,6.400915053,-3.841110388,-3.841110388
1782647698.344411,,,,4089.000000000,385.000000000,0.000000000,,,
1782647698.344424,0.111716948,-0.067039967,0.000000000,,,,6.400915053,-3.841110388,-3.841110388
1782647698.354473,,,,4103.000000000,404.000000000,0.000000000,,,
1782647698.354486,0.111716948,-0.067063808,0.000000000,,,,6.400915053,-3.842476427,-3.842476427
1782647698.364475,,,,4017.000000000,322.000000000,0.000000000,,,
1782647698.364504,0.111740917,-0.067063808,0.000000000,,,,6.402288349,-3.842476427,-3.842476427
1782647698.374554,,,,4103.000000000,395.000000000,0.000000000,,,
1782647698.374614,0.111716948,-0.067063808,0.000000000,,,,6.400915053,-3.842476427,-3.842476427
1782647698.384516,,,,4044.000000000,342.000000000,0.000000000,,,
1782647698.384558,0.111692980,-0.067063808,0.000000000,,,,6.399541757,-3.842476427,-3.842476427
1782647698.394554,,,,4073.000000000,365.000000000,0.000000000,,,
1782647698.394615,0.111692980,-0.067039967,0.000000000,,,,6.399541757,-3.841110388,-3.841110388
1782647698.404658,,,,4046.000000000,387.000000000,0.000000000,,,
1782647698.404708,0.111764885,-0.067039967,0.000000000,,,,6.403661645,-3.841110388,-3.841110388
1782647698.414588,,,,4104.000000000,424.000000000,0.000000000,,,
1782647698.414615,0.111740917,-0.067039967,0.000000000,,,,6.402288349,-3.841110388,-3.841110388
1782647698.424458,,,,4083.000000000,381.000000000,0.000000000,,,
1782647698.424477,0.111740917,-0.067063808,0.000000000,,,,6.402288349,-3.842476427,-3.842476427
1782647698.434436,,,,4103.000000000,383.000000000,0.000000000,,,
1782647698.434451,0.111716948,-0.067039967,0.000000000,,,,6.400915053,-3.841110388,-3.841110388
1782647698.444593,,,,4107.000000000,387.000000000,0.000000000,,,
1782647698.444634,0.111692980,-0.067063808,0.000000000,,,,6.399541757,-3.842476427,-3.842476427
1782647698.454561,,,,4108.000000000,383.000000000,0.000000000,,,
1782647698.454576,0.111740917,-0.067039967,0.000000000,,,,6.402288349,-3.841110388,-3.841110388
1782647698.464463,,,,4087.000000000,385.000000000,0.000000000,,,
1782647698.464477,0.111716948,-0.067039967,0.000000000,,,,6.400915053,-3.841110388,-3.841110388
1782647698.474494,,,,4064.000000000,375.000000000,0.000000000,,,
1782647698.474516,0.111740917,-0.067039967,0.000000000,,,,6.402288349,-3.841110388,-3.841110388
1782647698.484452,,,,4079.000000000,364.000000000,0.000000000,,,
1782647698.484466,0.111740917,-0.067039967,0.000000000,,,,6.402288349,-3.841110388,-3.841110388
1782647698.494467,,,,4037.000000000,332.000000000,0.000000000,,,
1782647698.494483,0.111669011,-0.067039967,0.000000000,,,,6.398168461,-3.841110388,-3.841110388
1782647698.504419,,,,4060.000000000,365.000000000,0.000000000,,,
1782647698.504437,0.111692980,-0.067039967,0.000000000,,,,6.399541757,-3.841110388,-3.841110388
1782647698.514561,,,,4089.000000000,404.000000000,0.000000000,,,
1782647698.514606,0.111716948,-0.067039967,0.000000000,,,,6.400915053,-3.841110388,-3.841110388
1782647698.524572,,,,4106.000000000,408.000000000,0.000000000,,,
1782647698.524590,0.111764885,-0.067039967,0.000000000,,,,6.403661645,-3.841110388,-3.841110388
1782647698.534525,,,,4107.000000000,393.000000000,0.000000000,,,
1782647698.534539,0.111764885,-0.067039967,0.000000000,,,,6.403661645,-3.841110388,-3.841110388
1782647698.544450,,,,4081.000000000,383.000000000,0.000000000,,,
1782647698.544467,0.111740917,-0.067063808,0.000000000,,,,6.402288349,-3.842476427,-3.842476427
1782647698.554491,,,,4097.000000000,379.000000000,0.000000000,,,
1782647698.554520,0.111692980,-0.067063808,0.000000000,,,,6.399541757,-3.842476427,-3.842476427
1782647698.564456,,,,4037.000000000,348.000000000,0.000000000,,,
1782647698.564473,0.111692980,-0.067039967,0.000000000,,,,6.399541757,-3.841110388,-3.841110388
1782647698.574514,,,,4107.000000000,428.000000000,0.000000000,,,
1782647698.574546,0.111716948,-0.067039967,0.000000000,,,,6.400915053,-3.841110388,-3.841110388
1782647698.584531,,,,4104.000000000,426.000000000,0.000000000,,,
1782647698.584547,0.111740917,-0.067039967,0.000000000,,,,6.402288349,-3.841110388,-3.841110388
1782647698.594575,,,,4064.000000000,358.000000000,0.000000000,,,
1782647698.594589,0.111740917,-0.067063808,0.000000000,,,,6.402288349,-3.842476427,-3.842476427
1782647698.604466,,,,4057.000000000,350.000000000,0.000000000,,,
1782647698.604482,0.111645043,-0.067039967,0.000000000,,,,6.396795165,-3.841110388,-3.841110388
1782647698.614577,,,,4111.000000000,399.000000000,0.000000000,,,
1782647698.614609,0.111669011,-0.067039967,0.000000000,,,,6.398168461,-3.841110388,-3.841110388
1782647698.624516,,,,4104.000000000,375.000000000,0.000000000,,,
1782647698.624534,0.111716948,-0.067039967,0.000000000,,,,6.400915053,-3.841110388,-3.841110388
1782647698.634609,,,,4102.000000000,400.000000000,0.000000000,,,
1782647698.634646,0.111740917,-0.067039967,0.000000000,,,,6.402288349,-3.841110388,-3.841110388
1782647698.644440,,,,4068.000000000,372.000000000,0.000000000,,,
1782647698.644460,0.111740917,-0.067039967,0.000000000,,,,6.402288349,-3.841110388,-3.841110388
1782647698.654514,,,,4069.000000000,367.000000000,0.000000000,,,
1782647698.654531,0.111740917,-0.067039967,0.000000000,,,,6.402288349,-3.841110388,-3.841110388
1782647698.664559,,,,4077.000000000,392.000000000,0.000000000,,,
1782647698.664574,0.111645043,-0.067039967,0.000000000,,,,6.396795165,-3.841110388,-3.841110388
1782647698.674569,,,,4102.000000000,399.000000000,0.000000000,,,
1782647698.674585,0.111621074,-0.067039967,0.000000000,,,,6.395421869,-3.841110388,-3.841110388
1782647698.684602,,,,4040.000000000,354.000000000,0.000000000,,,
1782647698.684628,0.111669011,-0.067039967,0.000000000,,,,6.398168461,-3.841110388,-3.841110388
1782647698.694555,,,,4081.000000000,415.000000000,0.000000000,,,
1782647698.694578,0.111740917,-0.067039967,0.000000000,,,,6.402288349,-3.841110388,-3.841110388
1782647698.704483,,,,4087.000000000,399.000000000,0.000000000,,,
1782647698.704496,0.111716948,-0.067063808,0.000000000,,,,6.400915053,-3.842476427,-3.842476427
1782647698.714499,,,,4045.000000000,352.000000000,0.000000000,,,
1782647698.714527,0.111645043,-0.067039967,0.000000000,,,,6.396795165,-3.841110388,-3.841110388
1782647698.724598,,,,4063.000000000,313.000000000,0.000000000,,,
1782647698.724629,0.111645043,-0.067039967,0.000000000,,,,6.396795165,-3.841110388,-3.841110388
1782647698.734423,,,,4064.000000000,286.000000000,0.000000000,,,
1782647698.734438,0.111645043,-0.067039967,0.000000000,,,,6.396795165,-3.841110388,-3.841110388
1782647698.744418,,,,4010.000000000,301.000000000,0.000000000,,,
1782647698.744432,0.111716948,-0.067039967,0.000000000,,,,6.400915053,-3.841110388,-3.841110388
1782647698.754407,,,,4087.000000000,340.000000000,0.000000000,,,
1782647698.754422,0.111716948,-0.067039967,0.000000000,,,,6.400915053,-3.841110388,-3.841110388
1782647698.764540,,,,4053.000000000,358.000000000,0.000000000,,,
1782647698.764576,0.111692980,-0.067039967,0.000000000,,,,6.399541757,-3.841110388,-3.841110388
1782647698.774600,,,,4056.000000000,348.000000000,0.000000000,,,
1782647698.774626,0.111645043,-0.067039967,0.000000000,,,,6.396795165,-3.841110388,-3.841110388
1782647698.784498,,,,4032.000000000,319.000000000,0.000000000,,,
1782647698.784524,0.111645043,-0.067039967,0.000000000,,,,6.396795165,-3.841110388,-3.841110388
1782647698.794558,,,,4097.000000000,361.000000000,0.000000000,,,
1782647698.794600,0.111716948,-0.067039967,0.000000000,,,,6.400915053,-3.841110388,-3.841110388
1782647698.804490,,,,4011.000000000,270.000000000,0.000000000,,,
1782647698.804505,0.111716948,-0.067039967,0.000000000,,,,6.400915053,-3.841110388,-3.841110388
1782647698.814514,,,,4079.000000000,344.000000000,0.000000000,,,
1782647698.814541,0.111716948,-0.067039967,0.000000000,,,,6.400915053,-3.841110388,-3.841110388
1782647698.824550,,,,4084.000000000,329.000000000,0.000000000,,,
1782647698.824594,0.111692980,-0.067039967,0.000000000,,,,6.399541757,-3.841110388,-3.841110388
1782647698.834677,,,,4099.000000000,352.000000000,0.000000000,,,
1782647698.834754,0.111692980,-0.067063808,0.000000000,,,,6.399541757,-3.842476427,-3.842476427
1782647698.844501,,,,4091.000000000,400.000000000,0.000000000,,,
1782647698.844517,0.111692980,-0.067039967,0.000000000,,,,6.399541757,-3.841110388,-3.841110388
1782647698.854651,,,,4120.000000000,407.000000000,0.000000000,,,
1782647698.854683,0.111740917,-0.067039967,0.000000000,,,,6.402288349,-3.841110388,-3.841110388
1782647698.864716,,,,4111.000000000,392.000000000,0.000000000,,,
1782647698.864766,0.111764885,-0.067039967,0.000000000,,,,6.403661645,-3.841110388,-3.841110388
1782647698.874507,,,,4068.000000000,385.000000000,0.000000000,,,
1782647698.874521,0.111740917,-0.067039967,0.000000000,,,,6.402288349,-3.841110388,-3.841110388
1782647698.884618,,,,4118.000000000,404.000000000,0.000000000,,,
1782647698.884640,0.111716948,-0.067039967,0.000000000,,,,6.400915053,-3.841110388,-3.841110388
1782647698.894542,,,,4116.000000000,356.000000000,0.000000000,,,
1782647698.894568,0.111716948,-0.067039967,0.000000000,,,,6.400915053,-3.841110388,-3.841110388
1782647698.904542,,,,4083.000000000,297.000000000,0.000000000,,,
1782647698.904576,0.111692980,-0.067039967,0.000000000,,,,6.399541757,-3.841110388,-3.841110388
1782647698.914555,,,,4107.000000000,342.000000000,0.000000000,,,
1782647698.914584,0.111716948,-0.067039967,0.000000000,,,,6.400915053,-3.841110388,-3.841110388
1782647698.924548,,,,4045.000000000,254.000000000,0.000000000,,,
1782647698.924580,0.111692980,-0.067039967,0.000000000,,,,6.399541757,-3.841110388,-3.841110388
1782647698.934489,,,,4092.000000000,345.000000000,0.000000000,,,
1782647698.934525,0.111692980,-0.067039967,0.000000000,,,,6.399541757,-3.841110388,-3.841110388
1782647698.944597,,,,4097.000000000,369.000000000,0.000000000,,,
1782647698.944638,0.111692980,-0.067039967,0.000000000,,,,6.399541757,-3.841110388,-3.841110388
1782647698.954605,,,,4073.000000000,336.000000000,0.000000000,,,
1782647698.954679,0.111692980,-0.067039967,0.000000000,,,,6.399541757,-3.841110388,-3.841110388
1782647698.964424,,,,4069.000000000,342.000000000,0.000000000,,,
1782647698.964438,0.111645043,-0.067039967,0.000000000,,,,6.396795165,-3.841110388,-3.841110388
1782647698.974433,,,,4089.000000000,361.000000000,0.000000000,,,
1782647698.974446,0.111645043,-0.067039967,0.000000000,,,,6.396795165,-3.841110388,-3.841110388
1782647698.984613,,,,4057.000000000,311.000000000,0.000000000,,,
1782647698.984642,0.111669011,-0.067039967,0.000000000,,,,6.398168461,-3.841110388,-3.841110388
1782647698.994483,,,,4084.000000000,336.000000000,0.000000000,,,
1782647698.994504,0.111669011,-0.067039967,0.000000000,,,,6.398168461,-3.841110388,-3.841110388
1782647699.004536,,,,4068.000000000,262.000000000,0.000000000,,,
1782647699.004569,0.111669011,-0.067063808,0.000000000,,,,6.398168461,-3.842476427,-3.842476427
1782647699.014560,,,,4057.000000000,299.000000000,0.000000000,,,
1782647699.014590,0.111692980,-0.067039967,0.000000000,,,,6.399541757,-3.841110388,-3.841110388
1782647699.024590,,,,4092.000000000,344.000000000,0.000000000,,,
1782647699.024627,0.111692980,-0.067039967,0.000000000,,,,6.399541757,-3.841110388,-3.841110388
1782647699.034489,,,,4085.000000000,376.000000000,0.000000000,,,
1782647699.034515,0.111692980,-0.067039967,0.000000000,,,,6.399541757,-3.841110388,-3.841110388
1782647699.044607,,,,4046.000000000,318.000000000,0.000000000,,,
1782647699.044663,0.111716948,-0.067039967,0.000000000,,,,6.400915053,-3.841110388,-3.841110388
1782647699.054507,,,,4079.000000000,354.000000000,0.000000000,,,
1782647699.054534,0.111716948,-0.067039967,0.000000000,,,,6.400915053,-3.841110388,-3.841110388
1782647699.064584,,,,4108.000000000,400.000000000,0.000000000,,,
1782647699.064623,0.111716948,-0.067039967,0.000000000,,,,6.400915053,-3.841110388,-3.841110388
1782647699.074422,,,,4081.000000000,395.000000000,0.000000000,,,
1782647699.074460,0.111716948,-0.067039967,0.000000000,,,,6.400915053,-3.841110388,-3.841110388
1782647699.084574,,,,4100.000000000,337.000000000,0.000000000,,,
1782647699.084602,0.111692980,-0.067039967,0.000000000,,,,6.399541757,-3.841110388,-3.841110388
1782647699.094504,,,,4083.000000000,279.000000000,0.000000000,,,
1782647699.094532,0.111716948,-0.067039967,0.000000000,,,,6.400915053,-3.841110388,-3.841110388
1782647699.104427,,,,4049.000000000,266.000000000,0.000000000,,,
1782647699.104437,0.111692980,-0.067039967,0.000000000,,,,6.399541757,-3.841110388,-3.841110388
1782647699.114527,,,,4050.000000000,286.000000000,0.000000000,,,
1782647699.114559,0.111716948,-0.067039967,0.000000000,,,,6.400915053,-3.841110388,-3.841110388
1782647699.124439,,,,4068.000000000,322.000000000,0.000000000,,,
1782647699.124454,0.111716948,-0.067039967,0.000000000,,,,6.400915053,-3.841110388,-3.841110388
1782647699.134411,,,,4063.000000000,379.000000000,0.000000000,,,
1782647699.134425,0.111692980,-0.067039967,0.000000000,,,,6.399541757,-3.841110388,-3.841110388
1782647699.144547,,,,4084.000000000,412.000000000,0.000000000,,,
1782647699.144580,0.111692980,-0.067039967,0.000000000,,,,6.399541757,-3.841110388,-3.841110388
1782647699.154648,,,,4077.000000000,344.000000000,0.000000000,,,
1782647699.154720,0.111692980,-0.067039967,0.000000000,,,,6.399541757,-3.841110388,-3.841110388
1782647699.164555,,,,4092.000000000,395.000000000,0.000000000,,,
1782647699.164580,0.111692980,-0.067039967,0.000000000,,,,6.399541757,-3.841110388,-3.841110388
1782647699.174581,,,,4079.000000000,368.000000000,0.000000000,,,
1782647699.174607,0.111692980,-0.067039967,0.000000000,,,,6.399541757,-3.841110388,-3.841110388
1782647699.184613,,,,4096.000000000,330.000000000,0.000000000,,,
1782647699.184648,0.111669011,-0.067039967,0.000000000,,,,6.398168461,-3.841110388,-3.841110388
1782647699.194511,,,,4025.000000000,264.000000000,0.000000000,,,
1782647699.194558,0.111692980,-0.067039967,0.000000000,,,,6.399541757,-3.841110388,-3.841110388
1782647699.204477,,,,4104.000000000,337.000000000,0.000000000,,,
1782647699.204520,0.111692980,-0.067039967,0.000000000,,,,6.399541757,-3.841110388,-3.841110388
1782647699.214529,,,,4052.000000000,297.000000000,0.000000000,,,
1782647699.214556,0.111692980,-0.067039967,0.000000000,,,,6.399541757,-3.841110388,-3.841110388
1782647699.224443,,,,4075.000000000,369.000000000,0.000000000,,,
1782647699.224476,0.111692980,-0.067039967,0.000000000,,,,6.399541757,-3.841110388,-3.841110388
1782647699.234451,,,,4092.000000000,367.000000000,0.000000000,,,
1782647699.234482,0.111716948,-0.067039967,0.000000000,,,,6.400915053,-3.841110388,-3.841110388
1782647699.244606,,,,4065.000000000,325.000000000,0.000000000,,,
1782647699.244632,0.111692980,-0.067039967,0.000000000,,,,6.399541757,-3.841110388,-3.841110388
1782647699.254411,0.111692980,-0.067039967,0.000000000,,,,6.399541757,-3.841110388,-3.841110388
1782647699.254431,,,,4096.000000000,368.000000000,0.000000000,,,
1782647699.264541,,,,4052.000000000,322.000000000,0.000000000,,,
1782647699.264580,0.111692980,-0.067039967,0.000000000,,,,6.399541757,-3.841110388,-3.841110388
1782647699.274412,,,,4083.000000000,357.000000000,0.000000000,,,
1782647699.274426,0.111669011,-0.067039967,0.000000000,,,,6.398168461,-3.841110388,-3.841110388
1782647699.284478,,,,4077.000000000,336.000000000,0.000000000,,,
1782647699.284514,0.111669011,-0.067039967,0.000000000,,,,6.398168461,-3.841110388,-3.841110388
1782647699.294420,,,,4068.000000000,290.000000000,0.000000000,,,
1782647699.294435,0.111669011,-0.067039967,0.000000000,,,,6.398168461,-3.841110388,-3.841110388
1782647699.304425,,,,4067.000000000,330.000000000,0.000000000,,,
1782647699.304449,0.111716948,-0.067039967,0.000000000,,,,6.400915053,-3.841110388,-3.841110388
1782647699.314388,,,,4092.000000000,367.000000000,0.000000000,,,
1782647699.314417,0.111692980,-0.067039967,0.000000000,,,,6.399541757,-3.841110388,-3.841110388
1782647699.324399,,,,4087.000000000,428.000000000,0.000000000,,,
1782647699.324419,0.111692980,-0.067015648,0.000000000,,,,6.399541757,-3.839717029,-3.839717029
1782647699.334437,,,,4095.000000000,383.000000000,0.000000000,,,
1782647699.334460,0.111716948,-0.067039967,0.000000000,,,,6.400915053,-3.841110388,-3.841110388
1782647699.344431,,,,4050.000000000,363.000000000,0.000000000,,,
1782647699.344460,0.111692980,-0.067039967,0.000000000,,,,6.399541757,-3.841110388,-3.841110388
1782647699.354452,,,,4022.000000000,348.000000000,0.000000000,,,
1782647699.354467,0.111692980,-0.067039967,0.000000000,,,,6.399541757,-3.841110388,-3.841110388
1782647699.364439,,,,3976.000000000,372.000000000,0.000000000,,,
1782647699.364472,0.111692980,-0.067015648,0.000000000,,,,6.399541757,-3.839717029,-3.839717029
1782647699.374449,,,,3960.000000000,293.000000000,0.000000000,,,
1782647699.374473,0.111692980,-0.067015648,0.000000000,,,,6.399541757,-3.839717029,-3.839717029
1782647699.384480,,,,4033.000000000,309.000000000,0.000000000,,,
1782647699.384526,0.111716948,-0.067015648,0.000000000,,,,6.400915053,-3.839717029,-3.839717029
1782647699.394519,,,,4030.000000000,275.000000000,0.000000000,,,
1782647699.394534,0.111716948,-0.067039967,0.000000000,,,,6.400915053,-3.841110388,-3.841110388
1782647699.404407,,,,4149.000000000,350.000000000,0.000000000,,,
1782647699.404433,0.111645043,-0.067039967,0.000000000,,,,6.396795165,-3.841110388,-3.841110388
1782647699.414330,,,,4139.000000000,340.000000000,0.000000000,,,
1782647699.414357,0.111645043,-0.067039967,0.000000000,,,,6.396795165,-3.841110388,-3.841110388
1782647699.424406,,,,4163.000000000,356.000000000,0.000000000,,,
1782647699.424435,0.111669011,-0.067039967,0.000000000,,,,6.398168461,-3.841110388,-3.841110388
1782647699.434322,,,,4214.000000000,322.000000000,0.000000000,,,
1782647699.434355,0.111716948,-0.067039967,0.000000000,,,,6.400915053,-3.841110388,-3.841110388
1782647699.444260,,,,4231.000000000,346.000000000,0.000000000,,,
1782647699.444275,0.111692980,-0.067039967,0.000000000,,,,6.399541757,-3.841110388,-3.841110388
1782647699.454359,,,,4049.000000000,313.000000000,0.000000000,,,
1782647699.454392,0.111692980,-0.067063808,0.000000000,,,,6.399541757,-3.842476427,-3.842476427
1782647699.464227,,,,4010.000000000,307.000000000,0.000000000,,,
1782647699.464241,0.111860760,-0.067015648,0.000000000,,,,6.409154829,-3.839717029,-3.839717029
1782647699.474369,,,,4091.000000000,342.000000000,0.000000000,,,
1782647699.474408,0.111884728,-0.067015648,0.000000000,,,,6.410528125,-3.839717029,-3.839717029
1782647699.484327,,,,4097.000000000,311.000000000,0.000000000,,,
1782647699.484349,0.111908697,-0.067039967,0.000000000,,,,6.411901421,-3.841110388,-3.841110388
1782647699.494395,,,,4193.000000000,306.000000000,0.000000000,,,
1782647699.494418,0.111645043,-0.067015648,0.000000000,,,,6.396795165,-3.839717029,-3.839717029
1782647699.504271,,,,4319.000000000,358.000000000,0.000000000,,,
1782647699.504289,0.111645043,-0.067039967,0.000000000,,,,6.396795165,-3.841110388,-3.841110388
1782647699.514424,,,,4298.000000000,354.000000000,0.000000000,,,
1782647699.514448,0.111908697,-0.066991806,0.000000000,,,,6.411901421,-3.838350990,-3.838350990
1782647699.524337,0.111980602,-0.067039967,0.000000000,,,,6.416021310,-3.841110388,-3.841110388
1782647699.524351,,,,4311.000000000,317.000000000,0.000000000,,,
1782647699.534423,,,,4413.000000000,340.000000000,0.000000000,,,
1782647699.534457,0.112028539,-0.067063808,0.000000000,,,,6.418767902,-3.842476427,-3.842476427
1782647699.544195,,,,4193.000000000,340.000000000,0.000000000,,,
1782647699.544204,0.112100445,-0.067039967,0.000000000,,,,6.422887790,-3.841110388,-3.841110388
1782647699.554413,,,,4169.000000000,336.000000000,0.000000000,,,
1782647699.554442,0.112196319,-0.066943645,0.000000000,,,,6.428380974,-3.835591591,-3.835591591
1782647699.564327,,,,4201.000000000,373.000000000,0.000000000,,,
1782647699.564366,0.112268224,-0.066967964,0.000000000,,,,6.432500862,-3.836984951,-3.836984951
1782647699.574419,,,,4227.000000000,313.000000000,0.000000000,,,
1782647699.574470,0.111836791,-0.067015648,0.000000000,,,,6.407781533,-3.839717029,-3.839717029
1782647699.584384,,,,4362.000000000,302.000000000,0.000000000,,,
1782647699.584408,0.111884728,-0.066991806,0.000000000,,,,6.410528125,-3.838350990,-3.838350990
1782647699.594523,,,,4473.000000000,348.000000000,0.000000000,,,
1782647699.594556,0.111980602,-0.066991806,0.000000000,,,,6.416021310,-3.838350990,-3.838350990
1782647699.604430,,,,4430.000000000,319.000000000,0.000000000,,,
1782647699.604465,0.112483941,-0.067039967,0.000000000,,,,6.444860527,-3.841110388,-3.841110388
1782647699.614423,,,,4469.000000000,293.000000000,0.000000000,,,
1782647699.614448,0.112603784,-0.067039967,0.000000000,,,,6.451727007,-3.841110388,-3.841110388
1782647699.624419,,,,4440.000000000,287.000000000,0.000000000,,,
1782647699.624448,0.112555847,-0.067015648,0.000000000,,,,6.448980415,-3.839717029,-3.839717029
1782647699.634347,,,,4253.000000000,302.000000000,0.000000000,,,
1782647699.634378,0.112627752,-0.066872120,0.000000000,,,,6.453100304,-3.831493474,-3.831493474
1782647699.644413,,,,4271.000000000,306.000000000,0.000000000,,,
1782647699.644444,0.112747595,-0.066895962,0.000000000,,,,6.459966784,-3.832859513,-3.832859513
1782647699.654416,,,,4263.000000000,293.000000000,0.000000000,,,
1782647699.654444,0.112483941,-0.066943645,0.000000000,,,,6.444860527,-3.835591591,-3.835591591
1782647699.664398,,,,4393.000000000,297.000000000,0.000000000,,,
1782647699.664427,0.112483941,-0.066991806,0.000000000,,,,6.444860527,-3.838350990,-3.838350990
1782647699.674434,,,,4495.000000000,282.000000000,0.000000000,,,
1782647699.674466,0.112531878,-0.066919804,0.000000000,,,,6.447607119,-3.834225552,-3.834225552
1782647699.684386,,,,4495.000000000,278.000000000,0.000000000,,,
1782647699.684420,0.113274895,-0.066919804,0.000000000,,,,6.490178871,-3.834225552,-3.834225552
1782647699.694262,,,,4543.000000000,379.000000000,0.000000000,,,
1782647699.694276,0.113370769,-0.066967964,0.000000000,,,,6.495672055,-3.836984951,-3.836984951
1782647699.704289,,,,4509.000000000,295.000000000,0.000000000,,,
1782647699.704318,0.113226958,-0.066943645,0.000000000,,,,6.487432278,-3.835591591,-3.835591591
1782647699.714460,,,,4408.000000000,321.000000000,0.000000000,,,
1782647699.714494,0.113322832,-0.066823959,0.000000000,,,,6.492925463,-3.828734075,-3.828734075
1782647699.724387,,,,4262.000000000,266.000000000,0.000000000,,,
1782647699.724403,0.113418706,-0.066800117,0.000000000,,,,6.498418647,-3.827368036,-3.827368036
1782647699.734394,,,,4326.000000000,314.000000000,0.000000000,,,
1782647699.734451,0.113394737,-0.066823959,0.000000000,,,,6.497045351,-3.828734075,-3.828734075
1782647699.744867,,,,4360.000000000,289.000000000,0.000000000,,,
1782647699.744897,0.113442674,-0.066943645,0.000000000,,,,6.499791943,-3.835591591,-3.835591591
1782647699.754772,,,,4584.000000000,333.000000000,0.000000000,,,
1782647699.754785,0.113514580,-0.066847801,0.000000000,,,,6.503911831,-3.830100114,-3.830100114
1782647699.764948,,,,4579.000000000,341.000000000,0.000000000,,,
1782647699.764977,0.114329509,-0.066776276,0.000000000,,,,6.550603898,-3.826001997,-3.826001997
1782647699.775038,,,,4559.000000000,334.000000000,0.000000000,,,
1782647699.775071,0.114449352,-0.066847801,0.000000000,,,,6.557470378,-3.830100114,-3.830100114
1782647699.785070,,,,4556.000000000,315.000000000,0.000000000,,,
1782647699.785138,0.114521258,-0.066823959,0.000000000,,,,6.561590266,-3.828734075,-3.828734075
1782647699.794882,,,,4483.000000000,345.000000000,0.000000000,,,
1782647699.794898,0.114185698,-0.066751957,0.000000000,,,,6.542364121,-3.824608637,-3.824608637
1782647699.804892,,,,4383.000000000,325.000000000,0.000000000,,,
1782647699.804926,0.114281572,-0.066751957,0.000000000,,,,6.547857305,-3.824608637,-3.824608637
1782647699.814828,,,,4314.000000000,294.000000000,0.000000000,,,
1782647699.814867,0.114665069,-0.066776276,0.000000000,,,,6.569830043,-3.826001997,-3.826001997
1782647699.824924,,,,4417.000000000,318.000000000,0.000000000,,,
1782647699.824961,0.114736974,-0.066751957,0.000000000,,,,6.573949931,-3.824608637,-3.824608637
1782647699.835076,,,,4611.000000000,338.000000000,0.000000000,,,
1782647699.835115,0.114832848,-0.066632271,0.000000000,,,,6.579443115,-3.817751122,-3.817751122
1782647699.844833,,,,4580.000000000,324.000000000,0.000000000,,,
1782647699.844847,0.115551896,-0.066560268,0.000000000,,,,6.620641570,-3.813625684,-3.813625684
1782647699.854939,,,,4596.000000000,299.000000000,0.000000000,,,
1782647699.854974,0.115623802,-0.066704273,0.000000000,,,,6.624761458,-3.821876559,-3.821876559
1782647699.864903,,,,4530.000000000,295.000000000,0.000000000,,,
1782647699.864917,0.115695707,-0.066656113,0.000000000,,,,6.628881347,-3.819117161,-3.819117161
1782647699.874896,,,,4447.000000000,283.000000000,0.000000000,,,
1782647699.874935,0.115168408,-0.066608429,0.000000000,,,,6.598669260,-3.816385083,-3.816385083
1782647699.884882,,,,4409.000000000,294.000000000,0.000000000,,,
1782647699.884900,0.115288250,-0.066608429,0.000000000,,,,6.605535740,-3.816385083,-3.816385083
1782647699.894836,,,,4388.000000000,291.000000000,0.000000000,,,
1782647699.894860,0.115432054,-0.066632271,0.000000000,,,,6.613775090,-3.817751122,-3.817751122
1782647699.905094,,,,4529.000000000,330.000000000,0.000000000,,,
1782647699.905139,0.116294920,-0.066440582,0.000000000,,,,6.663213748,-3.806768168,-3.806768168
1782647699.914989,,,,4674.000000000,289.000000000,0.000000000,,,
1782647699.915030,0.116438732,-0.066344738,0.000000000,,,,6.671453525,-3.801276691,-3.801276691
1782647699.924884,,,,4642.000000000,311.000000000,0.000000000,,,
1782647699.924898,0.116438732,-0.066296577,0.000000000,,,,6.671453525,-3.798517293,-3.798517293
1782647699.934929,,,,4655.000000000,360.000000000,0.000000000,,,
1782647699.934950,0.116558574,-0.066488266,0.000000000,,,,6.678320005,-3.809500246,-3.809500246
1782647699.944986,,,,4486.000000000,305.000000000,0.000000000,,,
1782647699.945021,0.116606511,-0.066440582,0.000000000,,,,6.681066597,-3.806768168,-3.806768168
1782647699.955046,,,,4494.000000000,282.000000000,0.000000000,,,
1782647699.955093,0.116486669,-0.066368580,0.000000000,,,,6.674200117,-3.802642730,-3.802642730
1782647699.965014,,,,4512.000000000,309.000000000,0.000000000,,,
1782647699.965056,0.116750322,-0.066368580,0.000000000,,,,6.689306374,-3.802642730,-3.802642730
1782647699.975008,,,,4471.000000000,268.000000000,0.000000000,,,
1782647699.975035,0.117013976,-0.066368580,0.000000000,,,,6.704412631,-3.802642730,-3.802642730
1782647699.985022,,,,4701.000000000,342.000000000,0.000000000,,,
1782647699.985053,0.117709063,-0.066368580,0.000000000,,,,6.744238217,-3.802642730,-3.802642730
1782647699.994838,,,,4770.000000000,352.000000000,0.000000000,,,
1782647699.994853,0.117948748,-0.066104889,0.000000000,,,,6.757971177,-3.787534339,-3.787534339
1782647700.005103,,,,4771.000000000,342.000000000,0.000000000,,,
1782647700.005142,0.117253661,-0.066081047,0.000000000,,,,6.718145591,-3.786168300,-3.786168300
1782647700.014984,,,,4591.000000000,340.000000000,0.000000000,,,
1782647700.015012,0.117373504,-0.066225052,0.000000000,,,,6.725012072,-3.794419176,-3.794419176
1782647700.024831,0.117541283,-0.066153049,0.000000000,,,,6.734625144,-3.790293738,-3.790293738
1782647700.024847,,,,4559.000000000,353.000000000,0.000000000,,,
1782647700.034939,,,,4512.000000000,294.000000000,0.000000000,,,
1782647700.034959,0.118428111,-0.066081047,0.000000000,,,,6.785436672,-3.786168300,-3.786168300
1782647700.044837,,,,4534.000000000,280.000000000,0.000000000,,,
1782647700.044862,0.118667796,-0.066057205,0.000000000,,,,6.799169632,-3.784802261,-3.784802261
1782647700.054902,,,,4713.000000000,365.000000000,0.000000000,,,
1782647700.054918,0.118907481,-0.066057205,0.000000000,,,,6.812902593,-3.784802261,-3.784802261
1782647700.064914,,,,4751.000000000,363.000000000,0.000000000,,,
1782647700.064939,0.118883513,-0.066009045,0.000000000,,,,6.811529297,-3.782042863,-3.782042863
1782647700.074858,,,,4789.000000000,328.000000000,0.000000000,,,
1782647700.074872,0.119003356,-0.065937042,0.000000000,,,,6.818395777,-3.777917425,-3.777917425
1782647700.084779,,,,4654.000000000,311.000000000,0.000000000,,,
1782647700.084793,0.119171135,-0.065937042,0.000000000,,,,6.828008850,-3.777917425,-3.777917425
1782647700.094882,,,,4452.000000000,302.000000000,0.000000000,,,
1782647700.094914,0.119219072,-0.065889359,0.000000000,,,,6.830755442,-3.775185347,-3.775185347
1782647700.104959,,,,4516.000000000,318.000000000,0.000000000,,,
1782647700.104994,0.119410820,-0.065745354,0.000000000,,,,6.841741811,-3.766934471,-3.766934471
1782647700.114959,,,,4543.000000000,315.000000000,0.000000000,,,
1782647700.114993,0.120561309,-0.065625668,0.000000000,,,,6.907660022,-3.760076956,-3.760076956
1782647700.124893,,,,4659.000000000,310.000000000,0.000000000,,,
1782647700.124935,0.120729081,-0.065673351,0.000000000,,,,6.917272668,-3.762809034,-3.762809034
1782647700.134928,,,,4637.000000000,276.000000000,0.000000000,,,
1782647700.134948,0.120848924,-0.065553665,0.000000000,,,,6.924139148,-3.755951518,-3.755951518
1782647700.144854,,,,4771.000000000,360.000000000,0.000000000,,,
1782647700.144866,0.120297655,-0.065457821,0.000000000,,,,6.892553765,-3.750460041,-3.750460041
1782647700.154939,,,,4732.000000000,349.000000000,0.000000000,,,
1782647700.154974,0.120489404,-0.065481663,0.000000000,,,,6.903540134,-3.751826080,-3.751826080
1782647700.165034,,,,4469.000000000,297.000000000,0.000000000,,,
1782647700.165076,0.120681152,-0.065433979,0.000000000,,,,6.914526502,-3.749094002,-3.749094002
1782647700.174945,,,,4401.000000000,256.000000000,0.000000000,,,
1782647700.175000,0.121759728,-0.065410137,0.000000000,,,,6.976324399,-3.747727963,-3.747727963
1782647700.184914,,,,4454.000000000,294.000000000,0.000000000,,,
1782647700.184929,0.122047350,-0.065098286,0.000000000,,,,6.992803951,-3.729860173,-3.729860173
1782647700.194867,,,,4631.000000000,268.000000000,0.000000000,,,
1782647700.194906,0.122311004,-0.065074444,0.000000000,,,,7.007910208,-3.728494134,-3.728494134
1782647700.205177,0.122071318,-0.065098286,0.000000000,,,,6.994177248,-3.729860173,-3.729860173
1782647700.205222,,,,4661.000000000,318.000000000,0.000000000,,,
1782647700.214814,,,,4717.000000000,354.000000000,0.000000000,,,
1782647700.214850,0.122263066,-0.065026283,0.000000000,,,,7.005163616,-3.725734735,-3.725734735
1782647700.224861,,,,4651.000000000,334.000000000,0.000000000,,,
1782647700.224887,0.122694500,-0.064978600,0.000000000,,,,7.029882945,-3.723002657,-3.723002657
1782647700.234904,,,,4563.000000000,349.000000000,0.000000000,,,
1782647700.234918,0.123054028,-0.065002441,0.000000000,,,,7.050482386,-3.724368696,-3.724368696
1782647700.244897,,,,4491.000000000,353.000000000,0.000000000,,,
1782647700.244920,0.123365618,-0.064906597,0.000000000,,,,7.068335235,-3.718877220,-3.718877220
1782647700.254987,,,,4467.000000000,256.000000000,0.000000000,,,
1782647700.255011,0.123725139,-0.064762592,0.000000000,,,,7.088934249,-3.710626344,-3.710626344
1782647700.264903,,,,4748.000000000,325.000000000,0.000000000,,,
1782647700.264923,0.123940855,-0.064691067,0.000000000,,,,7.101293914,-3.706528227,-3.706528227
1782647700.274889,,,,4705.000000000,318.000000000,0.000000000,,,
1782647700.274910,0.124156572,-0.064714909,0.000000000,,,,7.113653579,-3.707894266,-3.707894266
1782647700.284922,,,,4716.000000000,349.000000000,0.000000000,,,
1782647700.284951,0.123988792,-0.064666748,0.000000000,,,,7.104040506,-3.705134868,-3.705134868
1782647700.294984,,,,4625.000000000,318.000000000,0.000000000,,,
1782647700.295024,0.124324352,-0.064547062,0.000000000,,,,7.123266651,-3.698277352,-3.698277352
1782647700.304868,,,,4591.000000000,330.000000000,0.000000000,,,
1782647700.304893,0.124324352,-0.064547062,0.000000000,,,,7.123266651,-3.698277352,-3.698277352
1782647700.314865,,,,4580.000000000,334.000000000,0.000000000,,,
1782647700.314899,0.125235155,-0.064379215,0.000000000,,,,7.175451902,-3.688660437,-3.688660437
1782647700.324845,,,,4607.000000000,328.000000000,0.000000000,,,
1782647700.324862,0.125450864,-0.064259529,0.000000000,,,,7.187811140,-3.681802922,-3.681802922
1782647700.334928,,,,4751.000000000,321.000000000,0.000000000,,,
1782647700.334959,0.125666589,-0.064163685,0.000000000,,,,7.200171231,-3.676311445,-3.676311445
1782647700.344908,,,,4806.000000000,354.000000000,0.000000000,,,
1782647700.344931,0.125378966,-0.064355373,0.000000000,,,,7.183691678,-3.687294398,-3.687294398
1782647700.354930,,,,4776.000000000,350.000000000,0.000000000,,,
1782647700.354968,0.125594676,-0.064259529,0.000000000,,,,7.196050916,-3.681802922,-3.681802922
1782647700.364730,,,,4555.000000000,354.000000000,0.000000000,,,
1782647700.364758,0.125834361,-0.064139366,0.000000000,,,,7.209783877,-3.674918085,-3.674918085
1782647700.374628,,,,4512.000000000,297.000000000,0.000000000,,,
1782647700.374644,0.126912951,-0.064019680,0.000000000,,,,7.271582627,-3.668060569,-3.668060569
1782647700.384696,,,,4536.000000000,310.000000000,0.000000000,,,
1782647700.384722,0.127224535,-0.063995838,0.000000000,,,,7.289435049,-3.666694530,-3.666694530
1782647700.394978,,,,4630.000000000,295.000000000,0.000000000,,,
1782647700.395017,0.127512157,-0.063995838,0.000000000,,,,7.305914602,-3.666694530,-3.666694530
1782647700.404861,,,,4686.000000000,313.000000000,0.000000000,,,
1782647700.404888,0.127224535,-0.063923836,0.000000000,,,,7.289435049,-3.662569093,-3.662569093
1782647700.414864,,,,4787.000000000,313.000000000,0.000000000,,,
1782647700.414896,0.127440244,-0.063876152,0.000000000,,,,7.301794287,-3.659837015,-3.659837015
1782647700.424830,,,,4649.000000000,373.000000000,0.000000000,,,
1782647700.424844,0.128207237,-0.063876152,0.000000000,,,,7.345739761,-3.659837015,-3.659837015
1782647700.434784,0.128542796,-0.063660145,0.000000000,,,,7.364965906,-3.647460701,-3.647460701
1782647700.434815,,,,4455.000000000,311.000000000,0.000000000,,,
1782647700.444916,,,,4412.000000000,303.000000000,0.000000000,,,
1782647700.444956,0.128902331,-0.063540459,0.000000000,,,,7.385565774,-3.640603186,-3.640603186
1782647700.454942,,,,4571.000000000,332.000000000,0.000000000,,,
1782647700.454981,0.129070103,-0.063444614,0.000000000,,,,7.395178419,-3.635111709,-3.635111709
1782647700.464829,,,,4673.000000000,318.000000000,0.000000000,,,
1782647700.464861,0.129261851,-0.063564301,0.000000000,,,,7.406164788,-3.641969225,-3.641969225
1782647700.474869,,,,4684.000000000,298.000000000,0.000000000,,,
1782647700.474909,0.129453599,-0.063468456,0.000000000,,,,7.417151156,-3.636477748,-3.636477748
1782647700.484798,,,,4732.000000000,361.000000000,0.000000000,,,
1782647700.484811,0.129789159,-0.063396454,0.000000000,,,,7.436377301,-3.632352310,-3.632352310
1782647700.494740,,,,4561.000000000,302.000000000,0.000000000,,,
1782647700.494770,0.130196616,-0.063372612,0.000000000,,,,7.459722908,-3.630986271,-3.630986271
1782647700.504802,,,,4428.000000000,270.000000000,0.000000000,,,
1782647700.504841,0.130604088,-0.063300610,0.000000000,,,,7.483069368,-3.626860834,-3.626860834
1782647700.514678,,,,4469.000000000,313.000000000,0.000000000,,,
1782647700.514704,0.131059483,-0.063036919,0.000000000,,,,7.509161566,-3.611752442,-3.611752442
1782647700.524576,0.131275207,-0.063036919,0.000000000,,,,7.521521658,-3.611752442,-3.611752442
1782647700.524585,,,,4623.000000000,278.000000000,0.000000000,,,
1782647700.534747,,,,4711.000000000,287.000000000,0.000000000,,,
1782647700.534793,0.131203294,-0.063060760,0.000000000,,,,7.517401343,-3.613118481,-3.613118481
1782647700.544675,,,,4712.000000000,336.000000000,0.000000000,,,
1782647700.544688,0.131514892,-0.062893391,0.000000000,,,,7.535254618,-3.603528888,-3.603528888
1782647700.554624,,,,4620.000000000,317.000000000,0.000000000,,,
1782647700.554640,0.131850451,-0.062821388,0.000000000,,,,7.554480763,-3.599403450,-3.599403450
1782647700.564800,,,,4567.000000000,314.000000000,0.000000000,,,
1782647700.564838,0.132833153,-0.062797546,0.000000000,,,,7.610785475,-3.598037411,-3.598037411
1782647700.574730,,,,4544.000000000,342.000000000,0.000000000,,,
1782647700.574745,0.133072838,-0.062725544,0.000000000,,,,7.624518436,-3.593911973,-3.593911973
1782647700.584686,,,,4610.000000000,306.000000000,0.000000000,,,
1782647700.584709,0.133216649,-0.062629700,0.000000000,,,,7.632758213,-3.588420496,-3.588420496
1782647700.594736,,,,4774.000000000,361.000000000,0.000000000,,,
1782647700.594775,0.133096799,-0.062509537,0.000000000,,,,7.625891305,-3.581535660,-3.581535660
1782647700.604874,,,,4834.000000000,322.000000000,0.000000000,,,
1782647700.604913,0.133432359,-0.062653542,0.000000000,,,,7.645117450,-3.589786535,-3.589786535
1782647700.614672,,,,4682.000000000,340.000000000,0.000000000,,,
1782647700.614695,0.134486973,-0.062533855,0.000000000,,,,7.705542477,-3.582929020,-3.582929020
1782647700.624610,,,,4547.000000000,340.000000000,0.000000000,,,
1782647700.624625,0.134822533,-0.062222004,0.000000000,,,,7.724768622,-3.565061230,-3.565061230
1782647700.634610,,,,4508.000000000,309.000000000,0.000000000,,,
1782647700.634630,0.135182068,-0.062245846,0.000000000,,,,7.745368490,-3.566427269,-3.566427269
1782647700.644708,,,,4522.000000000,325.000000000,0.000000000,,,
1782647700.644744,0.134798571,-0.062245846,0.000000000,,,,7.723395753,-3.566427269,-3.566427269
1782647700.654814,,,,4641.000000000,283.000000000,0.000000000,,,
1782647700.654830,0.135110155,-0.062174320,0.000000000,,,,7.741248175,-3.562329152,-3.562329152
1782647700.664729,,,,4688.000000000,294.000000000,0.000000000,,,
1782647700.664761,0.135421738,-0.062126160,0.000000000,,,,7.759100597,-3.559569753,-3.559569753
1782647700.674667,,,,4747.000000000,285.000000000,0.000000000,,,
1782647700.674706,0.136404455,-0.062102318,0.000000000,,,,7.815406163,-3.558203714,-3.558203714
1782647700.684768,,,,4526.000000000,298.000000000,0.000000000,,,
1782647700.684783,0.136763975,-0.061766624,0.000000000,,,,7.836005177,-3.538969885,-3.538969885
1782647700.694678,,,,4439.000000000,326.000000000,0.000000000,,,
1782647700.694711,0.137099534,-0.061646938,0.000000000,,,,7.855231322,-3.532112369,-3.532112369
1782647700.704652,,,,4443.000000000,297.000000000,0.000000000,,,
1782647700.704670,0.136931762,-0.061862469,0.000000000,,,,7.845618676,-3.544461362,-3.544461362
1782647700.714660,,,,4634.000000000,306.000000000,0.000000000,,,
1782647700.714685,0.137147471,-0.061790466,0.000000000,,,,7.857977914,-3.540335924,-3.540335924
1782647700.724649,,,,4645.000000000,307.000000000,0.000000000,,,
1782647700.724673,0.137938440,-0.061646938,0.000000000,,,,7.903297111,-3.532112369,-3.532112369
1782647700.734684,,,,4716.000000000,317.000000000,0.000000000,,,
1782647700.734700,0.138297960,-0.061479092,0.000000000,,,,7.923896126,-3.522495455,-3.522495455
1782647700.744872,,,,4631.000000000,324.000000000,0.000000000,,,
1782647700.744909,0.138657480,-0.061455250,0.000000000,,,,7.944495140,-3.521129416,-3.521129416
1782647700.754903,,,,4565.000000000,307.000000000,0.000000000,,,
1782647700.754941,0.138825268,-0.061359406,0.000000000,,,,7.954108639,-3.515637939,-3.515637939
1782647700.764860,,,,4405.000000000,270.000000000,0.000000000,,,
1782647700.764901,0.139040977,-0.061311245,0.000000000,,,,7.966467877,-3.512878540,-3.512878540
1782647700.774607,,,,4638.000000000,338.000000000,0.000000000,,,
1782647700.774621,0.139280662,-0.061311245,0.000000000,,,,7.980200838,-3.512878540,-3.512878540
1782647700.784597,,,,4731.000000000,315.000000000,0.000000000,,,
1782647700.784611,0.139903843,-0.061287403,0.000000000,,,,8.015906535,-3.511512501,-3.511512501
1782647700.794822,,,,4782.000000000,330.000000000,0.000000000,,,
1782647700.794862,0.140287340,-0.060927868,0.000000000,,,,8.037879273,-3.490912633,-3.490912633
1782647700.804703,,,,4659.000000000,322.000000000,0.000000000,,,
1782647700.804719,0.140646860,-0.060879707,0.000000000,,,,8.058478287,-3.488153235,-3.488153235
1782647700.814605,,,,4571.000000000,336.000000000,0.000000000,,,
1782647700.814631,0.141102269,-0.060975552,0.000000000,,,,8.084571339,-3.493644711,-3.493644711
1782647700.824647,,,,4538.000000000,302.000000000,0.000000000,,,
1782647700.824674,0.141341954,-0.060927868,0.000000000,,,,8.098304300,-3.490912633,-3.490912633
1782647700.834719,,,,4639.000000000,329.000000000,0.000000000,,,
1782647700.834737,0.141509727,-0.060879707,0.000000000,,,,8.107916945,-3.488153235,-3.488153235
1782647700.844620,,,,4756.000000000,337.000000000,0.000000000,,,
1782647700.844643,0.141917199,-0.060832024,0.000000000,,,,8.131263405,-3.485421157,-3.485421157
1782647700.854773,,,,4830.000000000,311.000000000,0.000000000,,,
1782647700.854806,0.142324656,-0.060688019,0.000000000,,,,8.154609012,-3.477170281,-3.477170281
1782647700.864713,,,,4770.000000000,341.000000000,0.000000000,,,
1782647700.864727,0.142995775,-0.060520172,0.000000000,,,,8.193061302,-3.467553367,-3.467553367
1782647700.874638,,,,4543.000000000,307.000000000,0.000000000,,,
1782647700.874665,0.143259436,-0.060496330,0.000000000,,,,8.208167985,-3.466187328,-3.466187328
1782647700.884695,,,,4482.000000000,305.000000000,0.000000000,,,
1782647700.884731,0.143523082,-0.060496330,0.000000000,,,,8.223273815,-3.466187328,-3.466187328
1782647700.894784,,,,4551.000000000,274.000000000,0.000000000,,,
1782647700.894823,0.143499106,-0.060448647,0.000000000,,,,8.221900092,-3.463455250,-3.463455250
1782647700.904735,,,,4732.000000000,371.000000000,0.000000000,,,
1782647700.904767,0.143906578,-0.060256481,0.000000000,,,,8.245246552,-3.452444976,-3.452444976
1782647700.914692,,,,4768.000000000,328.000000000,0.000000000,,,
1782647700.914724,0.144913256,-0.060232639,0.000000000,,,,8.302924987,-3.451078937,-3.451078937
1782647700.924740,,,,4756.000000000,349.000000000,0.000000000,,,
1782647700.924781,0.145176902,-0.060064793,0.000000000,,,,8.318030817,-3.441462022,-3.441462022
1782647700.934742,,,,4567.000000000,329.000000000,0.000000000,,,
1782647700.934776,0.145440564,-0.059993267,0.000000000,,,,8.333137501,-3.437363905,-3.437363905
1782647700.944730,,,,4516.000000000,305.000000000,0.000000000,,,
1782647700.944770,0.145536438,-0.060017109,0.000000000,,,,8.338630685,-3.438729944,-3.438729944
1782647700.954865,,,,4724.000000000,326.000000000,0.000000000,,,
1782647700.954934,0.145943895,-0.059801102,0.000000000,,,,8.361976291,-3.426353631,-3.426353631
1782647700.964589,,,,4856.000000000,329.000000000,0.000000000,,,
1782647700.964603,0.146351352,-0.059633732,0.000000000,,,,8.385321898,-3.416764037,-3.416764037
1782647700.974737,,,,4858.000000000,384.000000000,0.000000000,,,
1782647700.974775,0.147118345,-0.059513569,0.000000000,,,,8.429267372,-3.409879201,-3.409879201
1782647700.984820,,,,4717.000000000,345.000000000,0.000000000,,,
1782647700.984858,0.147405967,-0.059657574,0.000000000,,,,8.445746925,-3.418130076,-3.418130076
1782647700.994702,,,,4645.000000000,338.000000000,0.000000000,,,
1782647700.994730,0.147717565,-0.059561729,0.000000000,,,,8.463600200,-3.412638599,-3.412638599
1782647701.004603,,,,4798.000000000,372.000000000,0.000000000,,,
1782647701.004622,0.148077086,-0.059321880,0.000000000,,,,8.484199215,-3.398896247,-3.398896247
1782647701.014691,,,,4914.000000000,373.000000000,0.000000000,,,
1782647701.014725,0.148508519,-0.059130192,0.000000000,,,,8.508918544,-3.387913294,-3.387913294
1782647701.024616,,,,4709.000000000,357.000000000,0.000000000,,,
1782647701.024630,0.149083763,-0.059034348,0.000000000,,,,8.541877650,-3.382421817,-3.382421817
1782647701.034719,,,,4556.000000000,357.000000000,0.000000000,,,
1782647701.034755,0.149467260,-0.059249878,0.000000000,,,,8.563850387,-3.394770809,-3.394770809
1782647701.044791,,,,4674.000000000,348.000000000,0.000000000,,,
1782647701.044832,0.149850756,-0.059010506,0.000000000,,,,8.585823124,-3.381055778,-3.381055778
1782647701.054746,,,,4766.000000000,322.000000000,0.000000000,,,
1782647701.054765,0.150497898,-0.058818340,0.000000000,,,,8.622901691,-3.370045504,-3.370045504
1782647701.064627,,,,4818.000000000,368.000000000,0.000000000,,,
1782647701.064643,0.150857434,-0.058842659,0.000000000,,,,8.643501559,-3.371438864,-3.371438864
1782647701.074675,,,,4684.000000000,358.000000000,0.000000000,,,
1782647701.074691,0.151192993,-0.058794498,0.000000000,,,,8.662727704,-3.368679465,-3.368679465
1782647701.084593,,,,4731.000000000,383.000000000,0.000000000,,,
1782647701.084605,0.151696324,-0.058722496,0.000000000,,,,8.691566494,-3.364554027,-3.364554027
1782647701.094657,,,,4807.000000000,341.000000000,0.000000000,,,
1782647701.094682,0.152175695,-0.058291435,0.000000000,,,,8.719032416,-3.339856042,-3.339856042
1782647701.104718,,,,4867.000000000,397.000000000,0.000000000,,,
1782647701.104758,0.152607128,-0.058171272,0.000000000,,,,8.743751745,-3.332971206,-3.332971206
1782647701.114714,,,,4603.000000000,350.000000000,0.000000000,,,
1782647701.114742,0.153110459,-0.058195591,0.000000000,,,,8.772590536,-3.334364565,-3.334364565
1782647701.124702,,,,4622.000000000,380.000000000,0.000000000,,,
1782647701.124728,0.153541893,-0.058243275,0.000000000,,,,8.797309865,-3.337096643,-3.337096643
1782647701.134757,,,,4719.000000000,353.000000000,0.000000000,,,
1782647701.134800,0.154189035,-0.058003426,0.000000000,,,,8.834388432,-3.323354291,-3.323354291
1782647701.144649,,,,4732.000000000,344.000000000,0.000000000,,,
1782647701.144667,0.154596508,-0.058051586,0.000000000,,,,8.857734892,-3.326113690,-3.326113690
1782647701.154718,,,,4713.000000000,395.000000000,0.000000000,,,
1782647701.154737,0.155003965,-0.058003426,0.000000000,,,,8.881080498,-3.323354291,-3.323354291
1782647701.164715,,,,4717.000000000,380.000000000,0.000000000,,,
1782647701.164773,0.155627146,-0.057907581,0.000000000,,,,8.916786196,-3.317862814,-3.317862814
1782647701.174569,,,,4780.000000000,376.000000000,0.000000000,,,
1782647701.174591,0.156010643,-0.057524204,0.000000000,,,,8.938758933,-3.295896908,-3.295896908
1782647701.184754,,,,4732.000000000,358.000000000,0.000000000,,,
1782647701.184786,0.156418115,-0.057548046,0.000000000,,,,8.962105393,-3.297262947,-3.297262947
1782647701.194681,,,,4532.000000000,391.000000000,0.000000000,,,
1782647701.194696,0.156969383,-0.057596207,0.000000000,,,,8.993690776,-3.300022345,-3.300022345
1782647701.204688,,,,4612.000000000,353.000000000,0.000000000,,,
1782647701.204738,0.157400817,-0.057188511,0.000000000,,,,9.018410105,-3.276663079,-3.276663079
1782647701.214683,,,,4770.000000000,321.000000000,0.000000000,,,
1782647701.214712,0.158000022,-0.057092667,0.000000000,,,,9.052742080,-3.271171602,-3.271171602
1782647701.224793,,,,4750.000000000,349.000000000,0.000000000,,,
1782647701.224834,0.158455431,-0.057260513,0.000000000,,,,9.078835132,-3.280788516,-3.280788516
1782647701.234720,,,,4694.000000000,363.000000000,0.000000000,,,
1782647701.234737,0.158862889,-0.057116985,0.000000000,,,,9.102180739,-3.272564962,-3.272564962
1782647701.244729,,,,4724.000000000,350.000000000,0.000000000,,,
1782647701.244756,0.159486070,-0.056877136,0.000000000,,,,9.137886436,-3.258822609,-3.258822609
1782647701.254810,,,,4849.000000000,380.000000000,0.000000000,,,
1782647701.254836,0.159917504,-0.056925297,0.000000000,,,,9.162605766,-3.261582008,-3.261582008
1782647701.264709,,,,4595.000000000,345.000000000,0.000000000,,,
1782647701.264761,0.160372898,-0.056925297,0.000000000,,,,9.188697964,-3.261582008,-3.261582008
1782647701.274679,,,,4564.000000000,342.000000000,0.000000000,,,
1782647701.274709,0.161091954,-0.056757450,0.000000000,,,,9.229896846,-3.251965094,-3.251965094
1782647701.284715,,,,4698.000000000,340.000000000,0.000000000,,,
1782647701.284764,0.161547363,-0.056373596,0.000000000,,,,9.255989898,-3.229971866,-3.229971866
1782647701.294702,,,,4776.000000000,349.000000000,0.000000000,,,
1782647701.294743,0.161930844,-0.056421757,0.000000000,,,,9.277961782,-3.232731265,-3.232731265
1782647701.304699,,,,4639.000000000,330.000000000,0.000000000,,,
1782647701.304715,0.162434191,-0.056230068,0.000000000,,,,9.306801426,-3.221748311,-3.221748311
1782647701.314688,,,,4743.000000000,399.000000000,0.000000000,,,
1782647701.314713,0.162434191,-0.056038380,0.000000000,,,,9.306801426,-3.210765358,-3.210765358
1782647701.324721,,,,4737.000000000,338.000000000,0.000000000,,,
1782647701.324754,0.162913561,-0.055942535,0.000000000,,,,9.334267347,-3.205273881,-3.205273881
1782647701.334685,,,,4739.000000000,346.000000000,0.000000000,,,
1782647701.334709,0.163536742,-0.056086063,0.000000000,,,,9.369973045,-3.213497436,-3.213497436
1782647701.344653,,,,4543.000000000,328.000000000,0.000000000,,,
1782647701.344675,0.163992137,-0.055750847,0.000000000,,,,9.396065244,-3.194290928,-3.194290928
1782647701.354776,,,,4682.000000000,371.000000000,0.000000000,,,
1782647701.354812,0.164519444,-0.055510998,0.000000000,,,,9.426277757,-3.180548575,-3.180548575
1782647701.364570,,,,4844.000000000,377.000000000,0.000000000,,,
1782647701.364595,0.164998814,-0.055750847,0.000000000,,,,9.453743679,-3.194290928,-3.194290928
1782647701.374549,,,,4758.000000000,387.000000000,0.000000000,,,
1782647701.374562,0.165454209,-0.055654526,0.000000000,,,,9.479835877,-3.188772130,-3.188772130
1782647701.384741,,,,4673.000000000,361.000000000,0.000000000,,,
1782647701.384793,0.165909618,-0.055462837,0.000000000,,,,9.505928929,-3.177789177,-3.177789177
1782647701.394653,,,,4666.000000000,328.000000000,0.000000000,,,
1782647701.394668,0.166652635,-0.055294991,0.000000000,,,,9.548500681,-3.168172262,-3.168172262
1782647701.404757,,,,4795.000000000,447.000000000,0.000000000,,,
1782647701.404788,0.167108044,-0.055294991,0.000000000,,,,9.574593733,-3.168172262,-3.168172262
1782647701.414704,,,,4552.000000000,345.000000000,0.000000000,,,
1782647701.414735,0.167587399,-0.055343151,0.000000000,,,,9.602058800,-3.170931661,-3.170931661
1782647701.424711,,,,4639.000000000,357.000000000,0.000000000,,,
1782647701.424728,0.168162644,-0.054839611,0.000000000,,,,9.635017906,-3.142080918,-3.142080918
1782647701.434697,,,,4825.000000000,345.000000000,0.000000000,,,
1782647701.434732,0.168570116,-0.054791927,0.000000000,,,,9.658364366,-3.139348840,-3.139348840
1782647701.444712,,,,4689.000000000,336.000000000,0.000000000,,,
1782647701.444762,0.169145361,-0.054863930,0.000000000,,,,9.691323472,-3.143474277,-3.143474277
1782647701.454678,,,,4606.000000000,311.000000000,0.000000000,,,
1782647701.454727,0.169600755,-0.054624081,0.000000000,,,,9.717415670,-3.129731925,-3.129731925
1782647701.464633,,,,4649.000000000,349.000000000,0.000000000,,,
1782647701.464654,0.170128062,-0.054480076,0.000000000,,,,9.747628184,-3.121481050,-3.121481050
1782647701.474628,,,,4721.000000000,305.000000000,0.000000000,,,
1782647701.474655,0.170799181,-0.054408550,0.000000000,,,,9.786080474,-3.117382933,-3.117382933
1782647701.484810,,,,4548.000000000,315.000000000,0.000000000,,,
1782647701.484829,0.171254575,-0.054408550,0.000000000,,,,9.812172672,-3.117382933,-3.117382933
1782647701.494689,,,,4704.000000000,385.000000000,0.000000000,,,
1782647701.494716,0.171709985,-0.054144859,0.000000000,,,,9.838265724,-3.102274541,-3.102274541
1782647701.504705,,,,4919.000000000,395.000000000,0.000000000,,,
1782647701.504743,0.172261253,-0.053905010,0.000000000,,,,9.869851107,-3.088532189,-3.088532189
1782647701.514641,,,,4731.000000000,396.000000000,0.000000000,,,
1782647701.514667,0.172740623,-0.054168701,0.000000000,,,,9.897317029,-3.103640580,-3.103640580
1782647701.524733,,,,4625.000000000,365.000000000,0.000000000,,,
1782647701.524769,0.173579514,-0.053953171,0.000000000,,,,9.945381964,-3.091291588,-3.091291588
1782647701.534648,,,,4672.000000000,363.000000000,0.000000000,,,
1782647701.534677,0.174034923,-0.053689480,0.000000000,,,,9.971475016,-3.076183197,-3.076183197
1782647701.544809,,,,4794.000000000,423.000000000,0.000000000,,,
1782647701.544842,0.174466357,-0.053713322,0.000000000,,,,9.996194346,-3.077549236,-3.077549236
1782647701.554709,,,,4685.000000000,379.000000000,0.000000000,,,
1782647701.554739,0.174945727,-0.053665161,0.000000000,,,,10.023660267,-3.074789837,-3.074789837
1782647701.564666,,,,4735.000000000,364.000000000,0.000000000,,,
1782647701.564709,0.175425082,-0.053305626,0.000000000,,,,10.051125335,-3.054189969,-3.054189969
1782647701.574635,,,,4887.000000000,377.000000000,0.000000000,,,
1782647701.574649,0.175880492,-0.053305626,0.000000000,,,,10.077218387,-3.054189969,-3.054189969
1782647701.584629,,,,4665.000000000,381.000000000,0.000000000,,,
1782647701.584689,0.176695421,-0.053377628,0.000000000,,,,10.123910453,-3.058315407,-3.058315407
1782647701.594652,,,,4676.000000000,423.000000000,0.000000000,,,
1782647701.594689,0.177174792,-0.052802563,0.000000000,,,,10.151376375,-3.025366546,-3.025366546
1782647701.604591,,,,4684.000000000,346.000000000,0.000000000,,,
1782647701.604604,0.177654162,-0.052778721,0.000000000,,,,10.178842296,-3.024000507,-3.024000507
1782647701.614597,,,,4821.000000000,389.000000000,0.000000000,,,
1782647701.614635,0.178085580,-0.052850246,0.000000000,,,,10.203560772,-3.028098624,-3.028098624
1782647701.624635,,,,4682.000000000,375.000000000,0.000000000,,,
1782647701.624675,0.178612888,-0.052610874,0.000000000,,,,10.233773285,-3.014383593,-3.014383593
1782647701.634589,,,,4756.000000000,360.000000000,0.000000000,,,
1782647701.634612,0.179379880,-0.052443027,0.000000000,,,,10.277718759,-3.004766678,-3.004766678
1782647701.644590,,,,4840.000000000,354.000000000,0.000000000,,,
1782647701.644613,0.179883227,-0.052538872,0.000000000,,,,10.306558404,-3.010258155,-3.010258155
1782647701.654720,,,,4600.000000000,367.000000000,0.000000000,,,
1782647701.654800,0.180386558,-0.052275181,0.000000000,,,,10.335397194,-2.995149764,-2.995149764
1782647701.664591,,,,4602.000000000,340.000000000,0.000000000,,,
1782647701.664615,0.180865929,-0.051987648,0.000000000,,,,10.362863116,-2.978675334,-2.978675334
1782647701.674567,,,,4845.000000000,400.000000000,0.000000000,,,
1782647701.674600,0.181345299,-0.052179337,0.000000000,,,,10.390329037,-2.989658287,-2.989658287
1782647701.684629,,,,4763.000000000,371.000000000,0.000000000,,,
1782647701.684660,0.181752756,-0.052059650,0.000000000,,,,10.413674643,-2.982800772,-2.982800772
1782647701.694724,,,,4690.000000000,345.000000000,0.000000000,,,
1782647701.694775,0.182543725,-0.051819801,0.000000000,,,,10.458993841,-2.969058419,-2.969058419
1782647701.704501,,,,4733.000000000,387.000000000,0.000000000,,,
1782647701.704514,0.182999119,-0.051747799,0.000000000,,,,10.485086039,-2.964932982,-2.964932982
1782647701.714721,,,,4821.000000000,420.000000000,0.000000000,,,
1782647701.714755,0.183502451,-0.051723957,0.000000000,,,,10.513924830,-2.963566943,-2.963566943
1782647701.724513,,,,4594.000000000,363.000000000,0.000000000,,,
1782647701.724530,0.184077695,-0.051268578,0.000000000,,,,10.546883935,-2.937475598,-2.937475598
1782647701.734579,,,,4692.000000000,360.000000000,0.000000000,,,
1782647701.734596,0.184509128,-0.051268578,0.000000000,,,,10.571603265,-2.937475598,-2.937475598
1782647701.744615,,,,4873.000000000,350.000000000,0.000000000,,,
1782647701.744634,0.185204223,-0.051340580,0.000000000,,,,10.611429277,-2.941601036,-2.941601036
1782647701.754584,,,,4731.000000000,379.000000000,0.000000000,,,
1782647701.754600,0.185731530,-0.050909042,0.000000000,,,,10.641641791,-2.916875730,-2.916875730
1782647701.764537,,,,4666.000000000,338.000000000,0.000000000,,,
1782647701.764568,0.186258823,-0.050860882,0.000000000,,,,10.671853451,-2.914116331,-2.914116331
1782647701.774656,,,,4708.000000000,354.000000000,0.000000000,,,
1782647701.774688,0.186810106,-0.050860882,0.000000000,,,,10.703439687,-2.914116331,-2.914116331
1782647701.784766,,,,4720.000000000,310.000000000,0.000000000,,,
1782647701.784812,0.187313437,-0.050717354,0.000000000,,,,10.732278478,-2.905892777,-2.905892777
1782647701.794573,,,,4634.000000000,356.000000000,0.000000000,,,
1782647701.794603,0.187744871,-0.050501347,0.000000000,,,,10.756997807,-2.893516463,-2.893516463
1782647701.804513,,,,4763.000000000,371.000000000,0.000000000,,,
1782647701.804545,0.188392013,-0.050405502,0.000000000,,,,10.794076374,-2.888024987,-2.888024987
1782647701.814652,,,,4899.000000000,352.000000000,0.000000000,,,
1782647701.814683,0.188943297,-0.050405502,0.000000000,,,,10.825662611,-2.888024987,-2.888024987
1782647701.824570,,,,4697.000000000,387.000000000,0.000000000,,,
1782647701.824601,0.189590439,-0.050070286,0.000000000,,,,10.862741178,-2.868818478,-2.868818478
1782647701.834741,,,,4700.000000000,377.000000000,0.000000000,,,
1782647701.834791,0.190021873,-0.050166130,0.000000000,,,,10.887460507,-2.874309955,-2.874309955
1782647701.844600,,,,4736.000000000,358.000000000,0.000000000,,,
1782647701.844631,0.190501243,-0.050070286,0.000000000,,,,10.914926428,-2.868818478,-2.868818478
1782647701.854616,,,,4771.000000000,384.000000000,0.000000000,,,
1782647701.854663,0.191172361,-0.049854279,0.000000000,,,,10.953378718,-2.856442165,-2.856442165
1782647701.864668,,,,4686.000000000,358.000000000,0.000000000,,,
1782647701.864705,0.191675693,-0.049734592,0.000000000,,,,10.982217509,-2.849584649,-2.849584649
1782647701.874506,,,,4783.000000000,363.000000000,0.000000000,,,
1782647701.874524,0.192179039,-0.049710751,0.000000000,,,,11.011057153,-2.848218610,-2.848218610
1782647701.884703,,,,4849.000000000,426.000000000,0.000000000,,,
1782647701.884766,0.192826182,-0.049566746,0.000000000,,,,11.048135720,-2.839967735,-2.839967735
1782647701.894688,,,,4603.000000000,365.000000000,0.000000000,,,
1782647701.894724,0.193257615,-0.049183369,0.000000000,,,,11.072855049,-2.818001828,-2.818001828
1782647701.904547,,,,4697.000000000,410.000000000,0.000000000,,,
1782647701.904561,0.193736985,-0.049255371,0.000000000,,,,11.100320971,-2.822127266,-2.822127266
1782647701.914572,,,,4821.000000000,373.000000000,0.000000000,,,
1782647701.914599,0.194360167,-0.048919678,0.000000000,,,,11.136026669,-2.802893437,-2.802893437
1782647701.924564,,,,4684.000000000,317.000000000,0.000000000,,,
1782647701.924582,0.194887474,-0.048799992,0.000000000,,,,11.166239182,-2.796035921,-2.796035921
1782647701.934632,,,,4789.000000000,418.000000000,0.000000000,,,
1782647701.934662,0.195534617,-0.048799992,0.000000000,,,,11.203317749,-2.796035921,-2.796035921
1782647701.944654,,,,4793.000000000,371.000000000,0.000000000,,,
1782647701.944712,0.196037963,-0.048632145,0.000000000,,,,11.232157394,-2.786419007,-2.786419007
1782647701.954806,,,,4743.000000000,365.000000000,0.000000000,,,
1782647701.954846,0.196493357,-0.048344135,0.000000000,,,,11.258249592,-2.769917256,-2.769917256
1782647701.964628,,,,4561.000000000,338.000000000,0.000000000,,,
1782647701.964663,0.197116539,-0.048248291,0.000000000,,,,11.293955290,-2.764425779,-2.764425779
1782647701.974561,,,,4741.000000000,399.000000000,0.000000000,,,
1782647701.974585,0.197595909,-0.048320293,0.000000000,,,,11.321421211,-2.768551217,-2.768551217
1782647701.984714,,,,4857.000000000,380.000000000,0.000000000,,,
1782647701.984796,0.198099241,-0.048032761,0.000000000,,,,11.350260002,-2.752076786,-2.752076786
1782647701.994554,,,,4711.000000000,373.000000000,0.000000000,,,
1782647701.994599,0.198794335,-0.047888756,0.000000000,,,,11.390086015,-2.743825911,-2.743825911
1782647702.004677,,,,4741.000000000,383.000000000,0.000000000,,,
1782647702.004693,0.199249730,-0.047984600,0.000000000,,,,11.416178213,-2.749317388,-2.749317388
1782647702.014552,,,,4748.000000000,326.000000000,0.000000000,,,
1782647702.014578,0.199729100,-0.047792912,0.000000000,,,,11.443644135,-2.738334434,-2.738334434
1782647702.024635,,,,4672.000000000,334.000000000,0.000000000,,,
1782647702.024670,0.200304344,-0.047625542,0.000000000,,,,11.476603240,-2.728744841,-2.728744841
1782647702.034625,,,,4641.000000000,325.000000000,0.000000000,,,
1782647702.034668,0.200855613,-0.047673225,0.000000000,,,,11.508188623,-2.731476919,-2.731476919
1782647702.044621,,,,4810.000000000,365.000000000,0.000000000,,,
1782647702.044678,0.201574668,-0.047505379,0.000000000,,,,11.549387505,-2.721860004,-2.721860004
1782647702.054790,,,,4844.000000000,353.000000000,0.000000000,,,
1782647702.054832,0.202054039,-0.047098160,0.000000000,,,,11.576853426,-2.698528058,-2.698528058
1782647702.064645,,,,4642.000000000,328.000000000,0.000000000,,,
1782647702.064702,0.202533409,-0.047122002,0.000000000,,,,11.604319348,-2.699894097,-2.699894097
1782647702.074519,,,,4711.000000000,350.000000000,0.000000000,,,
1782647702.074534,0.203108653,-0.047122002,0.000000000,,,,11.637278453,-2.699894097,-2.699894097
1782647702.084698,,,,4767.000000000,345.000000000,0.000000000,,,
1782647702.084765,0.203635961,-0.046762466,0.000000000,,,,11.667490967,-2.679294229,-2.679294229
1782647702.094631,,,,4735.000000000,361.000000000,0.000000000,,,
1782647702.094671,0.204163268,-0.046714306,0.000000000,,,,11.697703481,-2.676534830,-2.676534830
1782647702.104584,,,,4789.000000000,397.000000000,0.000000000,,,
1782647702.104606,0.204882309,-0.046738625,0.000000000,,,,11.738901509,-2.677928190,-2.677928190
1782647702.114632,,,,4932.000000000,380.000000000,0.000000000,,,
1782647702.114666,0.205337718,-0.046235085,0.000000000,,,,11.764994561,-2.649077447,-2.649077447
1782647702.124583,,,,4795.000000000,384.000000000,0.000000000,,,
1782647702.124619,0.205865026,-0.046187401,0.000000000,,,,11.795207075,-2.646345369,-2.646345369
1782647702.134600,,,,4622.000000000,353.000000000,0.000000000,,,
1782647702.134645,0.206320420,-0.046235085,0.000000000,,,,11.821299273,-2.649077447,-2.649077447
1782647702.144650,,,,4723.000000000,350.000000000,0.000000000,,,
1782647702.144712,0.206847727,-0.045971394,0.000000000,,,,11.851511787,-2.633969056,-2.633969056
1782647702.154691,,,,4810.000000000,399.000000000,0.000000000,,,
1782647702.154765,0.207614720,-0.045827866,0.000000000,,,,11.895457261,-2.625745501,-2.625745501
1782647702.164673,,,,4708.000000000,338.000000000,0.000000000,,,
1782647702.164747,0.208070114,-0.045875549,0.000000000,,,,11.921549459,-2.628477579,-2.628477579
1782647702.174566,,,,4747.000000000,325.000000000,0.000000000,,,
1782647702.174589,0.208573461,-0.045660019,0.000000000,,,,11.950389104,-2.616128586,-2.616128586
1782647702.184614,,,,4872.000000000,341.000000000,0.000000000,,,
1782647702.184674,0.209124729,-0.045396328,0.000000000,,,,11.981974486,-2.601020195,-2.601020195
1782647702.194617,,,,4666.000000000,396.000000000,0.000000000,,,
1782647702.194650,0.209652036,-0.045564175,0.000000000,,,,12.012187000,-2.610637110,-2.610637110
1782647702.204654,,,,4688.000000000,389.000000000,0.000000000,,,
1782647702.204673,0.210131407,-0.045348167,0.000000000,,,,12.039652921,-2.598260796,-2.598260796
1782647702.214556,,,,4828.000000000,367.000000000,0.000000000,,,
1782647702.214581,0.210946336,-0.045036793,0.000000000,,,,12.086344988,-2.580420327,-2.580420327
1782647702.224643,,,,4799.000000000,379.000000000,0.000000000,,,
1782647702.224685,0.211401731,-0.045036793,0.000000000,,,,12.112437186,-2.580420327,-2.580420327
1782647702.234530,,,,4763.000000000,400.000000000,0.000000000,,,
1782647702.234555,0.211929038,-0.044964790,0.000000000,,,,12.142649700,-2.576294890,-2.576294890
1782647702.244615,,,,4756.000000000,367.000000000,0.000000000,,,
1782647702.244673,0.212408409,-0.044653416,0.000000000,,,,12.170115621,-2.558454420,-2.558454420
1782647702.254678,,,,4807.000000000,363.000000000,0.000000000,,,
1782647702.254720,0.212911740,-0.044629097,0.000000000,,,,12.198954412,-2.557061061,-2.557061061
1782647702.264643,,,,4598.000000000,330.000000000,0.000000000,,,
1782647702.264706,0.213702708,-0.044629097,0.000000000,,,,12.244273609,-2.557061061,-2.557061061
1782647702.274600,,,,4786.000000000,385.000000000,0.000000000,,,
1782647702.274626,0.214182079,-0.044101715,0.000000000,,,,12.271739530,-2.526844278,-2.526844278
1782647702.284637,,,,4950.000000000,358.000000000,0.000000000,,,
1782647702.284703,0.214685410,-0.044077873,0.000000000,,,,12.300578321,-2.525478239,-2.525478239
1782647702.294717,,,,4771.000000000,408.000000000,0.000000000,,,
1782647702.294784,0.215164781,-0.044101715,0.000000000,,,,12.328044242,-2.526844278,-2.526844278
1782647702.304585,,,,4767.000000000,395.000000000,0.000000000,,,
1782647702.304608,0.215716049,-0.043814182,0.000000000,,,,12.359629625,-2.510369848,-2.510369848
1782647702.314584,,,,4849.000000000,396.000000000,0.000000000,,,
1782647702.314617,0.216243356,-0.043694496,0.000000000,,,,12.389842139,-2.503512332,-2.503512332
1782647702.324579,,,,4803.000000000,373.000000000,0.000000000,,,
1782647702.324617,0.216243356,-0.043694496,0.000000000,,,,12.389842139,-2.503512332,-2.503512332
1782647702.334542,,,,4705.000000000,364.000000000,0.000000000,,,
1782647702.334558,0.216986388,-0.043406963,0.000000000,,,,12.432414744,-2.487037902,-2.487037902
1782647702.344557,,,,4885.000000000,403.000000000,0.000000000,,,
1782647702.344583,0.217489719,-0.043143272,0.000000000,,,,12.461253534,-2.471929511,-2.471929511
1782647702.354563,,,,4836.000000000,336.000000000,0.000000000,,,
1782647702.354593,0.217969090,-0.043334961,0.000000000,,,,12.488719456,-2.482912464,-2.482912464
1782647702.364597,,,,4599.000000000,348.000000000,0.000000000,,,
1782647702.364631,0.218424484,-0.043119431,0.000000000,,,,12.514811654,-2.470563472,-2.470563472
1782647702.374540,,,,4689.000000000,360.000000000,0.000000000,,,
1782647702.374568,0.218927830,-0.042855740,0.000000000,,,,12.543651298,-2.455455081,-2.455455081
1782647702.384521,,,,4821.000000000,364.000000000,0.000000000,,,
1782647702.384543,0.219742760,-0.042855740,0.000000000,,,,12.590343365,-2.455455081,-2.455455081
1782647702.394507,,,,4731.000000000,332.000000000,0.000000000,,,
1782647702.394523,0.220222130,-0.042759895,0.000000000,,,,12.617809286,-2.449963604,-2.449963604
1782647702.404456,,,,4790.000000000,324.000000000,0.000000000,,,
1782647702.404490,0.220701486,-0.042520046,0.000000000,,,,12.645274354,-2.436221252,-2.436221252
1782647702.414560,,,,4903.000000000,373.000000000,0.000000000,,,
1782647702.414586,0.221252769,-0.042520046,0.000000000,,,,12.676860590,-2.436221252,-2.436221252
1782647702.424385,,,,4750.000000000,348.000000000,0.000000000,,,
1782647702.424401,0.221732140,-0.042448044,0.000000000,,,,12.704326512,-2.432095814,-2.432095814
1782647702.434519,,,,4677.000000000,364.000000000,0.000000000,,,
1782647702.434543,0.222571030,-0.042424202,0.000000000,,,,12.752391447,-2.430729775,-2.430729775
1782647702.444528,,,,4801.000000000,356.000000000,0.000000000,,,
1782647702.444552,0.223074362,-0.041896820,0.000000000,,,,12.781230238,-2.400512993,-2.400512993
1782647702.454455,,,,4854.000000000,383.000000000,0.000000000,,,
1782647702.454469,0.223529771,-0.041896820,0.000000000,,,,12.807323290,-2.400512993,-2.400512993
1782647702.464577,,,,4754.000000000,349.000000000,0.000000000,,,
1782647702.464637,0.224057078,-0.041896820,0.000000000,,,,12.837535804,-2.400512993,-2.400512993
1782647702.474613,,,,4778.000000000,350.000000000,0.000000000,,,
1782647702.474648,0.224560410,-0.041585445,0.000000000,,,,12.866374594,-2.382672523,-2.382672523
1782647702.484541,,,,4873.000000000,407.000000000,0.000000000,,,
1782647702.484587,0.225039780,-0.041513443,0.000000000,,,,12.893840516,-2.378547086,-2.378547086
1782647702.494573,,,,4721.000000000,387.000000000,0.000000000,,,
1782647702.494629,0.225854710,-0.041465282,0.000000000,,,,12.940532582,-2.375787687,-2.375787687
1782647702.504529,,,,4721.000000000,356.000000000,0.000000000,,,
1782647702.504561,0.226334080,-0.041130066,0.000000000,,,,12.967998503,-2.356581179,-2.356581179
1782647702.514557,,,,4904.000000000,373.000000000,0.000000000,,,
1782647702.514587,0.226789474,-0.040937901,0.000000000,,,,12.994090702,-2.345570904,-2.345570904
1782647702.524576,,,,4830.000000000,368.000000000,0.000000000,,,
1782647702.524593,0.227316782,-0.041130066,0.000000000,,,,13.024303215,-2.356581179,-2.356581179
1782647702.534467,,,,4727.000000000,375.000000000,0.000000000,,,
1782647702.534492,0.227820128,-0.040866375,0.000000000,,,,13.053142860,-2.341472788,-2.341472788
1782647702.544667,,,,4789.000000000,381.000000000,0.000000000,,,
1782647702.544706,0.228635043,-0.040650368,0.000000000,,,,13.099834072,-2.329096474,-2.329096474
1782647702.554466,,,,4862.000000000,411.000000000,0.000000000,,,
1782647702.554481,0.229114413,-0.040674686,0.000000000,,,,13.127299994,-2.330489834,-2.330489834
1782647702.564526,,,,4659.000000000,349.000000000,0.000000000,,,
1782647702.564567,0.229617760,-0.040506840,0.000000000,,,,13.156139638,-2.320872920,-2.320872920
1782647702.574649,,,,4785.000000000,357.000000000,0.000000000,,,
1782647702.574691,0.230121091,-0.040243149,0.000000000,,,,13.184978429,-2.305764528,-2.305764528
1782647702.584551,,,,5020.000000000,435.000000000,0.000000000,,,
1782647702.584596,0.230624437,-0.040290833,0.000000000,,,,13.213818073,-2.308496606,-2.308496606
1782647702.594617,,,,4776.000000000,384.000000000,0.000000000,,,
1782647702.594672,0.231103793,-0.040171146,0.000000000,,,,13.241283141,-2.301639091,-2.301639091
1782647702.604542,,,,4681.000000000,311.000000000,0.000000000,,,
1782647702.604582,0.231942698,-0.039931297,0.000000000,,,,13.289348930,-2.287896738,-2.287896738
1782647702.614545,,,,4806.000000000,379.000000000,0.000000000,,,
1782647702.614581,0.232398093,-0.039739609,0.000000000,,,,13.315441128,-2.276913785,-2.276913785
1782647702.624547,,,,4775.000000000,332.000000000,0.000000000,,,
1782647702.624578,0.232877463,-0.039715767,0.000000000,,,,13.342907050,-2.275547746,-2.275547746
1782647702.634538,,,,4715.000000000,322.000000000,0.000000000,,,
1782647702.634574,0.233452708,-0.039380074,0.000000000,,,,13.375866155,-2.256313917,-2.256313917
1782647702.644553,,,,4864.000000000,383.000000000,0.000000000,,,
1782647702.644566,0.233932078,-0.039308071,0.000000000,,,,13.403332077,-2.252188479,-2.252188479
1782647702.654568,,,,4911.000000000,396.000000000,0.000000000,,,
1782647702.654629,0.234770969,-0.039308071,0.000000000,,,,13.451397012,-2.252188479,-2.252188479
1782647702.664557,,,,4672.000000000,400.000000000,0.000000000,,,
1782647702.664598,0.235250339,-0.038877010,0.000000000,,,,13.478862934,-2.227490494,-2.227490494
1782647702.674603,,,,4711.000000000,334.000000000,0.000000000,,,
1782647702.674653,0.235729709,-0.038756847,0.000000000,,,,13.506328855,-2.220605658,-2.220605658
1782647702.684520,,,,4813.000000000,305.000000000,0.000000000,,,
1782647702.684563,0.236257017,-0.038781166,0.000000000,,,,13.536541369,-2.221999018,-2.221999018
1782647702.694486,,,,4741.000000000,333.000000000,0.000000000,,,
1782647702.694508,0.236736387,-0.038589001,0.000000000,,,,13.564007290,-2.210988743,-2.210988743
1782647702.704593,,,,4798.000000000,349.000000000,0.000000000,,,
1782647702.704629,0.237263694,-0.038445473,0.000000000,,,,13.594219804,-2.202765189,-2.202765189
1782647702.714498,,,,4864.000000000,342.000000000,0.000000000,,,
1782647702.714531,0.238054648,-0.038349628,0.000000000,,,,13.639538147,-2.197273712,-2.197273712
1782647702.724618,,,,4729.000000000,352.000000000,0.000000000,,,
1782647702.724642,0.238557994,-0.038205624,0.000000000,,,,13.668377791,-2.189022836,-2.189022836
1782647702.734554,,,,4759.000000000,397.000000000,0.000000000,,,
1782647702.734601,0.239061326,-0.037918091,0.000000000,,,,13.697216582,-2.172548406,-2.172548406
1782647702.744597,,,,4887.000000000,367.000000000,0.000000000,,,
1782647702.744643,0.239588633,-0.038085938,0.000000000,,,,13.727429096,-2.182165321,-2.182165321
1782647702.754503,,,,4880.000000000,364.000000000,0.000000000,,,
1782647702.754547,0.240068004,-0.037894249,0.000000000,,,,13.754895017,-2.171182367,-2.171182367
1782647702.764733,,,,4764.000000000,388.000000000,0.000000000,,,
1782647702.764811,0.240906894,-0.037606716,0.000000000,,,,13.802959953,-2.154707937,-2.154707937
1782647702.774549,,,,4774.000000000,379.000000000,0.000000000,,,
1782647702.774563,0.241386265,-0.037558556,0.000000000,,,,13.830425874,-2.151948538,-2.151948538
1782647702.784734,,,,4871.000000000,371.000000000,0.000000000,,,
1782647702.784794,0.241865635,-0.037462711,0.000000000,,,,13.857891795,-2.146457062,-2.146457062
1782647702.794524,,,,4732.000000000,372.000000000,0.000000000,,,
1782647702.794549,0.242416903,-0.037222862,0.000000000,,,,13.889477178,-2.132714709,-2.132714709
1782647702.804565,,,,4813.000000000,380.000000000,0.000000000,,,
1782647702.804595,0.242896274,-0.037127018,0.000000000,,,,13.916943099,-2.127223233,-2.127223233
1782647702.814464,,,,5017.000000000,406.000000000,0.000000000,,,
1782647702.814491,0.243423581,-0.037103176,0.000000000,,,,13.947155613,-2.125857194,-2.125857194
1782647702.824424,,,,4789.000000000,388.000000000,0.000000000,,,
1782647702.824447,0.244238511,-0.036575794,0.000000000,,,,13.993847679,-2.095640411,-2.095640411
1782647702.834687,,,,4733.000000000,365.000000000,0.000000000,,,
1782647702.834735,0.244717881,-0.036575794,0.000000000,,,,14.021313601,-2.095640411,-2.095640411
1782647702.844409,,,,4782.000000000,310.000000000,0.000000000,,,
1782647702.844424,0.245245188,-0.036575794,0.000000000,,,,14.051526114,-2.095640411,-2.095640411
1782647702.854439,,,,4789.000000000,345.000000000,0.000000000,,,
1782647702.854452,0.245772496,-0.036240101,0.000000000,,,,14.081738628,-2.076406582,-2.076406582
1782647702.864505,,,,4768.000000000,334.000000000,0.000000000,,,
1782647702.864538,0.246299803,-0.036144257,0.000000000,,,,14.111951141,-2.070915106,-2.070915106
1782647702.874463,,,,4880.000000000,353.000000000,0.000000000,,,
1782647702.874502,0.247090757,-0.036144257,0.000000000,,,,14.157269485,-2.070915106,-2.070915106
1782647702.884483,,,,4834.000000000,357.000000000,0.000000000,,,
1782647702.884496,0.247594088,-0.035713196,0.000000000,,,,14.186108275,-2.046217121,-2.046217121
1782647702.894381,,,,4684.000000000,345.000000000,0.000000000,,,
1782647702.894394,0.248073459,-0.035593033,0.000000000,,,,14.213574197,-2.039332284,-2.039332284
1782647702.904538,,,,4751.000000000,317.000000000,0.000000000,,,
1782647702.904581,0.248600766,-0.035593033,0.000000000,,,,14.243786710,-2.039332284,-2.039332284
1782647702.914492,,,,4857.000000000,372.000000000,0.000000000,,,
1782647702.914517,0.249080136,-0.035401344,0.000000000,,,,14.271252632,-2.028349331,-2.028349331
1782647702.924468,,,,4782.000000000,383.000000000,0.000000000,,,
1782647702.924484,0.249631405,-0.035233498,0.000000000,,,,14.302838014,-2.018732416,-2.018732416
1782647702.934626,,,,4809.000000000,340.000000000,0.000000000,,,
1782647702.934668,0.250374436,-0.035257816,0.000000000,,,,14.345410620,-2.020125776,-2.020125776
1782647702.944506,,,,4861.000000000,360.000000000,0.000000000,,,
1782647702.944549,0.250901729,-0.035017967,0.000000000,,,,14.375622279,-2.006383424,-2.006383424
1782647702.954456,,,,4723.000000000,371.000000000,0.000000000,,,
1782647702.954482,0.251453012,-0.034778118,0.000000000,,,,14.407208516,-1.992641072,-1.992641072
1782647702.964448,,,,4799.000000000,399.000000000,0.000000000,,,
1782647702.964466,0.251980335,-0.034898281,0.000000000,,,,14.437421883,-1.999525908,-1.999525908
1782647702.974444,,,,4936.000000000,354.000000000,0.000000000,,,
1782647702.974461,0.252459675,-0.034658432,0.000000000,,,,14.464886097,-1.985783556,-1.985783556
1782647702.984541,,,,4867.000000000,375.000000000,0.000000000,,,
1782647702.984579,0.253274620,-0.034370899,0.000000000,,,,14.511579017,-1.969309126,-1.969309126
1782647702.994453,,,,4746.000000000,313.000000000,0.000000000,,,
1782647702.994473,0.253753990,-0.034370899,0.000000000,,,,14.539044938,-1.969309126,-1.969309126
1782647703.004388,,,,4845.000000000,358.000000000,0.000000000,,,
1782647703.004408,0.254209399,-0.034250736,0.000000000,,,,14.565137991,-1.962424289,-1.962424289
1782647703.014463,,,,4871.000000000,392.000000000,0.000000000,,,
1782647703.014486,0.254856527,-0.034035206,0.000000000,,,,14.602215704,-1.950075297,-1.950075297
1782647703.024356,,,,4763.000000000,380.000000000,0.000000000,,,
1782647703.024370,0.255311936,-0.033939362,0.000000000,,,,14.628308756,-1.944583820,-1.944583820
1782647703.034313,,,,4912.000000000,422.000000000,0.000000000,,,
1782647703.034327,0.256102890,-0.033867359,0.000000000,,,,14.673627100,-1.940458382,-1.940458382
1782647703.044356,,,,4990.000000000,391.000000000,0.000000000,,,
1782647703.044374,0.256582260,-0.033388138,0.000000000,,,,14.701093021,-1.913000999,-1.913000999
1782647703.054406,,,,4696.000000000,346.000000000,0.000000000,,,
1782647703.054418,0.257085592,-0.033411980,0.000000000,,,,14.729931812,-1.914367038,-1.914367038
1782647703.064425,,,,4775.000000000,391.000000000,0.000000000,,,
1782647703.064443,0.257684797,-0.033388138,0.000000000,,,,14.764263786,-1.913000999,-1.913000999
1782647703.074351,,,,4815.000000000,324.000000000,0.000000000,,,
1782647703.074363,0.258236080,-0.033028603,0.000000000,,,,14.795850023,-1.892401131,-1.892401131
1782647703.084275,,,,4785.000000000,336.000000000,0.000000000,,,
1782647703.084291,0.258739412,-0.032956600,0.000000000,,,,14.824688813,-1.888275693,-1.888275693
1782647703.094391,,,,4864.000000000,402.000000000,0.000000000,,,
1782647703.094407,0.259458482,-0.032932758,0.000000000,,,,14.865888549,-1.886909654,-1.886909654
1782647703.104360,,,,4924.000000000,350.000000000,0.000000000,,,
1782647703.104374,0.259961814,-0.032549381,0.000000000,,,,14.894727340,-1.864943747,-1.864943747
1782647703.114455,,,,4739.000000000,322.000000000,0.000000000,,,
1782647703.114482,0.260441184,-0.032429218,0.000000000,,,,14.922193261,-1.858058910,-1.858058910
1782647703.124388,,,,4770.000000000,363.000000000,0.000000000,,,
1782647703.124404,0.261040390,-0.032429218,0.000000000,,,,14.956525236,-1.858058910,-1.858058910
1782647703.134417,,,,4811.000000000,297.000000000,0.000000000,,,
1782647703.134448,0.261567712,-0.032141685,0.000000000,,,,14.986738604,-1.841584480,-1.841584480
1782647703.144452,,,,4840.000000000,361.000000000,0.000000000,,,
1782647703.144486,0.262286752,-0.031997681,0.000000000,,,,15.027936632,-1.833333605,-1.833333605
1782647703.154385,,,,4811.000000000,377.000000000,0.000000000,,,
1782647703.154415,0.262766123,-0.032021999,0.000000000,,,,15.055402553,-1.834726965,-1.834726965
1782647703.164492,,,,4819.000000000,371.000000000,0.000000000,,,
1782647703.164529,0.263269454,-0.031782150,0.000000000,,,,15.084241344,-1.820984612,-1.820984612
1782647703.174360,,,,4896.000000000,383.000000000,0.000000000,,,
1782647703.174372,0.263940573,-0.031566620,0.000000000,,,,15.122693634,-1.808635620,-1.808635620
1782647703.184445,,,,4641.000000000,317.000000000,0.000000000,,,
1782647703.184460,0.264443904,-0.031638145,0.000000000,,,,15.151532424,-1.812733737,-1.812733737
1782647703.194424,,,,4801.000000000,381.000000000,0.000000000,,,
1782647703.194451,0.264995188,-0.031326771,0.000000000,,,,15.183118661,-1.794893268,-1.794893268
1782647703.204485,,,,5017.000000000,396.000000000,0.000000000,,,
1782647703.204516,0.265690267,-0.031063080,0.000000000,,,,15.222943820,-1.779784876,-1.779784876
1782647703.214480,,,,4786.000000000,371.000000000,0.000000000,,,
1782647703.214512,0.266145676,-0.031135082,0.000000000,,,,15.249036872,-1.783910314,-1.783910314
1782647703.224469,,,,4752.000000000,342.000000000,0.000000000,,,
1782647703.224510,0.266625047,-0.030967236,0.000000000,,,,15.276502794,-1.774293400,-1.774293400
1782647703.234400,,,,4846.000000000,345.000000000,0.000000000,,,
1782647703.234425,0.267296165,-0.030679703,0.000000000,,,,15.314955084,-1.757818970,-1.757818970
1782647703.244455,,,,4813.000000000,385.000000000,0.000000000,,,
1782647703.244483,0.267799497,-0.030655861,0.000000000,,,,15.343793874,-1.756452931,-1.756452931
1782647703.254469,,,,4791.000000000,356.000000000,0.000000000,,,
1782647703.254491,0.268494576,-0.030559540,0.000000000,,,,15.383619033,-1.750934133,-1.750934133
1782647703.264528,,,,4985.000000000,383.000000000,0.000000000,,,
1782647703.264562,0.268973947,-0.030152321,0.000000000,,,,15.411084955,-1.727602187,-1.727602187
1782647703.274415,,,,4842.000000000,346.000000000,0.000000000,,,
1782647703.274445,0.269453317,-0.030176163,0.000000000,,,,15.438550876,-1.728968226,-1.728968226
1782647703.284456,,,,4741.000000000,361.000000000,0.000000000,,,
1782647703.284519,0.270148396,-0.030128479,0.000000000,,,,15.478376035,-1.726236148,-1.726236148
1782647703.294466,,,,4771.000000000,344.000000000,0.000000000,,,
1782647703.294502,0.270723641,-0.029696941,0.000000000,,,,15.511335141,-1.701510842,-1.701510842
1782647703.304326,,,,4908.000000000,384.000000000,0.000000000,,,
1782647703.304338,0.271203011,-0.029648781,0.000000000,,,,15.538801062,-1.698751444,-1.698751444
1782647703.314325,,,,4750.000000000,314.000000000,0.000000000,,,
1782647703.314354,0.271874130,-0.029624939,0.000000000,,,,15.577253352,-1.697385405,-1.697385405
1782647703.324461,,,,4845.000000000,369.000000000,0.000000000,,,
1782647703.324502,0.272353500,-0.029289246,0.000000000,,,,15.604719274,-1.678151576,-1.678151576
1782647703.334384,,,,4967.000000000,379.000000000,0.000000000,,,
1782647703.334398,0.272353500,-0.029193401,0.000000000,,,,15.604719274,-1.672660099,-1.672660099
1782647703.344518,,,,4666.000000000,354.000000000,0.000000000,,,
1782647703.344550,0.273048580,-0.029026031,0.000000000,,,,15.644544433,-1.663070505,-1.663070505
1782647703.354512,,,,4755.000000000,340.000000000,0.000000000,,,
1782647703.354585,0.273551911,-0.028786182,0.000000000,,,,15.673383223,-1.649328153,-1.649328153
1782647703.364502,,,,4899.000000000,338.000000000,0.000000000,,,
1782647703.364569,0.274031281,-0.028666496,0.000000000,,,,15.700849145,-1.642470637,-1.642470637
1782647703.374387,,,,4856.000000000,345.000000000,0.000000000,,,
1782647703.374430,0.274678439,-0.028690338,0.000000000,,,,15.737928566,-1.643836676,-1.643836676
1782647703.384476,,,,4856.000000000,358.000000000,0.000000000,,,
1782647703.384535,0.275181770,-0.028426647,0.000000000,,,,15.766767356,-1.628728285,-1.628728285
1782647703.394550,,,,4853.000000000,344.000000000,0.000000000,,,
1782647703.394605,0.275685132,-0.028282642,0.000000000,,,,15.795607854,-1.620477410,-1.620477410
1782647703.404330,,,,4869.000000000,371.000000000,0.000000000,,,
1782647703.404358,0.276428133,-0.028258801,0.000000000,,,,15.838178752,-1.619111371,-1.619111371
